;TIME:4039.89
;Filament used:6.53448m
;Layer height:0.200
; HEADER_BLOCK_START
; generated by Creality_Print V7.0.0.4127 on 2026-02-12 at 22:47:29
; total layer number: 25
; filament_density: 1.24,1.24,1.24,1.24
; filament_diameter: 1.75,1.75,1.75,1.75
; max_z_height: 5.00
; creality_uuid: 0f5bd89a-6a83-49da-af41-b310eb58dff7
; HEADER_BLOCK_END

; MINX = 15.14
; MINY = 99.06
; MINZ = 0.00
; MAXX = 215.14
; MAXY = 132.39
; MAXZ = 5.00

; multicolor_method = 0 
; THUMBNAIL_BLOCK_START

;
; THUMBNAIL_BLOCK_END

; THUMBNAIL_BLOCK_START

;
; THUMBNAIL_BLOCK_END

; external perimeters extrusion width = 0.42mm
; perimeters extrusion width = 0.45mm
; infill extrusion width = 0.45mm
; solid infill extrusion width = 0.42mm
; top infill extrusion width = 0.42mm
; first layer extrusion width = 0.50mm

; EXECUTABLE_BLOCK_START
M73 P0 R67
M201 X5000 Y5000 Z500 E5000
M203 X500 Y500 Z30 E100
M204 P5000 R2500 T5000 ; sets acceleration (P, T) and retract acceleration (R), mm/sec^2
M205 X10.00 Y10.00 Z0.40 E5.00 ; sets the jerk limits, mm/sec
; max_print_temp = 50,190
;TYPE:Custom
M220 S100 ;Reset Feedrate 
M221 S100 ;Reset Flowrate 
 
M140 S50 ;Set final bed temp 
G28 ;Home 
 
G92 E0 ;Reset Extruder 
G1 Z2.0 F3000 ;Move Z Axis up 
M104 S190 ;Set final nozzle temp 
G1 X-2.1 Y20 Z0.28 F5000.0 ;Move to start position 
M190 S50 ;Wait for bed temp to stabilize 
M109 S190 ;Wait for nozzle temp to stabilize 
G1 X-2.1 Y145.0 Z0.28 F1500.0 E15 ;Draw the first line 
G1 X-2.4 Y145.0 Z0.28 F5000.0 ;Move to side a little 
G1 X-2.4 Y20 Z0.28 F1500.0 E30 ;Draw the second line 
G92 E0  ;Reset Extruder 
G1 E-1.0000 F1800 ;Retract a bit 
G1 Z2.0 F3000 ;Move Z Axis up 
G1 E0.0000 F1800
G90
G21
M83 ; use relative distances for extrusion
;filament start gcode
; MANUAL_TOOL_CHANGE T0
G1 E-1.2 F2400
G1 Z.2 F9000
M106 S0
;LAYER_CHANGE
;:0.2
;HEIGHT:0.2
;BEFORE_LAYER_CHANGE
;0.2
G92 E0
;TIME_ELAPSED:66.344986
;_SET_FAN_SPEED_CHANGING_LAYER
M204 P500
M205 X10 Y10
; OBJECT_ID: 74
; printing object BordjeV2_minigent_helebakjebalk.stl id:0 copy 0
M204 T500
G1 X138.423 Y105.377 Z.4 F9000
G1 Z.2
G1 E1.2 F1800
;TYPE:Inner wall
;WIDTH:0.499999
G1 X138.403 Y105.435 E.00224
G1 X138.167 Y105.667 E.01193
G1 X137.615 Y105.94 E.02225
G1 X136.904 Y106.134 E.0266
G3 X134.795 Y106.227 I-1.353 J-6.747 E.07653
G1 X134.296 Y106.096 E.01862
G1 X133.863 Y105.853 E.01795
G1 X133.647 Y105.614 E.01162
G1 X133.557 Y105.32 E.0111
G1 X133.599 Y105.081 E.00876
G1 X133.713 Y104.899 E.00777
G1 X133.969 Y104.705 E.01159
G1 X134.437 Y104.519 E.01819
G1 X135.128 Y104.387 E.02538
G1 X136.022 Y104.34 E.03232
G1 X136.887 Y104.387 E.03128
G1 X137.504 Y104.504 E.02268
G1 X137.98 Y104.673 E.01823
G1 X138.248 Y104.842 E.01146
G1 X138.425 Y105.047 E.00977
G1 X138.454 Y105.288 E.00875
G1 X138.436 Y105.339 E.00195
G1 X138.672 Y104.6 F9000
;TYPE:Outer wall
G1 F1800
G1 X138.855 Y104.865 E.01163
G1 X138.891 Y105.047 E.0067
G1 X138.891 Y105.462 E.01495
G1 X138.728 Y105.759 E.01226
G1 X138.416 Y106.054 E.01549
G1 X137.778 Y106.37 E.02571
G1 X136.997 Y106.583 E.02924
G3 X134.718 Y106.68 I-1.448 J-7.237 E.08267
G1 X134.134 Y106.526 E.02182
G1 X133.673 Y106.295 E.01861
G1 X133.349 Y106.008 E.01563
G1 X133.158 Y105.686 E.01354
G1 X133.093 Y105.321 E.01337
G1 X133.164 Y104.914 E.01492
G1 X133.371 Y104.585 E.01402
G1 X133.742 Y104.303 E.01685
G1 X134.309 Y104.078 E.02202
G1 X135.073 Y103.933 E.02807
G1 X136.022 Y103.882 E.03432
G1 X136.942 Y103.932 E.03326
G1 X137.695 Y104.074 E.02768
G1 X138.266 Y104.294 E.02209
G1 X138.647 Y104.565 E.01687
G1 X138.649 Y104.568 E.00013
G1 E-1.2 F2400
;WIPE_START
G1 F9000
G1 X138.855 Y104.865
G1 X138.891 Y105.047
G1 X138.891 Y105.462
G1 X138.728 Y105.759
G1 X138.416 Y106.054
G1 X138.174 Y106.173
;WIPE_END
G1 X137.554 Y104.657 Z.4
G1 Z.2
G1 E1.2 F1800
;TYPE:Bottom surface
;WIDTH:0.558826
G1 F4800
G1 X138.103 Y105.205 E.03164
G3 X137.98 Y105.377 I-.2 J-.013 E.00904
G1 X137.689 Y105.521 E.01326
G1 X136.907 Y104.74 E.04505
G1 X136.127 Y104.689 E.03186
G1 X137.15 Y105.712 E.05895
G3 X136.547 Y105.839 I-.804 J-2.325 E.02517
G1 X135.425 Y104.716 E.0647
G2 X134.781 Y104.802 I-.015 J2.336 E.02654
G1 X135.891 Y105.912 E.06396
G3 X135.161 Y105.912 I-.365 J-2.9 E.0298
G1 X134.222 Y104.973 E.05413
G2 X133.925 Y105.207 I.25 J.625 E.01561
G2 X133.92 Y105.4 I.263 J.104 E.00806
G1 X134.537 Y106.018 E.0356
G1 E-1.2 F2400
;WIPE_START
G1 F9000
G1 X133.92 Y105.4
G1 X133.905 Y105.319
G1 X133.925 Y105.207
G1 X133.97 Y105.134
G1 X134.139 Y105.006
G1 X134.222 Y104.973
G1 X134.606 Y105.357
;WIPE_END
G1 X135.481 Y109.072 Z.4
G1 X137.175 Y116.26 Z.4
G1 Z.2
G1 E1.2 F1800
;TYPE:Inner wall
;WIDTH:0.499999
G1 X137.072 Y116.38 E.00569
G3 X136.022 Y116.779 I-1.116 J-1.355 E.04131
G1 X135.604 Y116.727 E.01518
G1 X135.235 Y116.583 E.01431
G1 X134.929 Y116.366 E.01357
G1 X134.701 Y116.097 E.01272
G3 X134.561 Y115.09 I1.175 J-.676 E.03763
G1 X134.691 Y114.781 E.0121
G1 X134.892 Y114.536 E.01145
G1 X135.176 Y114.342 E.01241
G1 X135.419 Y114.257 E.00931
G1 X135.885 Y114.173 E.01708
G3 X136.952 Y114.44 I.146 J1.683 E.04046
G3 X137.358 Y114.959 I-.711 J.975 E.0241
G1 X137.478 Y115.524 E.02085
G3 X137.289 Y116.116 I-1.283 J-.085 E.02265
G1 X137.2 Y116.229 E.00519
G1 X137.872 Y115.971 F9000
;TYPE:Outer wall
G1 F1800
G1 X137.682 Y116.371 E.01601
G1 X137.382 Y116.721 E.01663
G1 X136.991 Y116.996 E.01728
G1 X136.53 Y117.176 E.01784
G1 X136.022 Y117.24 E.01849
G1 X135.491 Y117.174 E.0193
G1 X135.017 Y116.989 E.01839
G1 X134.617 Y116.705 E.01769
G1 X134.312 Y116.346 E.01702
G1 X134.119 Y115.933 E.01647
G1 X134.051 Y115.478 E.01659
G1 X134.115 Y114.97 E.01848
G1 X134.296 Y114.543 E.01677
G1 X134.581 Y114.196 E.0162
G1 X134.968 Y113.931 E.01694
G1 X135.459 Y113.759 E.01878
G1 X136.047 Y113.697 E.02134
G1 X136.585 Y113.761 E.01957
G1 X137.042 Y113.938 E.01771
G1 X137.414 Y114.213 E.01672
G1 X137.695 Y114.575 E.01654
G1 X137.876 Y115.017 E.01724
G1 X137.94 Y115.531 E.01868
G1 X137.878 Y115.931 E.01463
G1 E-1.2 F2400
;WIPE_START
G1 F9000
G1 X137.682 Y116.371
G1 X137.382 Y116.721
G1 X136.991 Y116.996
G1 X136.53 Y117.176
G1 X136.446 Y117.186
;WIPE_END
G1 X136.351 Y114.331 Z.4
G1 Z.2
G1 E1.2 F1800
;TYPE:Bottom surface
;WIDTH:0.560526
G1 F4800
G1 X136.996 Y114.979 E.03738
G3 X137.074 Y115.787 I-.856 J.49 E.0342
G1 X135.813 Y114.526 E.07292
G1 X135.635 Y114.544 E.0073
G1 X135.332 Y114.651 E.01313
G1 X135.257 Y114.702 E.00372
G1 X136.746 Y116.19 E.08607
G3 X136.231 Y116.407 I-.725 J-1.003 E.02305
G1 X134.927 Y115.104 E.07537
G1 X134.895 Y115.18 E.00336
G2 X134.983 Y115.892 I.929 J.247 E.03006
G1 X135.691 Y116.6 E.04094
G1 E-1.2 F2400
;WIPE_START
G1 F9000
G1 X134.983 Y115.892
G1 X134.893 Y115.699
G1 X134.859 Y115.469
G1 X134.895 Y115.18
G1 X134.927 Y115.104
G1 X135.054 Y115.231
;WIPE_END
G1 X138.862 Y115.482 Z.4
G1 X150.132 Y116.227 Z.4
G1 Z.2
G1 E1.2 F1800
;TYPE:Inner wall
;WIDTH:0.499999
G1 X149.987 Y116.441 E.00935
G1 X149.661 Y116.723 E.01556
G1 X149.153 Y116.952 E.02011
G1 X148.576 Y117.02 E.02097
G1 X147.926 Y116.953 E.02361
G1 X147.408 Y116.768 E.01986
G1 X146.997 Y116.479 E.01815
G1 X146.673 Y116.085 E.0184
G1 X146.52 Y115.779 E.01236
G1 X150.347 Y115.779 E.13817
G1 X150.239 Y116.068 E.01114
G1 X150.154 Y116.194 E.00546
G1 E-1.2 F2400
;WIPE_START
G1 F9000
G1 X149.987 Y116.441
G1 X149.661 Y116.723
G1 X149.153 Y116.952
G1 X148.576 Y117.02
G1 X148.445 Y117.007
;WIPE_END
G1 X150.928 Y115.322 Z.4
G1 Z.2
G1 E1.2 F1800
;TYPE:Outer wall
G1 X150.875 Y115.672 E.01278
G1 X150.638 Y116.309 E.02453
G1 X150.288 Y116.806 E.02196
G1 X149.834 Y117.17 E.02102
G1 X149.268 Y117.399 E.02204
G1 X148.58 Y117.48 E.02501
G1 X147.824 Y117.402 E.02743
G1 X147.196 Y117.178 E.02409
G1 X146.683 Y116.817 E.02264
G1 X146.271 Y116.315 E.02345
G1 X145.966 Y115.682 E.02538
G1 X145.865 Y115.322 E.01349
G1 X150.888 Y115.322 E.18136
G1 E-1.2 F2400
;WIPE_START
G1 F9000
G1 X150.875 Y115.672
G1 X150.638 Y116.309
G1 X150.288 Y116.806
G1 X150.005 Y117.033
;WIPE_END
G1 X149.731 Y116.491 Z.4
G1 Z.2
G1 E1.2 F1800
;TYPE:Bottom surface
;WIDTH:0.560148
G1 F4800
G1 X149.362 Y116.122 E.02132
G1 X148.631 Y116.122 E.02989
G1 X149.109 Y116.6 E.02763
G1 X148.574 Y116.676 E.02209
G1 X148.439 Y116.662 E.00553
G1 X147.899 Y116.122 E.03119
G1 X147.168 Y116.122 E.02989
G1 X147.814 Y116.767 E.0373
G1 E-1.2 F2400
;WIPE_START
G1 F9000
G1 X147.168 Y116.122
G1 X147.899 Y116.122
G1 X148.151 Y116.373
;WIPE_END
G1 X151.929 Y115.833 Z.4
G1 X187.959 Y110.681 Z.4
G1 Z.2
G1 E1.2 F1800
;TYPE:Inner wall
;WIDTH:0.499999
G1 X188.331 Y110.623 E.01362
G3 X189.415 Y110.608 I.635 J6.612 E.03919
G1 X189.918 Y110.724 E.01865
G1 X190.462 Y110.964 E.02145
G1 X190.853 Y111.261 E.01773
G1 X191.236 Y111.684 E.0206
G3 X191.799 Y113.73 I-2.856 J1.887 E.07788
G1 X191.766 Y114.252 E.01892
G1 X191.63 Y114.972 E.02644
G1 X191.456 Y115.481 E.01943
G1 X191.203 Y115.937 E.01882
G1 X190.847 Y116.369 E.02022
G1 X190.322 Y116.729 E.02297
G1 X189.703 Y116.915 E.02335
G1 X189.14 Y116.936 E.02034
G1 X188.643 Y116.856 E.01818
G1 X188.057 Y116.59 E.02323
G1 X187.466 Y116.176 E.02606
G1 X187.466 Y110.765 E.19534
G1 X187.551 Y110.745 E.00317
G1 X187.919 Y110.688 E.01344
G1 X187.009 Y110.405 F9000
;TYPE:Outer wall
G1 F1800
G3 X188.951 Y110.13 I2.355 J9.655 E.07093
G1 X189.632 Y110.185 E.02468
G1 X190.167 Y110.327 E.01997
G1 X190.698 Y110.571 E.02111
G1 X191.217 Y110.976 E.02377
G1 X191.609 Y111.419 E.02136
G1 X191.903 Y111.938 E.02153
G1 X192.104 Y112.481 E.02091
G1 X192.233 Y113.108 E.02312
G1 X192.256 Y113.75 E.02318
G3 X191.672 Y116.062 I-5.051 J-.046 E.08691
G1 X191.283 Y116.569 E.02309
G1 X190.855 Y116.949 E.02065
G1 X190.327 Y117.217 E.02138
G1 X189.761 Y117.37 E.02119
G1 X189.112 Y117.395 E.02346
G1 X188.518 Y117.299 E.02169
G1 X187.951 Y117.068 E.02212
G3 X187.009 Y116.39 I2.886 J-5.006 E.04198
G1 X187.009 Y110.445 E.21466
G1 E-1.2 F2400
;WIPE_START
G1 F9000
G1 X187.485 Y110.293
G1 X188.334 Y110.165
G1 X188.951 Y110.13
G1 X188.974 Y110.132
;WIPE_END
G1 X190.008 Y110.901 Z.4
G1 Z.2
G1 E1.2 F1800
;TYPE:Bottom surface
;WIDTH:0.513731
G1 F4800
G1 X190.799 Y111.691 E.0416
G3 X191.394 Y112.952 I-2.038 J1.732 E.05243
G1 X189.375 Y110.949 E.10576
G2 X188.718 Y110.942 I-.36 J3.106 E.02445
G1 X191.458 Y113.682 E.14409
G3 X191.413 Y114.303 I-3.289 J.073 E.02318
G1 X188.114 Y111.004 E.17349
G1 X187.809 Y111.052 E.0115
M73 P0 R66
G1 X187.809 Y111.364 E.01162
G1 X191.305 Y114.86 E.18387
G3 X191.135 Y115.356 I-4.691 J-1.326 E.01951
G1 X187.809 Y112.03 E.17495
G1 X187.809 Y112.696 E.02476
G1 X190.894 Y115.781 E.16226
G3 X190.586 Y116.139 I-1.929 J-1.349 E.01759
G1 X187.809 Y113.362 E.14606
G1 X187.809 Y114.028 E.02476
G1 X190.19 Y116.409 E.12525
G3 X189.683 Y116.568 I-.926 J-2.061 E.0198
G1 X187.809 Y114.693 E.09861
G1 X187.809 Y115.359 E.02476
G1 X189.244 Y116.795 E.07552
G1 X188.606 Y116.594 F9000
;TYPE:Gap infill
;WIDTH:0.280251
G1 F1800
G1 X188.302 Y116.344 E.00738
;WIDTH:0.318572
G1 X187.998 Y116.093 E.00857
;WIDTH:0.337733
G1 X187.694 Y115.843 E.00917
G1 E-1.2 F2400
;WIPE_START
G1 F9000
G1 X187.998 Y116.093
;WIPE_END
G1 X191.814 Y116.124 Z.4
G1 X204.292 Y116.227 Z.4
G1 Z.2
G1 E1.2 F1800
;TYPE:Inner wall
;WIDTH:0.499999
G1 X204.146 Y116.441 E.00935
G1 X203.821 Y116.723 E.01556
G1 X203.313 Y116.952 E.02011
G1 X202.736 Y117.02 E.02097
G1 X202.086 Y116.953 E.02361
G1 X201.568 Y116.768 E.01986
G1 X201.156 Y116.479 E.01815
G1 X200.833 Y116.085 E.0184
G1 X200.68 Y115.779 E.01236
G1 X204.507 Y115.779 E.13817
G1 X204.399 Y116.068 E.01114
G1 X204.314 Y116.194 E.00547
G1 E-1.2 F2400
;WIPE_START
G1 F9000
G1 X204.146 Y116.441
G1 X203.821 Y116.723
G1 X203.313 Y116.952
G1 X202.736 Y117.02
G1 X202.605 Y117.007
;WIPE_END
G1 X205.088 Y115.322 Z.4
G1 Z.2
G1 E1.2 F1800
;TYPE:Outer wall
G1 X205.035 Y115.672 E.01278
G1 X204.798 Y116.309 E.02453
G1 X204.448 Y116.806 E.02196
G1 X203.994 Y117.17 E.02102
G1 X203.428 Y117.399 E.02204
G1 X202.74 Y117.48 E.02501
G1 X201.984 Y117.402 E.02743
G1 X201.356 Y117.178 E.02409
G1 X200.843 Y116.817 E.02264
G1 X200.431 Y116.315 E.02345
G1 X200.126 Y115.682 E.02538
G1 X200.025 Y115.322 E.01349
G1 X205.048 Y115.322 E.18136
G1 E-1.2 F2400
;WIPE_START
G1 F9000
G1 X205.035 Y115.672
G1 X204.798 Y116.309
G1 X204.448 Y116.806
G1 X204.165 Y117.033
;WIPE_END
G1 X203.891 Y116.491 Z.4
G1 Z.2
G1 E1.2 F1800
;TYPE:Bottom surface
;WIDTH:0.56015
G1 F4800
G1 X203.522 Y116.122 E.02132
G1 X202.791 Y116.122 E.02989
G1 X203.269 Y116.6 E.02763
G1 X202.734 Y116.676 E.02209
G1 X202.599 Y116.662 E.00553
G1 X202.059 Y116.122 E.03119
G1 X201.328 Y116.122 E.02989
G1 X201.974 Y116.767 E.0373
G1 E-1.2 F2400
;WIPE_START
G1 F9000
G1 X201.328 Y116.122
G1 X202.059 Y116.122
G1 X202.311 Y116.373
;WIPE_END
G1 X204.614 Y119.416 Z.4
G1 X213.785 Y131.532 Z.4
G1 Z.2
G1 E1.2 F1800
;TYPE:Inner wall
;WIDTH:0.499999
G1 X15.999 Y131.532 E7.14125
G1 X15.999 Y99.912 E1.14164
G1 X214.285 Y99.912 E7.1593
G1 X214.285 Y131.532 E1.14164
G1 X213.825 Y131.532 E.01661
G1 E-1.2 F2400
;WIPE_START
G1 F9000
G1 X211.825 Y131.532
;WIPE_END
G1 X214.742 Y131.989 Z.4
G1 Z.2
G1 E1.2 F1800
;TYPE:Outer wall
G1 X15.542 Y131.989 E7.19231
G1 X15.542 Y99.455 E1.17465
M73 P1 R66
G1 X214.742 Y99.455 E7.19231
G1 X214.742 Y131.949 E1.1732
G1 E-1.2 F2400
;WIPE_START
G1 F9000
G1 X212.742 Y131.949
;WIPE_END
G1 X210.938 Y128.586 Z.4
G1 X202.302 Y112.492 Z.4
G1 Z.2
G1 E1.2 F1800
;TYPE:Inner wall
G1 X207.165 Y112.492 E.1756
G3 X208.251 Y112.517 I-1.209 J75.866 E.0392
G1 X208.542 Y112.683 E.01212
G1 X208.703 Y112.92 E.01033
G1 X208.752 Y113.204 E.01042
G1 X208.703 Y114.449 E.04499
G1 X208.573 Y115.49 E.03788
G1 X208.355 Y116.448 E.03545
G1 X208.05 Y117.321 E.03341
G1 X207.655 Y118.109 E.03181
G1 X207.172 Y118.807 E.03066
G1 X206.601 Y119.408 E.02993
G1 X205.949 Y119.906 E.02962
G3 X204.441 Y120.57 I-3.248 J-5.336 E.05968
G1 X203.606 Y120.734 E.03072
G1 X202.729 Y120.791 E.03174
G1 X201.819 Y120.74 E.03288
G1 X200.95 Y120.576 E.03194
G1 X200.13 Y120.302 E.03119
G1 X199.369 Y119.924 E.03071
G1 X198.674 Y119.445 E.03048
G1 X198.053 Y118.872 E.03049
G1 X197.515 Y118.212 E.03073
G1 X197.065 Y117.475 E.03121
G1 X196.708 Y116.666 E.0319
G1 X196.456 Y115.821 E.03184
G1 X196.312 Y114.929 E.03262
;WIDTH:0.473888
G1 X196.296 Y114.463 E.01589
;WIDTH:0.446028
G1 X196.279 Y113.996 E.01486
;WIDTH:0.461277
G1 X196.296 Y112.982 E.03352
;WIDTH:0.499999
G1 X196.415 Y112.09 E.0325
G1 X196.648 Y111.228 E.03226
G1 X196.975 Y110.404 E.032
G1 X197.395 Y109.629 E.03183
G3 X198.518 Y108.272 I6.989 J4.639 E.06369
G1 X199.218 Y107.716 E.03228
G1 X200.008 Y107.261 E.03292
G1 X200.882 Y106.919 E.03388
G1 X201.833 Y106.704 E.03522
G1 X202.832 Y106.628 E.03617
G3 X205.29 Y106.881 I.167 J10.407 E.08941
G1 X206.144 Y107.139 E.03221
G3 X207.741 Y107.921 I-3.08 J8.317 E.06433
G1 X208.217 Y108.224 E.02037
G1 X208.399 Y108.396 E.00903
G1 X208.532 Y108.689 E.01164
G1 X208.532 Y111.29 E.0939
G3 X208.423 Y111.661 I-.686 J0 E.01417
G1 X208.178 Y111.89 E.01212
G1 X207.787 Y112.057 E.01534
;WIDTH:0.48736
G1 X207.669 Y112.064 E.00413
;WIDTH:0.499999
G1 X207.312 Y111.972 E.01333
G2 X205.316 Y110.937 I-5.73 J8.606 E.08133
G2 X202.971 Y110.635 I-1.843 J5.05 E.08607
G1 X202.27 Y110.778 E.02582
G1 X201.837 Y110.954 E.01691
G1 X201.367 Y111.269 E.02042
G1 X201.071 Y111.572 E.01526
G1 X200.706 Y112.146 E.02459
G1 X200.562 Y112.492 E.01351
G1 X202.262 Y112.492 E.06139
G1 E-1.2 F2400
;WIPE_START
G1 F9000
G1 X204.262 Y112.492
;WIPE_END
G1 X200.467 Y112.895 Z.4
G1 X199.966 Y112.949 Z.4
G1 Z.2
G1 E1.2 F1800
;TYPE:Outer wall
G1 X208.067 Y112.949 E.2925
G1 X208.226 Y113.012 E.00617
G1 X208.296 Y113.178 E.00648
G1 X208.246 Y114.431 E.04531
G1 X208.12 Y115.433 E.03644
G1 X207.91 Y116.345 E.0338
G1 X207.619 Y117.168 E.03153
G1 X207.248 Y117.902 E.02968
G1 X206.798 Y118.543 E.0283
G1 X206.272 Y119.091 E.02739
G1 X205.676 Y119.54 E.02698
G1 X205.014 Y119.889 E.02703
G1 X204.293 Y120.137 E.02751
G1 X203.521 Y120.285 E.02839
G1 X202.702 Y120.335 E.02963
G1 X201.848 Y120.283 E.03089
G1 X201.038 Y120.127 E.02979
G1 X200.278 Y119.87 E.02895
G1 X199.575 Y119.516 E.0284
G1 X198.936 Y119.071 E.02814
G1 X198.366 Y118.539 E.02815
G1 X197.871 Y117.926 E.02843
G1 X197.457 Y117.24 E.02896
G1 X197.127 Y116.485 E.02974
G1 X196.895 Y115.693 E.02978
