;TIME:1521.62
;Filament used:1.63555m
;Layer height:0.200
; HEADER_BLOCK_START
; generated by Creality_Print V7.0.0.4127 on 2026-02-12 at 22:47:08
; total layer number: 25
; filament_density: 1.24,1.24,1.24,1.24
; filament_diameter: 1.75,1.75,1.75,1.75
; max_z_height: 5.00
; creality_uuid: dca5eb8b-d5e6-4f02-beb3-4d614e6a0a0c
; HEADER_BLOCK_END

; MINX = 22.64
; MINY = 98.60
; MINZ = 0.00
; MAXX = 197.36
; MAXY = 121.40
; MAXZ = 5.00

; multicolor_method = 0 
; THUMBNAIL_BLOCK_START

;
; THUMBNAIL_BLOCK_END

; THUMBNAIL_BLOCK_START

;
; THUMBNAIL_BLOCK_END

; external perimeters extrusion width = 0.42mm
; perimeters extrusion width = 0.45mm
; infill extrusion width = 0.45mm
; solid infill extrusion width = 0.42mm
; top infill extrusion width = 0.42mm
; first layer extrusion width = 0.50mm

; EXECUTABLE_BLOCK_START
M73 P0 R25
M201 X5000 Y5000 Z500 E5000
M203 X500 Y500 Z30 E100
M204 P5000 R2500 T5000 ; sets acceleration (P, T) and retract acceleration (R), mm/sec^2
M205 X10.00 Y10.00 Z0.40 E5.00 ; sets the jerk limits, mm/sec
; max_print_temp = 50,190
;TYPE:Custom
M220 S100 ;Reset Feedrate 
M221 S100 ;Reset Flowrate 
 
M140 S50 ;Set final bed temp 
G28 ;Home 
 
G92 E0 ;Reset Extruder 
G1 Z2.0 F3000 ;Move Z Axis up 
M104 S190 ;Set final nozzle temp 
G1 X-2.1 Y20 Z0.28 F5000.0 ;Move to start position 
M190 S50 ;Wait for bed temp to stabilize 
M109 S190 ;Wait for nozzle temp to stabilize 
G1 X-2.1 Y145.0 Z0.28 F1500.0 E15 ;Draw the first line 
G1 X-2.4 Y145.0 Z0.28 F5000.0 ;Move to side a little 
G1 X-2.4 Y20 Z0.28 F1500.0 E30 ;Draw the second line 
G92 E0  ;Reset Extruder 
G1 E-1.0000 F1800 ;Retract a bit 
G1 Z2.0 F3000 ;Move Z Axis up 
G1 E0.0000 F1800
G90
G21
M83 ; use relative distances for extrusion
;filament start gcode
; MANUAL_TOOL_CHANGE T0
G1 E-1.2 F2400
G1 Z.2 F9000
M106 S0
;LAYER_CHANGE
;:0.2
;HEIGHT:0.2
;BEFORE_LAYER_CHANGE
;0.2
G92 E0
;TIME_ELAPSED:50.180141
;_SET_FAN_SPEED_CHANGING_LAYER
M204 P500
M205 X10 Y10
; OBJECT_ID: 110
; printing object BordjeV2_minigent_letters.stl id:0 copy 0
M204 T500
G1 X188.757 Y110.45 Z.4 F9000
G1 Z.2
G1 E1.2 F1800
;TYPE:Inner wall
;WIDTH:0.598254
G1 X188.675 Y110.543 E.00543
G1 X188.644 Y110.69 E.00658
;WIDTH:0.557314
G1 X188.613 Y110.837 E.0061
;WIDTH:0.516374
G1 X188.7 Y111.412 E.02175
;WIDTH:0.503758
G1 X188.856 Y111.98 E.02143
;WIDTH:0.497249
G1 X189.153 Y112.713 E.02839
;WIDTH:0.463795
G1 X189.574 Y113.358 E.0256
;WIDTH:0.44091
G1 X189.956 Y113.764 E.01752
;WIDTH:0.421137
G1 X190.355 Y114.068 E.015
;WIDTH:0.407274
G1 X190.803 Y114.311 E.01465
;WIDTH:0.39829
G1 X191.335 Y114.499 E.01585
;WIDTH:0.394319
G1 X191.875 Y114.612 E.01532
;WIDTH:0.389268
G1 X192.612 Y114.665 E.0202
;WIDTH:0.377284
G1 X193.39 Y114.574 E.02069
;WIDTH:0.382583
G1 X193.861 Y114.436 E.01317
;WIDTH:0.389383
G1 X194.28 Y114.24 E.01266
;WIDTH:0.396713
G1 X194.71 Y113.947 E.01455
;WIDTH:0.409936
G1 X195.121 Y113.527 E.01705
;WIDTH:0.410464
G1 X195.427 Y113.092 E.01543
;WIDTH:0.419778
G1 X195.658 Y112.607 E.01599
;WIDTH:0.424917
G1 X195.861 Y112.022 E.01868
;WIDTH:0.459687
G1 X195.971 Y111.312 E.02364
;WIDTH:0.491401
G1 X196.01 Y110.758 E.01967
G1 X195.648 Y110.478 E.01622
G1 X196.475 Y110.478 E.02932
G1 X196.449 Y110.73 E.009
G1 X196.381 Y111.386 E.02336
;WIDTH:0.459687
G1 X196.176 Y112.278 E.03013
;WIDTH:0.419778
G3 X195.728 Y113.303 I-4.542 J-1.377 E.03339
;WIDTH:0.410464
G1 X195.403 Y113.76 E.01625
;WIDTH:0.409936
G1 X195.039 Y114.138 E.01522
;WIDTH:0.403616
G1 X194.525 Y114.502 E.01794
;WIDTH:0.392274
G1 X194.074 Y114.72 E.01384
;WIDTH:0.385824
G1 X193.593 Y114.874 E.01367
;WIDTH:0.388275
G3 X192.446 Y115 I-1.116 J-4.869 E.03156
;WIDTH:0.389268
G1 X191.824 Y114.954 E.01706
;WIDTH:0.394319
G1 X191.219 Y114.831 E.01714
G1 X190.541 Y114.579 E.02007
;WIDTH:0.405663
G1 X190.094 Y114.331 E.01466
;WIDTH:0.420924
G1 X189.682 Y114.026 E.01531
;WIDTH:0.43824
G1 X189.299 Y113.652 E.01671
;WIDTH:0.467267
G1 X188.954 Y113.196 E.01914
;WIDTH:0.478088
G1 X188.658 Y112.688 E.02021
;WIDTH:0.497249
G1 X188.424 Y112.12 E.02205
;WIDTH:0.503758
G1 X188.248 Y111.498 E.02356
;WIDTH:0.516374
G1 X188.145 Y110.845 E.02471
;WIDTH:0.557314
G1 X188.153 Y110.629 E.00879
;WIDTH:0.598254
G2 X188.137 Y110.25 I-1.007 J-.147 E.01674
;WIDTH:0.565217
G1 X188.113 Y110.087 E.0068
;WIDTH:0.532179
G1 X188.141 Y109.41 E.02617
;WIDTH:0.528747
G1 X188.265 Y108.717 E.02702
;WIDTH:0.535409
G1 X188.447 Y108.09 E.02539
;WIDTH:0.539078
G1 X188.693 Y107.501 E.02502
;WIDTH:0.54139
G1 X189.004 Y106.955 E.02476
;WIDTH:0.542906
G1 X189.38 Y106.458 E.0246
;WIDTH:0.543143
G3 X190.316 Y105.655 I3.184 J2.765 E.04892
;WIDTH:0.540863
G1 X190.861 Y105.367 E.02424
;WIDTH:0.534694
G1 X191.442 Y105.16 E.02397
;WIDTH:0.523835
G1 X192.05 Y105.033 E.02358
;WIDTH:0.50833
G1 X192.723 Y104.978 E.02482
;WIDTH:0.487613
G1 X193.522 Y105 E.02811
;WIDTH:0.467518
G1 X194.248 Y105.091 E.02453
;WIDTH:0.452188
G1 X194.917 Y105.249 E.02222
;WIDTH:0.433574
G1 X195.666 Y105.529 E.02467
;WIDTH:0.401532
G1 X196.402 Y105.907 E.02344
;WIDTH:0.364632
G1 X196.428 Y106.273 E.00934
;WIDTH:0.384169
G1 X195.96 Y106.047 E.01401
;WIDTH:0.414138
G1 X195.374 Y105.803 E.01861
;WIDTH:0.434871
G1 X194.723 Y105.602 E.02109
;WIDTH:0.45001
G1 X193.968 Y105.461 E.02471
;WIDTH:0.46689
G1 X193.205 Y105.41 E.02559
;WIDTH:0.488317
G1 X192.602 Y105.431 E.02124
;WIDTH:0.512617
G1 X192.022 Y105.509 E.0217
;WIDTH:0.529663
G1 X191.472 Y105.653 E.02189
;WIDTH:0.539678
G1 X190.955 Y105.864 E.0219
;WIDTH:0.543819
G1 X190.48 Y106.142 E.02178
;WIDTH:0.544055
G2 X189.678 Y106.879 I2.192 J3.19 E.04326
;WIDTH:0.542422
G1 X189.358 Y107.325 E.02167
;WIDTH:0.540248
G1 X189.092 Y107.815 E.0219
;WIDTH:0.537758
G1 X188.879 Y108.345 E.02233
;WIDTH:0.534054
G1 X188.717 Y108.913 E.0229
;WIDTH:0.527189
G1 X188.607 Y109.494 E.02263
;WIDTH:0.515817
G1 X188.57 Y109.88 E.01447
;WIDTH:0.55193
G1 X188.616 Y110.056 E.00734
;WIDTH:0.598254
G1 X188.662 Y110.233 E.00801
G1 X188.815 Y110.382 E.00938
G1 X188.783 Y110.42 E.00219
G1 X189.045 Y109.671 F9000
;TYPE:Outer wall
;WIDTH:0.499999
G1 F1800
G1 X189.029 Y109.752 E.00298
G1 X189.07 Y109.932 E.00668
;WIDTH:0.537209
G1 X189.127 Y109.982 E.00295
;WIDTH:0.574419
G1 X189.184 Y110.031 E.00317
;WIDTH:0.611628
G2 X189.301 Y110.079 I.086 J-.041 E.00626
;WIDTH:0.60896
G1 X195.35 Y110.079 E.27047
G1 X195.642 Y110.061 E.01309
;WIDTH:0.57264
G1 X195.935 Y110.043 E.01225
;WIDTH:0.53632
G1 X196.227 Y110.025 E.01141
;WIDTH:0.499999
G1 X196.946 Y110.025 E.02598
G1 X196.924 Y110.585 E.02024
G3 X196.635 Y112.228 I-8.31 J-.619 E.06035
G1 X196.391 Y112.912 E.0262
G1 X196.089 Y113.506 E.02406
G1 X195.732 Y114.013 E.0224
G3 X194.346 Y115.05 I-3.069 J-2.655 E.06296
G3 X191.126 Y115.227 I-1.884 J-4.912 E.11836
G3 X188.266 Y112.906 I1.165 J-4.358 E.13697
G3 X187.68 Y110.883 I5.87 J-2.798 E.07639
G3 X188.235 Y107.345 I6.858 J-.737 E.1308
G3 X190.53 Y104.986 I4.51 J2.092 E.12113
G1 X191.183 Y104.737 E.02522
G1 X191.901 Y104.58 E.02655
G3 X194.318 Y104.662 I.899 J9.218 E.08755
G3 X196.776 Y105.679 I-1.345 J6.73 E.09665
M73 P1 R25
G2 X196.899 Y106.704 I7.164 J-.344 E.0373
G1 X196.912 Y106.993 E.01047
G2 X193.941 Y105.893 I-4.087 J6.47 E.11523
G2 X191.676 Y106.081 I-.685 J5.486 E.08266
G2 X189.532 Y107.997 I1.157 J3.452 E.10675
G2 X189.181 Y109.006 I6.292 J2.751 E.0386
G1 X189.053 Y109.632 E.02306
G1 E-1.2 F2400
;WIPE_START
G1 F9000
G1 X189.029 Y109.752
G1 X189.07 Y109.932
G1 X189.127 Y109.982
G1 X189.184 Y110.031
G1 X189.241 Y110.081
G1 X189.301 Y110.079
G1 X190.707 Y110.079
;WIPE_END
G1 X189.082 Y110.998 Z.4
G1 Z.2
G1 E1.2 F1800
G1 X189.078 Y110.976 E.00081
G1 X189.107 Y110.809 E.00612
;WIDTH:0.53632
G1 X189.164 Y110.754 E.00307
;WIDTH:0.57264
G1 X189.221 Y110.7 E.0033
;WIDTH:0.60896
G1 X189.278 Y110.646 E.00353
G1 X195.35 Y110.646 E.27152
G1 X195.424 Y110.721 E.00471
;WIDTH:0.57264
G1 X195.498 Y110.796 E.00441
;WIDTH:0.53632
G1 X195.571 Y110.871 E.00411
;WIDTH:0.499999
G1 X195.445 Y111.967 E.03982
G3 X195.09 Y112.855 I-5.879 J-1.836 E.03455
G1 X194.725 Y113.374 E.0229
G1 X194.409 Y113.67 E.01566
G1 X193.863 Y113.998 E.02297
G1 X193.387 Y114.171 E.0183
G1 X192.565 Y114.274 E.0299
G3 X191.63 Y114.176 I1.104 J-15.041 E.03397
G1 X190.909 Y113.918 E.02765
G3 X189.936 Y113.13 I1.484 J-2.828 E.0455
G1 X189.483 Y112.378 E.03169
G1 X189.221 Y111.647 E.02802
G1 X189.091 Y111.037 E.02254
G1 E-1.2 F2400
;WIPE_START
G1 F9000
G1 X189.078 Y110.976
G1 X189.107 Y110.809
G1 X189.164 Y110.754
G1 X189.221 Y110.7
G1 X189.278 Y110.646
G1 X190.809 Y110.646
;WIPE_END
G1 X187.11 Y111.582 Z.4
G1 X176.8 Y114.194 Z.4
G1 Z.2
G1 E1.2 F1800
;TYPE:Inner wall
;WIDTH:0.526876
G1 X176.542 Y114.672 E.02076
G1 X176.542 Y120.529 E.22394
G1 X176.058 Y120.529 E.0185
G1 X176.058 Y114.672 E.22394
G3 X176.058 Y106.446 I752.451 J-4.113 E.31445
;WIDTH:0.562811
G1 X176.076 Y106.162 E.0117
;WIDTH:0.598745
G1 X176.094 Y105.877 E.01251
;WIDTH:0.634679
G1 X176.112 Y105.593 E.01332
G2 X176.526 Y105.45 I-1.314 J-4.485 E.02048
;WIDTH:0.599976
G1 X176.734 Y105.373 E.00975
;WIDTH:0.565272
G1 X176.942 Y105.296 E.00915
;WIDTH:0.530568
G1 X177.699 Y105.131 E.02987
;WIDTH:0.509234
G1 X178.376 Y105.034 E.0252
;WIDTH:0.491524
G1 X179.062 Y104.98 E.02436
;WIDTH:0.472611
G1 X179.729 Y104.98 E.02264
;WIDTH:0.455318
G1 X180.375 Y105.034 E.02111
;WIDTH:0.461838
G1 X181.001 Y105.153 E.02109
;WIDTH:0.479362
G1 X181.603 Y105.343 E.02178
;WIDTH:0.500222
G1 X182.191 Y105.621 E.02348
;WIDTH:0.51843
G1 X182.709 Y105.964 E.02332
;WIDTH:0.531348
G1 X183.169 Y106.379 E.02393
;WIDTH:0.537881
G1 X183.568 Y106.87 E.02473
;WIDTH:0.53903
G3 X184.143 Y108.003 I-3.882 J2.682 E.04995
;WIDTH:0.537968
G1 X184.324 Y108.637 E.0258
;WIDTH:0.543395
G1 X184.442 Y109.388 E.03005
;WIDTH:0.557755
G1 X184.475 Y110.212 E.03352
;WIDTH:0.569458
G1 X184.43 Y110.906 E.0289
;WIDTH:0.576252
G1 X184.318 Y111.554 E.0277
;WIDTH:0.578812
G3 X183.914 Y112.703 I-5.153 J-1.167 E.05172
;WIDTH:0.577456
G1 X183.631 Y113.199 E.02409
;WIDTH:0.572068
G1 X183.302 Y113.639 E.02295
;WIDTH:0.562952
G1 X182.917 Y114.028 E.02251
;WIDTH:0.551979
G1 X182.517 Y114.338 E.02034
;WIDTH:0.540578
G1 X182.068 Y114.596 E.02035
;WIDTH:0.522004
G1 X181.583 Y114.79 E.01978
;WIDTH:0.497164
G1 X181.06 Y114.919 E.01931
;WIDTH:0.466466
G1 X180.49 Y114.975 E.01918
;WIDTH:0.431108
G1 X179.955 Y114.957 E.01641
;WIDTH:0.396665
G1 X179.442 Y114.877 E.01451
;WIDTH:0.410377
G1 X179.384 Y114.836 E.00207
;WIDTH:0.457026
G1 X179.326 Y114.794 E.00233
;WIDTH:0.503674
G1 X179.269 Y114.752 E.00259
;WIDTH:0.550323
G1 X179.211 Y114.71 E.00285
;WIDTH:0.596972
G1 X179.153 Y114.669 E.00312
;WIDTH:0.64362
G1 X179.096 Y114.627 E.00338
G1 X179.162 Y114.616 E.00318
;WIDTH:0.596972
G1 X179.228 Y114.605 E.00294
;WIDTH:0.550323
G1 X179.294 Y114.595 E.00269
;WIDTH:0.503674
G1 X179.361 Y114.584 E.00244
;WIDTH:0.457026
G1 X179.427 Y114.573 E.00219
;WIDTH:0.410377
G1 X179.493 Y114.562 E.00195
;WIDTH:0.404907
G1 X180.048 Y114.606 E.01591
;WIDTH:0.435596
G1 X180.583 Y114.576 E.01662
;WIDTH:0.471642
G1 X181.137 Y114.465 E.01914
;WIDTH:0.503485
G1 X181.66 Y114.271 E.0203
;WIDTH:0.530363
G1 X182.142 Y113.998 E.02134
;WIDTH:0.553334
G1 X182.587 Y113.642 E.02295
;WIDTH:0.562982
G1 X182.952 Y113.244 E.02222
;WIDTH:0.569196
G1 X183.27 Y112.779 E.0234
;WIDTH:0.571871
G2 X183.727 Y111.713 I-4.096 J-2.389 E.04857
;WIDTH:0.570888
G1 X183.866 Y111.123 E.02531
;WIDTH:0.565901
G1 X183.946 Y110.499 E.02599
;WIDTH:0.556401
G1 X183.965 Y109.834 E.02696
;WIDTH:0.542201
G1 X183.921 Y109.216 E.02444
;WIDTH:0.534732
G1 X183.812 Y108.623 E.02343
;WIDTH:0.537265
G1 X183.637 Y108.061 E.023
;WIDTH:0.538889
G2 X183.092 Y107.054 I-3.975 J1.503 E.04501
;WIDTH:0.535773
G1 X182.726 Y106.624 E.02197
;WIDTH:0.526021
G1 X182.305 Y106.253 E.02141
;WIDTH:0.510095
G1 X181.837 Y105.945 E.02069
;WIDTH:0.490806
G1 X181.328 Y105.703 E.01993
;WIDTH:0.472545
G1 X180.785 Y105.529 E.01934
;WIDTH:0.460207
G1 X180.143 Y105.418 E.0215
;WIDTH:0.457864
G1 X179.63 Y105.39 E.01682
;WIDTH:0.474355
G1 X179.03 Y105.413 E.02047
;WIDTH:0.492985
G1 X178.385 Y105.485 E.02307
;WIDTH:0.511118
G1 X177.731 Y105.601 E.02456
;WIDTH:0.537576
G1 X176.961 Y105.8 E.03107
;WIDTH:0.586128
G1 X176.802 Y105.894 E.00795
;WIDTH:0.634679
G1 X176.643 Y105.989 E.00866
G1 X176.609 Y106.141 E.0073
;WIDTH:0.598745
G1 X176.576 Y106.294 E.00685
;WIDTH:0.562811
G1 X176.542 Y106.446 E.00641
;WIDTH:0.526876
G1 X176.542 Y112.838 E.24437
G1 X176.8 Y113.253 E.01868
;WIDTH:0.499999
G2 X177.37 Y113.728 I56.795 J-67.54 E.02679
G1 X177.794 Y114.011 E.01841
G1 X177.27 Y113.907 E.01931
G1 X176.843 Y114.113 E.01711
;WIDTH:0.526876
G1 X176.819 Y114.158 E.00195
G1 X177.393 Y114.349 F9000
;TYPE:Outer wall
;WIDTH:0.499999
G1 F1800
G1 X177.134 Y114.469 E.01029
G1 X177.012 Y114.672 E.00852
G1 X177.012 Y121 E.22849
G1 X175.587 Y121 E.05145
G1 X175.587 Y105.24 E.56905
G3 X180.445 Y104.607 I3.718 J9.58 E.1786
G3 X183.015 Y105.612 I-.67 J5.499 E.10067
G1 X183.529 Y106.074 E.02497
G1 X183.973 Y106.619 E.02538
G1 X184.33 Y107.224 E.02536
G3 X184.92 Y109.364 I-6.185 J2.856 E.08052
G1 X184.96 Y110.238 E.03158
G3 X184.344 Y112.949 I-6.265 J.003 E.10123
G1 X184.025 Y113.496 E.02288
G3 X182.749 Y114.755 I-4.056 J-2.837 E.06505
G3 X180.469 Y115.398 I-2.237 J-3.568 E.08672
G1 X179.539 Y115.303 E.03376
G3 X177.586 Y114.408 I1.109 J-4.998 E.07815
G1 X177.431 Y114.36 E.00585
G1 E-1.2 F2400
;WIPE_START
G1 F9000
G1 X177.134 Y114.469
G1 X177.012 Y114.672
G1 X177.012 Y116.12
;WIPE_END
G1 X177.078 Y112.304 Z.4
G1 X177.182 Y106.225 Z.4
G1 Z.2
G1 E1.2 F1800
G3 X179.652 Y105.825 I2.687 J8.764 E.0906
G3 X183.21 Y108.272 I.058 J3.727 E.1663
G3 X183.381 Y111.055 I-5.199 J1.716 E.10178
G3 X182.545 Y112.973 I-4.465 J-.805 E.07626
G1 X182.196 Y113.349 E.0185
G1 X181.629 Y113.759 E.02528
G1 X180.977 Y114.052 E.0258
G3 X179.444 Y114.166 I-1.064 J-3.926 E.05585
G1 X178.739 Y113.992 E.02622
G1 X178.099 Y113.677 E.02575
G3 X177.168 Y112.966 I3.379 J-5.388 E.04235
M73 P1 R24
G1 X177.012 Y112.763 E.00922
G1 X177.012 Y106.446 E.22808
G1 X177.059 Y106.307 E.00529
G1 X177.149 Y106.248 E.00389
G1 E-1.2 F2400
;WIPE_START
G1 F9000
G1 X177.85 Y106.048
G1 X178.469 Y105.931
G1 X179.085 Y105.854
G1 X179.105 Y105.853
;WIPE_END
G1 X179.101 Y109.669 Z.4
G1 X179.096 Y114.627 Z.4
G1 Z.2
G1 E1.2 F1800
;TYPE:Inner wall
;WIDTH:0.64362
G1 X178.811 Y114.526 E.01434
;WIDTH:0.596443
G1 X178.526 Y114.424 E.01322
;WIDTH:0.549266
G1 X178.214 Y114.251 E.01428
;WIDTH:0.515681
G1 X177.901 Y114.079 E.01333
;WIDTH:0.482096
G1 X177.794 Y114.011 E.00439
G1 E-1.2 F2400
;WIPE_START
G1 F9000
G1 X177.901 Y114.079
G1 X178.214 Y114.251
G1 X178.526 Y114.424
G1 X178.811 Y114.526
G1 X179.096 Y114.627
;WIPE_END
G1 X176.992 Y113.88 Z.4
G1 Z.2
G1 E1.2 F1800
;TYPE:Bottom surface
;WIDTH:0.591415
G1 F4800
G1 X176.416 Y113.304 E.03528
G1 X176.402 Y113.308 E.00066
G2 X176.399 Y114.062 I5.167 J.396 E.03271
G1 X176.619 Y114.282 E.01348
G1 E-1.2 F2400
;WIPE_START
G1 F9000
G1 X176.399 Y114.062
G1 X176.387 Y113.607
G1 X176.402 Y113.308
G1 X176.416 Y113.304
G1 X176.992 Y113.88
;WIPE_END
G1 X174.666 Y110.855 Z.4
G1 X171.21 Y106.363 Z.4
G1 Z.2
G1 E1.2 F1800
;TYPE:Inner wall
;WIDTH:0.499999
G1 X171.171 Y106.383 E.0016
G1 X170.858 Y106.397 E.01132
G1 X170.567 Y106.304 E.01103
G1 X170.346 Y106.102 E.01082
G1 X170.204 Y105.834 E.01095
G1 X170.19 Y105.521 E.01132
G1 X170.283 Y105.23 E.01103
G1 X170.486 Y105.009 E.01082
G1 X170.753 Y104.867 E.01093
G1 X171.069 Y104.853 E.01141
G1 X171.358 Y104.946 E.01097
G1 X171.579 Y105.148 E.01082
G1 X171.721 Y105.416 E.01095
G1 X171.735 Y105.729 E.01132
G1 X171.642 Y106.02 E.01103
G1 X171.439 Y106.241 E.01082
G1 X171.246 Y106.344 E.00791
G1 X171.942 Y106.378 F9000
;TYPE:Outer wall
G1 F1800
G3 X172.188 Y105.457 I-.974 J-.753 E.2439
G1 X172.188 Y105.791 E.01205
G3 X171.966 Y106.346 I-1.22 J-.166 E.02183
G1 X171.6 Y105.703 F9000
;TYPE:Bottom surface
;WIDTH:0.591415
G1 F4800
G1 X171.111 Y105.213 E.02998
G2 X170.565 Y105.443 I-.153 J.401 E.02833
G1 X171.299 Y106.177 E.04495
G1 X170.855 Y106.148 F9000
;TYPE:Gap infill
;WIDTH:0.100621
G1 F1800
G1 X170.823 Y106.132 E.00017
;WIDTH:0.116227
G1 X170.767 Y106.094 E.00039
;WIDTH:0.158328
G3 X170.531 Y105.875 I.604 J-.891 E.00295
;WIDTH:0.14173
G1 X170.493 Y105.82 E.00052
