;TIME:16588.38
;Filament used:17.82877m
;Layer height:0.200
; HEADER_BLOCK_START
; generated by Creality_Print V7.0.0.4127 on 2026-02-28 at 22:25:50
; total layer number: 191
; filament_density: 1.24,1.24,1.24,1.24
; filament_diameter: 1.75,1.75,1.75,1.75
; max_z_height: 23.00
; creality_uuid: e482f5c2-9e09-4786-abf7-6ac7b4735e1c
; HEADER_BLOCK_END

; MINX = 4.93
; MINY = 8.67
; MINZ = 0.00
; MAXX = 216.46
; MAXY = 217.95
; MAXZ = 23.00

; multicolor_method = 0 
; THUMBNAIL_BLOCK_START

;
; THUMBNAIL_BLOCK_END

; THUMBNAIL_BLOCK_START

;
; THUMBNAIL_BLOCK_END

; external perimeters extrusion width = 0.42mm
; perimeters extrusion width = 0.45mm
; infill extrusion width = 0.45mm
; solid infill extrusion width = 0.42mm
; top infill extrusion width = 0.42mm
; first layer extrusion width = 0.46mm

; EXECUTABLE_BLOCK_START
M73 P0 R276
M201 X5000 Y5000 Z500 E5000
M203 X500 Y500 Z30 E100
M204 P5000 R2500 T5000 ; sets acceleration (P, T) and retract acceleration (R), mm/sec^2
M205 X10.00 Y10.00 Z0.40 E5.00 ; sets the jerk limits, mm/sec
; max_print_temp = 60,190
;TYPE:Custom
M220 S100 ;Reset Feedrate 
M221 S100 ;Reset Flowrate 
 
M140 S60 ;Set final bed temp 
G28 ;Home 
 
G92 E0 ;Reset Extruder 
G1 Z2.0 F3000 ;Move Z Axis up 
M104 S190 ;Set final nozzle temp 
G1 X-2.1 Y20 Z0.28 F5000.0 ;Move to start position 
M190 S60 ;Wait for bed temp to stabilize 
M109 S190 ;Wait for nozzle temp to stabilize 
G1 X-2.1 Y145.0 Z0.28 F1500.0 E15 ;Draw the first line 
G1 X-2.4 Y145.0 Z0.28 F5000.0 ;Move to side a little 
G1 X-2.4 Y20 Z0.28 F1500.0 E30 ;Draw the second line 
G92 E0  ;Reset Extruder 
G1 E-1.0000 F1800 ;Retract a bit 
G1 Z2.0 F3000 ;Move Z Axis up 
G1 E0.0000 F1800
G90
G21
M83 ; use relative distances for extrusion
;filament start gcode
; MANUAL_TOOL_CHANGE T0
G1 E-1.2 F2400
G1 Z.2 F9000
M106 S0
;LAYER_CHANGE
;:0.2
;HEIGHT:0.2
;BEFORE_LAYER_CHANGE
;0.2
G92 E0
;TIME_ELAPSED:67.022758
;_SET_FAN_SPEED_CHANGING_LAYER
M204 P500
M205 X8 Y8
; OBJECT_ID: 1159
; printing object LongParts id:0 copy 0
M204 T500
G1 X44.132 Y22.808 Z.4 F9000
G1 Z.2
G1 E1.2 F1800
;TYPE:Inner wall
;WIDTH:0.459999
G1 X57.359 Y9.581 E.61629
G1 X215.543 Y167.765 E7.37027
G1 X202.316 Y180.992 E.61629
G1 X44.16 Y22.836 E7.36895
G1 X43.542 Y22.808 F9000
;TYPE:Outer wall
M73 P0 R275
G1 F1800
G1 X57.359 Y8.991 E.64377
G1 X216.133 Y167.765 E7.39775
G1 X202.316 Y181.582 E.64377
G1 X43.571 Y22.836 E7.39643
G1 E-1.2 F2400
;WIPE_START
G1 F1800
G1 X44.982 Y21.419
;WIPE_END
G1 X48.523 Y22.842 Z.4 F9000
G1 X58.963 Y27.038 Z.4
G1 Z.2
G1 E1.2 F1800
;TYPE:Inner wall
G1 X58.997 Y26.595 E.01464
G1 X59.136 Y26.095 E.01708
G1 X59.369 Y25.633 E.01708
G1 X59.689 Y25.224 E.01708
G1 X60.082 Y24.886 E.01708
G1 X60.533 Y24.631 E.01708
G1 X61.036 Y24.468 E.01741
G1 X61.541 Y24.406 E.01674
G1 X62.058 Y24.445 E.01708
G1 X62.557 Y24.584 E.01708
G1 X63.02 Y24.818 E.01708
G1 X63.428 Y25.137 E.01708
G1 X63.766 Y25.531 E.01708
G1 X64.021 Y25.982 E.01708
G1 X64.183 Y26.475 E.01708
G1 X64.246 Y26.989 E.01708
G1 X64.207 Y27.506 E.01708
G1 X64.068 Y28.006 E.01708
G1 X63.834 Y28.469 E.01708
G1 X63.515 Y28.877 E.01708
G1 X63.122 Y29.215 E.01708
G1 X62.67 Y29.47 E.01708
G1 X62.178 Y29.632 E.01708
G1 X61.663 Y29.695 E.01708
G1 X61.146 Y29.656 E.01708
G1 X60.647 Y29.517 E.01708
G1 X60.184 Y29.283 E.01708
G1 X59.776 Y28.964 E.01708
G1 X59.437 Y28.571 E.01708
G1 X59.182 Y28.119 E.01708
G1 X59.02 Y27.627 E.01708
G1 X58.958 Y27.112 E.01708
G1 X58.96 Y27.078 E.00113
G1 X59.373 Y27.068 F9000
;TYPE:Outer wall
G1 F1800
G1 X59.42 Y26.596 E.01565
G1 X59.591 Y26.102 E.0172
G1 X59.76 Y25.795 E.01155
G1 X60.04 Y25.46 E.0144
G1 X60.38 Y25.186 E.0144
G1 X60.769 Y24.983 E.01443
G1 X61.195 Y24.86 E.01462
G1 X61.622 Y24.821 E.01414
G1 X62.057 Y24.868 E.0144
G1 X62.474 Y24.999 E.0144
G1 X62.857 Y25.208 E.0144
G1 X63.193 Y25.489 E.0144
G1 X63.467 Y25.829 E.0144
G1 X63.669 Y26.216 E.0144
G1 X63.792 Y26.636 E.0144
G1 X63.831 Y27.071 E.0144
G1 X63.784 Y27.505 E.0144
G1 X63.653 Y27.922 E.0144
G1 X63.444 Y28.306 E.0144
G1 X63.164 Y28.641 E.0144
G1 X62.823 Y28.915 E.0144
G1 X62.436 Y29.118 E.0144
G1 X62.017 Y29.241 E.0144
G1 X61.581 Y29.28 E.0144
G1 X61.147 Y29.233 E.0144
G1 X60.73 Y29.102 E.0144
G1 X60.346 Y28.893 E.0144
G1 X60.011 Y28.612 E.0144
G1 X59.737 Y28.272 E.0144
G1 X59.535 Y27.885 E.0144
G1 X59.412 Y27.465 E.0144
G1 X59.376 Y27.108 E.01183
G1 E-1.2 F2400
;WIPE_START
G1 F1800
G1 X59.42 Y26.596
G1 X59.591 Y26.102
G1 X59.76 Y25.795
G1 X60.04 Y25.46
G1 X60.177 Y25.35
;WIPE_END
G1 X57.225 Y9.892 Z.4 F9000
G1 Z.2
G1 E1.2 F1800
;TYPE:Bottom surface
;WIDTH:0.463313
G1 F4800
G1 X215.1 Y167.766 E7.41429
G1 X214.802 Y168.063 E.01396
G1 X57.061 Y10.322 E7.40806
G1 X56.763 Y10.619 E.01396
G1 X214.505 Y168.361 E7.40806
G1 X214.208 Y168.658 E.01396
G1 X56.466 Y10.916 E7.40806
G1 X56.169 Y11.214 E.01396
G1 X213.911 Y168.955 E7.40806
G1 X213.613 Y169.252 E.01396
G1 X55.872 Y11.511 E7.40806
G1 X55.574 Y11.808 E.01396
G1 X213.316 Y169.55 E7.40806
G1 X213.019 Y169.847 E.01396
G1 X55.277 Y12.105 E7.40806
G1 X54.98 Y12.403 E.01396
G1 X212.721 Y170.144 E7.40806
G1 X212.424 Y170.441 E.01396
G1 X54.683 Y12.7 E7.40806
G1 X54.385 Y12.997 E.01396
G1 X212.127 Y170.739 E7.40806
G1 X211.83 Y171.036 E.01396
M73 P0 R274
G1 X54.088 Y13.294 E7.40806
G1 X53.791 Y13.592 E.01396
G1 X211.532 Y171.333 E7.40806
G1 X211.235 Y171.63 E.01396
G1 X53.494 Y13.889 E7.40806
G1 X53.196 Y14.186 E.01396
G1 X210.938 Y171.928 E7.40806
G1 X210.641 Y172.225 E.01396
G1 X64.319 Y25.903 E6.87176
G1 X64.109 Y25.482 E.01562
G1 X64.011 Y25.336 E.00584
G1 X63.695 Y24.957 E.01638
G1 X63.263 Y24.6 E.01861
G1 X62.745 Y24.329 E.01941
G1 X52.899 Y14.483 E.4624
G1 X52.602 Y14.781 E.01396
G1 X61.949 Y24.128 E.43896
G1 X61.687 Y24.094 E.00877
G1 X61.344 Y24.118 E.01139
G1 X52.305 Y15.078 E.42454
G1 X52.007 Y15.375 E.01396
G1 X60.835 Y24.203 E.41456
G1 X60.468 Y24.316 E.01276
G1 X60.393 Y24.356 E.0028
G1 X51.71 Y15.672 E.4078
G1 X51.413 Y15.97 E.01396
G1 X60.006 Y24.563 E.40356
G1 X59.672 Y24.823 E.01407
G1 X51.116 Y16.267 E.40183
G1 X50.818 Y16.564 E.01396
G1 X59.374 Y25.12 E.40181
G1 X59.151 Y25.39 E.01162
G1 X59.116 Y25.456 E.0025
G1 X50.521 Y16.861 E.40363
G1 X50.224 Y17.159 E.01396
G1 X58.907 Y25.842 E.4078
G1 X58.868 Y25.915 E.00273
G1 X58.753 Y26.282 E.0128
G1 X49.926 Y17.456 E.41452
G1 X49.629 Y17.753 E.01396
G1 X58.668 Y26.792 E.42448
G1 X58.645 Y26.966 E.00583
G1 X58.675 Y27.394 E.01425
G1 X49.199 Y17.918 E.44503
G1 E-1.2 F2400
;WIPE_START
G1 F4800
G1 X50.613 Y19.332
;WIPE_END
G1 X53.996 Y21.099 Z.4 F9000
G1 X64.303 Y26.482 Z.4
G1 Z.2
G1 E1.2 F1800
G1 F4800
G1 X210.343 Y172.522 E6.85853
G1 X210.046 Y172.819 E.01396
G1 X64.536 Y27.309 E6.83362
G1 X64.485 Y27.709 E.01339
G1 X64.451 Y27.819 E.0038
G1 X209.749 Y173.117 E6.82367
G1 X209.452 Y173.414 E.01396
G1 X64.297 Y28.259 E6.81694
G1 X64.089 Y28.646 E.01458
G1 X209.154 Y173.711 E6.81272
G1 X208.857 Y174.009 E.01396
G1 X63.829 Y28.981 E6.81098
G1 X63.695 Y29.144 E.00701
G1 X63.532 Y29.278 E.00701
G1 X208.56 Y174.306 E6.81098
G1 X208.263 Y174.603 E.01396
G1 X63.198 Y29.538 E6.81272
G1 X62.81 Y29.745 E.01458
G1 X207.965 Y174.9 E6.81694
G1 X207.668 Y175.198 E.01396
G1 X62.37 Y29.9 E6.82367
G1 X62.092 Y29.967 E.0095
G1 X61.859 Y29.983 E.00775
G1 X207.371 Y175.495 E6.8337
G1 X207.073 Y175.792 E.01396
G1 X61.038 Y29.757 E6.8583
G1 E-1.2 F2400
;WIPE_START
G1 F4800
G1 X62.452 Y31.171
;WIPE_END
G1 X59.694 Y28.534 Z.4 F9000
G1 X48.902 Y18.215 Z.4
G1 Z.2
G1 E1.2 F1800
M73 P0 R273
G1 F4800
G1 X58.885 Y28.198 E.46885
G1 X59.095 Y28.619 E.01561
G1 X59.193 Y28.765 E.00583
G1 X59.509 Y29.144 E.01638
G1 X59.941 Y29.501 E.01861
G1 X60.459 Y29.772 E.0194
G1 X206.776 Y176.089 E6.87155
G1 X206.479 Y176.387 E.01396
G1 X48.737 Y18.645 E7.40806
G1 X48.44 Y18.942 E.01396
G1 X206.182 Y176.684 E7.40806
G1 X205.884 Y176.981 E.01396
G1 X48.143 Y19.24 E7.40806
G1 X47.846 Y19.537 E.01396
G1 X205.587 Y177.278 E7.40806
G1 X205.29 Y177.576 E.01396
G1 X47.548 Y19.834 E7.40806
G1 X47.251 Y20.131 E.01396
M73 P1 R273
G1 X204.993 Y177.873 E7.40806
G1 X204.695 Y178.17 E.01396
G1 X46.954 Y20.429 E7.40806
G1 X46.657 Y20.726 E.01396
G1 X204.398 Y178.467 E7.40806
G1 X204.101 Y178.765 E.01396
G1 X46.359 Y21.023 E7.40806
G1 X46.062 Y21.32 E.01396
G1 X203.804 Y179.062 E7.40806
G1 X203.506 Y179.359 E.01396
G1 X45.765 Y21.618 E7.40806
G1 X45.468 Y21.915 E.01396
G1 X203.209 Y179.657 E7.40806
G1 X202.912 Y179.954 E.01396
G1 X45.17 Y22.212 E7.40806
G1 X44.873 Y22.509 E.01396
G1 X202.615 Y180.251 E7.40806
G1 X202.317 Y180.548 E.01396
G1 X44.443 Y22.674 E7.41429
G1 E-1.2 F2400
;WIPE_START
G1 F4800
G1 X45.857 Y24.088
;WIPE_END
G1 X48.411 Y26.924 Z.4 F9000
G1 X194.934 Y189.666 Z.4
G1 Z.2
M73 P1 R272
G1 E1.2 F1800
;TYPE:Inner wall
;WIDTH:0.459999
G1 X167.565 Y217.035 E1.27521
G1 X5.846 Y55.316 E7.535
G1 X33.215 Y27.947 E1.27521
G1 X194.906 Y189.638 E7.53368
G1 X195.524 Y189.666 F9000
;TYPE:Outer wall
G1 F1800
G1 X167.565 Y217.625 E1.30269
G1 X5.256 Y55.316 E7.56248
G1 X33.215 Y27.357 E1.30269
G1 X195.496 Y189.638 E7.56116
G1 E-1.2 F2400
;WIPE_START
G1 F1800
G1 X194.083 Y191.054
;WIPE_END
G1 X191.174 Y188.584 Z.4 F9000
G1 X32.593 Y53.94 Z.4
G1 Z.2
G1 E1.2 F1800
;TYPE:Inner wall
G1 X32.569 Y53.985 E.00168
G1 X32.237 Y54.38 E.01701
G1 X31.833 Y54.704 E.01706
G1 X31.382 Y54.94 E.01676
G1 X30.884 Y55.087 E.01711
G1 X30.367 Y55.134 E.01711
G1 X29.811 Y55.069 E.01847
G1 X29.318 Y54.907 E.01708
G1 X28.867 Y54.652 E.01708
G1 X28.474 Y54.314 E.01708
G1 X28.154 Y53.906 E.01708
G1 X27.92 Y53.443 E.01708
G1 X27.781 Y52.943 E.01708
G1 X27.739 Y52.489 E.01504
G1 X27.79 Y51.972 E.01711
G1 X27.941 Y51.475 E.01711
G1 X28.185 Y51.017 E.01711
G1 X28.515 Y50.616 E.01711
G1 X28.916 Y50.286 E.01711
G1 X29.375 Y50.041 E.01715
G1 X29.88 Y49.89 E.01736
G1 X30.388 Y49.84 E.01681
G1 X30.89 Y49.889 E.01663
G1 X31.399 Y50.042 E.0175
G1 X31.857 Y50.286 E.01711
G1 X32.258 Y50.616 E.01711
G1 X32.58 Y51.005 E.01663
G1 X32.832 Y51.475 E.01758
G1 X32.983 Y51.972 E.01711
G1 X33.033 Y52.509 E.01777
G1 X32.978 Y53.025 E.01711
G1 X32.823 Y53.521 E.01711
G1 X32.613 Y53.905 E.01443
G1 X32.23 Y53.741 F9000
;TYPE:Outer wall
G1 F1800
G1 X32.229 Y53.743 E.00009
G1 X31.948 Y54.078 E.0144
G1 X31.608 Y54.352 E.0144
G1 X31.221 Y54.555 E.0144
G1 X30.801 Y54.678 E.0144
G1 X30.366 Y54.717 E.0144
G1 X29.932 Y54.67 E.0144
G1 X29.515 Y54.539 E.0144
G1 X29.131 Y54.33 E.0144
G1 X28.796 Y54.049 E.0144
G1 X28.522 Y53.709 E.0144
G1 X28.319 Y53.322 E.0144
G1 X28.196 Y52.902 E.0144
G1 X28.156 Y52.488 E.01372
G1 X28.204 Y52.033 E.01508
G1 X28.335 Y51.616 E.0144
G1 X28.545 Y51.232 E.0144
G1 X28.825 Y50.897 E.0144
G1 X29.165 Y50.623 E.0144
G1 X29.553 Y50.42 E.01442
G1 X29.98 Y50.297 E.01463
G1 X30.407 Y50.258 E.01414
G1 X30.842 Y50.305 E.0144
G1 X31.259 Y50.436 E.0144
G1 X31.642 Y50.645 E.0144
G1 X31.977 Y50.926 E.0144
G1 X32.251 Y51.266 E.0144
G1 X32.454 Y51.653 E.0144
G1 X32.577 Y52.073 E.0144
G1 X32.616 Y52.508 E.0144
G1 X32.569 Y52.942 E.0144
G1 X32.438 Y53.359 E.0144
G1 X32.249 Y53.706 E.01299
G1 E-1.2 F2400
;WIPE_START
G1 F1800
G1 X32.229 Y53.743
G1 X31.948 Y54.078
G1 X31.608 Y54.352
G1 X31.221 Y54.555
G1 X30.801 Y54.678
G1 X30.593 Y54.696
;WIPE_END
G1 X30.951 Y50.897 Z.4 F9000
G1 X33.082 Y28.257 Z.4
G1 Z.2
G1 E1.2 F1800
;TYPE:Bottom surface
;WIDTH:0.461369
G1 F4800
G1 X194.492 Y189.667 E7.54528
G1 X194.196 Y189.963 E.01383
G1 X32.919 Y28.686 E7.53907
G1 X32.623 Y28.981 E.01383
M73 P1 R271
G1 X193.9 Y190.259 E7.53907
G1 X193.604 Y190.554 E.01383
G1 X32.327 Y29.277 E7.53907
G1 X32.031 Y29.573 E.01383
G1 X193.308 Y190.85 E7.53907
G1 X193.012 Y191.146 E.01383
G1 X31.735 Y29.869 E7.53907
G1 X31.439 Y30.165 E.01383
G1 X192.716 Y191.442 E7.53907
G1 X192.42 Y191.738 E.01383
G1 X31.143 Y30.461 E7.53907
G1 X30.847 Y30.757 E.01383
G1 X192.124 Y192.034 E7.53907
G1 X191.829 Y192.33 E.01383
G1 X30.552 Y31.053 E7.53907
G1 X30.256 Y31.349 E.01383
G1 X191.533 Y192.626 E7.53907
G1 X191.237 Y192.922 E.01383
G1 X29.96 Y31.644 E7.53907
G1 X29.664 Y31.94 E.01383
G1 X190.941 Y193.217 E7.53907
G1 X190.645 Y193.513 E.01383
G1 X29.368 Y32.236 E7.53907
G1 X29.072 Y32.532 E.01383
G1 X190.349 Y193.809 E7.53907
G1 X190.053 Y194.105 E.01383
G1 X28.776 Y32.828 E7.53907
G1 X28.48 Y33.124 E.01383
G1 X189.757 Y194.401 E7.53907
G1 X189.461 Y194.697 E.01383
G1 X28.184 Y33.42 E7.53907
G1 X27.889 Y33.716 E.01383
G1 X189.166 Y194.993 E7.53907
G1 X188.87 Y195.289 E.01383
G1 X27.593 Y34.012 E7.53907
G1 X27.297 Y34.307 E.01383
G1 X188.574 Y195.585 E7.53907
G1 X188.278 Y195.88 E.01383
G1 X27.001 Y34.603 E7.53907
G1 X26.705 Y34.899 E.01383
M73 P1 R270
G1 X187.982 Y196.176 E7.53907
G1 X187.686 Y196.472 E.01383
M73 P2 R270
G1 X26.409 Y35.195 E7.53907
G1 X26.113 Y35.491 E.01383
G1 X187.39 Y196.768 E7.53907
G1 X187.094 Y197.064 E.01383
G1 X25.817 Y35.787 E7.53907
G1 X25.521 Y36.083 E.01383
G1 X186.799 Y197.36 E7.53907
G1 X186.503 Y197.656 E.01383
G1 X25.226 Y36.379 E7.53907
G1 X24.93 Y36.675 E.01383
G1 X186.207 Y197.952 E7.53907
G1 X185.911 Y198.248 E.01383
G1 X24.634 Y36.97 E7.53907
G1 X24.338 Y37.266 E.01383
G1 X185.615 Y198.543 E7.53907
G1 X185.319 Y198.839 E.01383
G1 X24.042 Y37.562 E7.53907
G1 X23.746 Y37.858 E.01383
G1 X185.023 Y199.135 E7.53907
G1 X184.727 Y199.431 E.01383
G1 X23.45 Y38.154 E7.53907
G1 X23.154 Y38.45 E.01383
G1 X184.431 Y199.727 E7.53907
G1 X184.136 Y200.023 E.01383
G1 X22.858 Y38.746 E7.53907
G1 X22.563 Y39.042 E.01383
G1 X183.84 Y200.319 E7.53907
G1 X183.544 Y200.615 E.01383
G1 X22.267 Y39.338 E7.53907
G1 X21.971 Y39.633 E.01383
G1 X183.248 Y200.911 E7.53907
G1 X182.952 Y201.206 E.01383
G1 X33.131 Y51.386 E7.00353
G1 X32.848 Y50.843 E.02022
G1 X32.48 Y50.394 E.0192
G1 X32.031 Y50.026 E.0192
G1 X31.489 Y49.743 E.02022
G1 X21.675 Y39.929 E.45875
G1 X21.379 Y40.225 E.01383
G1 X30.71 Y49.556 E.43619
G1 X30.474 Y49.532 E.00785
G1 X30.113 Y49.551 E.01193
G1 X21.083 Y40.521 E.42213
G1 X20.787 Y40.817 E.01383
G1 X29.614 Y49.644 E.41263
G1 X29.256 Y49.751 E.01236
G1 X29.174 Y49.795 E.00309
G1 X20.491 Y41.113 E.40587
G1 X20.195 Y41.409 E.01383
G1 X28.788 Y50.001 E.40167
G1 X28.456 Y50.261 E.01394
G1 X19.9 Y41.705 E.39997
G1 X19.604 Y42.001 E.01383
G1 X28.16 Y50.557 E.39997
G1 X27.9 Y50.889 E.01394
G1 X19.308 Y42.296 E.40167
G1 X19.012 Y42.592 E.01383
G1 X27.694 Y51.275 E.40587
G1 X27.651 Y51.355 E.00302
G1 X27.542 Y51.715 E.0124
G1 X18.716 Y42.888 E.4126
G1 X18.42 Y43.184 E.01383
G1 X27.453 Y52.217 E.42224
G1 X27.426 Y52.489 E.00904
G1 X27.457 Y52.813 E.01075
G1 X17.991 Y43.347 E.44249
G1 E-1.2 F2400
;WIPE_START
G1 F4800
G1 X19.406 Y44.761
;WIPE_END
G1 X22.785 Y46.535 Z.4 F9000
M73 P2 R269
G1 X33.106 Y51.952 Z.4
G1 Z.2
G1 E1.2 F1800
G1 F4800
G1 X182.656 Y201.502 E6.99088
G1 X182.36 Y201.798 E.01383
G1 X33.32 Y52.758 E6.96704
G1 X33.295 Y53.039 E.00933
G1 X33.23 Y53.26 E.0076
G1 X182.064 Y202.094 E6.95741
G1 X181.768 Y202.39 E.01383
G1 X33.077 Y53.699 E6.95073
G1 X32.872 Y54.086 E.01447
G1 X181.473 Y202.686 E6.94647
G1 X181.177 Y202.982 E.01383
G1 X32.613 Y54.419 E6.94475
G1 X32.48 Y54.581 E.00695
G1 X32.318 Y54.714 E.00695
G1 X180.881 Y203.278 E6.94475
G1 X180.585 Y203.574 E.01383
G1 X31.985 Y54.974 E6.94646
G1 X31.601 Y55.182 E.01443
G1 X180.289 Y203.869 E6.95058
G1 X179.993 Y204.165 E.01383
G1 X31.16 Y55.332 E6.95736
G1 X30.994 Y55.385 E.00577
G1 X30.657 Y55.421 E.01119
G1 X179.697 Y204.461 E6.96703
G1 X179.401 Y204.757 E.01383
G1 X29.851 Y55.207 E6.99089
G1 E-1.2 F2400
;WIPE_START
G1 F4800
G1 X31.265 Y56.621
;WIPE_END
G1 X28.507 Y53.983 Z.4 F9000
G1 X17.696 Y43.643 Z.4
G1 Z.2
G1 E1.2 F1800
G1 F4800
G1 X27.642 Y53.59 E.46496
G1 X27.925 Y54.132 E.02022
G1 X28.293 Y54.581 E.0192
G1 X28.742 Y54.949 E.0192
G1 X29.285 Y55.232 E.02022
G1 X179.105 Y205.053 E7.00354
G1 X178.81 Y205.349 E.01383
G1 X17.532 Y44.072 E7.53907
G1 X17.237 Y44.368 E.01383
G1 X178.514 Y205.645 E7.53907
G1 X178.218 Y205.941 E.01383
G1 X16.941 Y44.664 E7.53907
G1 X16.645 Y44.959 E.01383
G1 X177.922 Y206.237 E7.53907
G1 X177.626 Y206.532 E.01383
G1 X16.349 Y45.255 E7.53907
G1 X16.053 Y45.551 E.01383
G1 X177.33 Y206.828 E7.53907
G1 X177.034 Y207.124 E.01383
M73 P2 R268
G1 X15.757 Y45.847 E7.53907
G1 X15.461 Y46.143 E.01383
G1 X176.738 Y207.42 E7.53907
G1 X176.442 Y207.716 E.01383
