;TIME:20888.91
;Filament used:15.86713m
;Layer height:0.200
; HEADER_BLOCK_START
; generated by Creality_Print V7.0.0.4127 on 2026-02-28 at 22:26:41
; total layer number: 449
; filament_density: 1.24,1.24,1.24,1.24
; filament_diameter: 1.75,1.75,1.75,1.75
; max_z_height: 53.96
; creality_uuid: 069e2406-3fb5-4119-b440-473ed856fcad
; HEADER_BLOCK_END

; MINX = 44.87
; MINY = 21.77
; MINZ = 0.00
; MAXX = 160.62
; MAXY = 198.75
; MAXZ = 54.00

; multicolor_method = 0 
; THUMBNAIL_BLOCK_START

;
; THUMBNAIL_BLOCK_END

; THUMBNAIL_BLOCK_START

;
; THUMBNAIL_BLOCK_END

; external perimeters extrusion width = 0.42mm
; perimeters extrusion width = 0.45mm
; infill extrusion width = 0.45mm
; solid infill extrusion width = 0.42mm
; top infill extrusion width = 0.42mm
; first layer extrusion width = 0.46mm

; EXECUTABLE_BLOCK_START
M73 P0 R348
M201 X5000 Y5000 Z500 E5000
M203 X500 Y500 Z30 E100
M204 P5000 R2500 T5000 ; sets acceleration (P, T) and retract acceleration (R), mm/sec^2
M205 X10.00 Y10.00 Z0.40 E5.00 ; sets the jerk limits, mm/sec
; max_print_temp = 60,190
;TYPE:Custom
M220 S100 ;Reset Feedrate 
M221 S100 ;Reset Flowrate 
 
M140 S60 ;Set final bed temp 
G28 ;Home 
 
G92 E0 ;Reset Extruder 
G1 Z2.0 F3000 ;Move Z Axis up 
M104 S190 ;Set final nozzle temp 
G1 X-2.1 Y20 Z0.28 F5000.0 ;Move to start position 
M190 S60 ;Wait for bed temp to stabilize 
M109 S190 ;Wait for nozzle temp to stabilize 
G1 X-2.1 Y145.0 Z0.28 F1500.0 E15 ;Draw the first line 
G1 X-2.4 Y145.0 Z0.28 F5000.0 ;Move to side a little 
G1 X-2.4 Y20 Z0.28 F1500.0 E30 ;Draw the second line 
G92 E0  ;Reset Extruder 
G1 E-1.0000 F1800 ;Retract a bit 
M73 P0 R347
G1 Z2.0 F3000 ;Move Z Axis up 
G1 E0.0000 F1800
G90
G21
M83 ; use relative distances for extrusion
;filament start gcode
; MANUAL_TOOL_CHANGE T0
G1 E-1.2 F2400
G1 Z.2 F9000
M106 S0
;LAYER_CHANGE
;:0.2
;HEIGHT:0.2
;BEFORE_LAYER_CHANGE
;0.2
G92 E0
;TIME_ELAPSED:65.516510
;_SET_FAN_SPEED_CHANGING_LAYER
M204 P500
M205 X8 Y8
; OBJECT_ID: 1235
; printing object Case id:0 copy 0
M204 T500
G1 X46.267 Y124.393 Z.4 F9000
G1 Z.2
G1 E1.2 F1800
;TYPE:Inner wall
;WIDTH:0.459999
G1 X159.973 Y124.393 E3.74618
G1 X159.973 Y198.049 E2.42669
G1 X46.267 Y198.049 E3.74618
G1 X46.267 Y124.433 E2.42537
G1 X45.85 Y123.976 F9000
;TYPE:Outer wall
G1 F1800
G1 X160.39 Y123.976 E3.77366
G1 X160.39 Y198.466 E2.45417
G1 X45.85 Y198.466 E3.77366
G1 X45.85 Y124.016 E2.45285
G1 E-1.2 F2400
;WIPE_START
G1 F1800
G1 X47.85 Y124.015
;WIPE_END
G1 X159.848 Y125.364 Z.4 F9000
G1 Z.2
G1 E1.2 F1800
;TYPE:Bottom surface
;WIDTH:0.461242
G1 F4800
G1 X159.19 Y124.706 E.03075
G1 X158.598 Y124.706 E.01955
G1 X159.66 Y125.768 E.04963
G1 X159.66 Y126.359 E.01955
G1 X158.007 Y124.706 E.07728
G1 X157.415 Y124.706 E.01955
G1 X159.66 Y126.951 E.10492
G1 X159.66 Y127.543 E.01955
G1 X156.823 Y124.706 E.13257
G1 X156.232 Y124.706 E.01955
G1 X159.66 Y128.134 E.16021
G1 X159.66 Y128.726 E.01955
G1 X155.64 Y124.706 E.18786
G1 X155.049 Y124.706 E.01955
G1 X159.66 Y129.317 E.21551
G1 X159.66 Y129.909 E.01955
G1 X154.457 Y124.706 E.24315
G1 X153.865 Y124.706 E.01955
G1 X159.66 Y130.501 E.2708
G1 X159.66 Y131.092 E.01955
G1 X153.274 Y124.706 E.29845
G1 X152.682 Y124.706 E.01955
G1 X159.66 Y131.684 E.32609
G1 X159.66 Y132.275 E.01955
G1 X152.091 Y124.706 E.35374
G1 X151.499 Y124.706 E.01955
G1 X159.66 Y132.867 E.38139
G1 X159.66 Y133.459 E.01955
G1 X150.907 Y124.706 E.40903
G1 X150.316 Y124.706 E.01955
G1 X159.66 Y134.05 E.43668
G1 X159.66 Y134.642 E.01955
G1 X149.724 Y124.706 E.46433
G1 X149.133 Y124.706 E.01955
G1 X159.66 Y135.233 E.49197
G1 X159.66 Y135.825 E.01955
G1 X148.541 Y124.706 E.51962
G1 X147.949 Y124.706 E.01955
G1 X159.66 Y136.416 E.54726
G1 X159.66 Y137.008 E.01955
G1 X147.358 Y124.706 E.57491
G1 X146.766 Y124.706 E.01955
G1 X159.66 Y137.6 E.60256
G1 X159.66 Y138.191 E.01955
G1 X146.175 Y124.706 E.6302
G1 X145.583 Y124.706 E.01955
G1 X159.66 Y138.783 E.65785
G1 X159.66 Y139.374 E.01955
G1 X144.991 Y124.706 E.6855
G1 X144.4 Y124.706 E.01955
G1 X159.66 Y139.966 E.71314
G1 X159.66 Y140.558 E.01955
G1 X143.808 Y124.706 E.74079
G1 X143.217 Y124.706 E.01955
G1 X159.66 Y141.149 E.76844
G1 X159.66 Y141.741 E.01955
G1 X142.625 Y124.706 E.79608
G1 X142.033 Y124.706 E.01955
G1 X159.66 Y142.332 E.82373
G1 X159.66 Y142.924 E.01955
G1 X141.442 Y124.706 E.85138
G1 X140.85 Y124.706 E.01955
G1 X159.66 Y143.516 E.87902
G1 X159.66 Y144.107 E.01955
G1 X140.259 Y124.706 E.90667
G1 X139.667 Y124.706 E.01955
G1 X159.66 Y144.699 E.93431
G1 X159.66 Y145.29 E.01955
G1 X139.075 Y124.706 E.96196
G1 X138.484 Y124.706 E.01955
G1 X159.66 Y145.882 E.98961
G1 X159.66 Y146.474 E.01955
G1 X137.892 Y124.706 E1.01725
G1 X137.301 Y124.706 E.01955
G1 X159.66 Y147.065 E1.0449
G1 X159.66 Y147.657 E.01955
G1 X136.709 Y124.706 E1.07255
G1 X136.117 Y124.706 E.01955
G1 X159.66 Y148.248 E1.10019
G1 X159.66 Y148.84 E.01955
G1 X135.526 Y124.706 E1.12784
G1 X134.934 Y124.706 E.01955
G1 X159.66 Y149.432 E1.15549
G1 X159.66 Y150.023 E.01955
G1 X134.343 Y124.706 E1.18313
G1 X133.751 Y124.706 E.01955
G1 X159.66 Y150.615 E1.21078
G1 X159.66 Y151.206 E.01955
G1 X133.16 Y124.706 E1.23843
G1 X132.568 Y124.706 E.01955
G1 X159.66 Y151.798 E1.26607
G1 X159.66 Y152.39 E.01955
G1 X131.976 Y124.706 E1.29372
G1 X131.385 Y124.706 E.01955
G1 X159.66 Y152.981 E1.32136
G1 X159.66 Y153.573 E.01955
G1 X130.793 Y124.706 E1.34901
G1 X130.202 Y124.706 E.01955
G1 X159.66 Y154.164 E1.37666
G1 X159.66 Y154.756 E.01955
G1 X129.61 Y124.706 E1.4043
G1 X129.018 Y124.706 E.01955
G1 X159.66 Y155.348 E1.43195
G1 X159.66 Y155.939 E.01955
G1 X128.427 Y124.706 E1.4596
G1 X127.835 Y124.706 E.01955
G1 X159.66 Y156.531 E1.48724
G1 X159.66 Y157.122 E.01955
G1 X127.244 Y124.706 E1.51489
G1 X126.652 Y124.706 E.01955
G1 X159.66 Y157.714 E1.54254
G1 X159.66 Y158.306 E.01955
G1 X126.06 Y124.706 E1.57018
G1 X125.469 Y124.706 E.01955
G1 X159.66 Y158.897 E1.59783
G1 X159.66 Y159.489 E.01955
G1 X124.877 Y124.706 E1.62547
G1 X124.286 Y124.706 E.01955
G1 X159.66 Y160.08 E1.65312
G1 X159.66 Y160.672 E.01955
G1 X123.694 Y124.706 E1.68077
M73 P0 R346
G1 X123.102 Y124.706 E.01955
G1 X159.66 Y161.264 E1.70841
G1 X159.66 Y161.855 E.01955
G1 X122.511 Y124.706 E1.73606
G1 X121.919 Y124.706 E.01955
G1 X159.66 Y162.447 E1.76371
G1 X159.66 Y163.038 E.01955
G1 X121.328 Y124.706 E1.79135
G1 X120.736 Y124.706 E.01955
G1 X159.66 Y163.63 E1.819
G1 X159.66 Y164.222 E.01955
G1 X120.144 Y124.706 E1.84665
G1 X119.553 Y124.706 E.01955
G1 X159.66 Y164.813 E1.87429
G1 X159.66 Y165.405 E.01955
G1 X118.961 Y124.706 E1.90194
G1 X118.37 Y124.706 E.01955
G1 X159.66 Y165.996 E1.92959
G1 X159.66 Y166.588 E.01955
G1 X117.778 Y124.706 E1.95723
G1 X117.186 Y124.706 E.01955
G1 X159.66 Y167.18 E1.98488
G1 X159.66 Y167.771 E.01955
G1 X116.595 Y124.706 E2.01253
G1 X116.003 Y124.706 E.01955
G1 X159.66 Y168.363 E2.04017
G1 X159.66 Y168.954 E.01955
G1 X115.412 Y124.706 E2.06782
G1 X114.82 Y124.706 E.01955
G1 X159.66 Y169.546 E2.09546
G1 X159.66 Y170.137 E.01955
G1 X114.228 Y124.706 E2.12311
G1 X113.637 Y124.706 E.01955
G1 X159.66 Y170.729 E2.15076
G1 X159.66 Y171.321 E.01955
G1 X113.045 Y124.706 E2.1784
G1 X112.454 Y124.706 E.01955
G1 X159.66 Y171.912 E2.20605
G1 X159.66 Y172.504 E.01955
G1 X111.862 Y124.706 E2.2337
G1 X111.27 Y124.706 E.01955
G1 X159.66 Y173.095 E2.26134
G1 X159.66 Y173.687 E.01955
G1 X110.679 Y124.706 E2.28899
G1 X110.087 Y124.706 E.01955
G1 X159.66 Y174.279 E2.31664
G1 X159.66 Y174.87 E.01955
G1 X109.496 Y124.706 E2.34428
G1 X108.904 Y124.706 E.01955
G1 X159.66 Y175.462 E2.37193
G1 X159.66 Y176.053 E.01955
G1 X108.312 Y124.706 E2.39958
G1 X107.721 Y124.706 E.01955
G1 X159.66 Y176.645 E2.42722
G1 X159.66 Y177.237 E.01955
G1 X107.129 Y124.706 E2.45487
G1 X106.538 Y124.706 E.01955
G1 X159.66 Y177.828 E2.48251
G1 X159.66 Y178.42 E.01955
G1 X105.946 Y124.706 E2.51016
G1 X105.354 Y124.706 E.01955
G1 X159.66 Y179.011 E2.53781
G1 X159.66 Y179.603 E.01955
G1 X104.763 Y124.706 E2.56545
G1 X104.171 Y124.706 E.01955
G1 X159.66 Y180.195 E2.5931
G1 X159.66 Y180.786 E.01955
G1 X103.58 Y124.706 E2.62075
G1 X102.988 Y124.706 E.01955
G1 X159.66 Y181.378 E2.64839
G1 X159.66 Y181.969 E.01955
G1 X102.396 Y124.706 E2.67604
G1 X101.805 Y124.706 E.01955
G1 X159.66 Y182.561 E2.70369
G1 X159.66 Y183.153 E.01955
G1 X101.213 Y124.706 E2.73133
G1 X100.622 Y124.706 E.01955
G1 X159.66 Y183.744 E2.75898
G1 X159.66 Y184.336 E.01955
G1 X100.03 Y124.706 E2.78663
G1 X99.439 Y124.706 E.01955
G1 X159.66 Y184.927 E2.81427
G1 X159.66 Y185.519 E.01955
G1 X98.847 Y124.706 E2.84192
G1 X98.255 Y124.706 E.01955
G1 X159.66 Y186.111 E2.86956
G1 X159.66 Y186.702 E.01955
G1 X97.664 Y124.706 E2.89721
G1 X97.072 Y124.706 E.01955
G1 X159.66 Y187.294 E2.92486
G1 X159.66 Y187.885 E.01955
G1 X96.481 Y124.706 E2.9525
G1 X95.889 Y124.706 E.01955
G1 X159.66 Y188.477 E2.98015
G1 X159.66 Y189.069 E.01955
G1 X95.297 Y124.706 E3.0078
G1 X94.706 Y124.706 E.01955
G1 X159.66 Y189.66 E3.03544
G1 X159.66 Y190.252 E.01955
G1 X94.114 Y124.706 E3.06309
G1 X93.523 Y124.706 E.01955
G1 X159.66 Y190.843 E3.09074
G1 X159.66 Y191.435 E.01955
G1 X92.931 Y124.706 E3.11838
G1 X92.339 Y124.706 E.01955
G1 X159.66 Y192.027 E3.14603
G1 X159.66 Y192.618 E.01955
G1 X91.748 Y124.706 E3.17368
G1 X91.156 Y124.706 E.01955
G1 X159.66 Y193.21 E3.20132
G1 X159.66 Y193.801 E.01955
M73 P0 R345
G1 X90.565 Y124.706 E3.22897
G1 X89.973 Y124.706 E.01955
G1 X159.66 Y194.393 E3.25661
G1 X159.66 Y194.985 E.01955
G1 X89.381 Y124.706 E3.28426
G1 X88.79 Y124.706 E.01955
G1 X159.66 Y195.576 E3.31191
G1 X159.66 Y196.168 E.01955
G1 X88.198 Y124.706 E3.33955
G1 X87.607 Y124.706 E.01955
G1 X159.66 Y196.759 E3.3672
G1 X159.66 Y197.351 E.01955
G1 X87.015 Y124.706 E3.39485
G1 X86.423 Y124.706 E.01955
G1 X159.454 Y197.736 E3.41285
G1 X158.862 Y197.736 E.01955
G1 X85.832 Y124.706 E3.41285
G1 X85.24 Y124.706 E.01955
G1 X158.271 Y197.736 E3.41285
G1 X157.679 Y197.736 E.01955
G1 X84.649 Y124.706 E3.41285
G1 X84.057 Y124.706 E.01955
G1 X157.087 Y197.736 E3.41285
G1 X156.496 Y197.736 E.01955
G1 X83.465 Y124.706 E3.41285
G1 X82.874 Y124.706 E.01955
G1 X155.904 Y197.736 E3.41285
G1 X155.313 Y197.736 E.01955
G1 X82.282 Y124.706 E3.41285
G1 X81.691 Y124.706 E.01955
G1 X154.721 Y197.736 E3.41285
G1 X154.129 Y197.736 E.01955
G1 X81.099 Y124.706 E3.41285
G1 X80.507 Y124.706 E.01955
G1 X153.538 Y197.736 E3.41285
G1 X152.946 Y197.736 E.01955
G1 X79.916 Y124.706 E3.41285
G1 X79.324 Y124.706 E.01955
G1 X152.355 Y197.736 E3.41285
G1 X151.763 Y197.736 E.01955
G1 X78.733 Y124.706 E3.41285
G1 X78.141 Y124.706 E.01955
G1 X151.171 Y197.736 E3.41285
G1 X150.58 Y197.736 E.01955
G1 X77.549 Y124.706 E3.41285
G1 X76.958 Y124.706 E.01955
G1 X149.988 Y197.736 E3.41285
G1 X149.397 Y197.736 E.01955
G1 X76.366 Y124.706 E3.41285
G1 X75.775 Y124.706 E.01955
G1 X148.805 Y197.736 E3.41285
G1 X148.213 Y197.736 E.01955
G1 X75.183 Y124.706 E3.41285
G1 X74.591 Y124.706 E.01955
G1 X147.622 Y197.736 E3.41285
G1 X147.03 Y197.736 E.01955
G1 X74 Y124.706 E3.41285
G1 X73.408 Y124.706 E.01955
G1 X146.439 Y197.736 E3.41285
G1 X145.847 Y197.736 E.01955
G1 X72.817 Y124.706 E3.41285
G1 X72.225 Y124.706 E.01955
G1 X145.255 Y197.736 E3.41285
G1 X144.664 Y197.736 E.01955
G1 X71.633 Y124.706 E3.41285
G1 X71.042 Y124.706 E.01955
G1 X144.072 Y197.736 E3.41285
G1 X143.481 Y197.736 E.01955
G1 X70.45 Y124.706 E3.41285
G1 X69.859 Y124.706 E.01955
G1 X142.889 Y197.736 E3.41285
G1 X142.298 Y197.736 E.01955
G1 X69.267 Y124.706 E3.41285
G1 X68.675 Y124.706 E.01955
G1 X141.706 Y197.736 E3.41285
G1 X141.114 Y197.736 E.01955
G1 X68.084 Y124.706 E3.41285
G1 X67.492 Y124.706 E.01955
G1 X140.523 Y197.736 E3.41285
G1 X139.931 Y197.736 E.01955
G1 X66.901 Y124.706 E3.41285
G1 X66.309 Y124.706 E.01955
M73 P0 R344
G1 X139.34 Y197.736 E3.41285
G1 X138.748 Y197.736 E.01955
G1 X65.717 Y124.706 E3.41285
G1 X65.126 Y124.706 E.01955
G1 X138.156 Y197.736 E3.41285
G1 X137.565 Y197.736 E.01955
G1 X64.534 Y124.706 E3.41285
G1 X63.943 Y124.706 E.01955
G1 X136.973 Y197.736 E3.41285
G1 X136.382 Y197.736 E.01955
G1 X63.351 Y124.706 E3.41285
G1 X62.76 Y124.706 E.01955
G1 X135.79 Y197.736 E3.41285
G1 X135.198 Y197.736 E.01955
G1 X62.168 Y124.706 E3.41285
G1 X61.576 Y124.706 E.01955
G1 X134.607 Y197.736 E3.41285
G1 X134.015 Y197.736 E.01955
G1 X60.985 Y124.706 E3.41285
G1 X60.393 Y124.706 E.01955
G1 X133.424 Y197.736 E3.41285
G1 X132.832 Y197.736 E.01955
G1 X59.802 Y124.706 E3.41285
G1 X59.21 Y124.706 E.01955
G1 X132.24 Y197.736 E3.41285
G1 X131.649 Y197.736 E.01955
G1 X58.618 Y124.706 E3.41285
G1 X58.027 Y124.706 E.01955
M73 P1 R344
G1 X131.057 Y197.736 E3.41285
G1 X130.466 Y197.736 E.01955
G1 X57.435 Y124.706 E3.41285
G1 X56.844 Y124.706 E.01955
G1 X129.874 Y197.736 E3.41285
G1 X129.282 Y197.736 E.01955
G1 X56.252 Y124.706 E3.41285
G1 X55.66 Y124.706 E.01955
G1 X128.691 Y197.736 E3.41285
G1 X128.099 Y197.736 E.01955
G1 X55.069 Y124.706 E3.41285
G1 X54.477 Y124.706 E.01955
G1 X127.508 Y197.736 E3.41285
G1 X126.916 Y197.736 E.01955
G1 X53.886 Y124.706 E3.41285
G1 X53.294 Y124.706 E.01955
G1 X126.324 Y197.736 E3.41285
G1 X125.733 Y197.736 E.01955
G1 X52.702 Y124.706 E3.41285
G1 X52.111 Y124.706 E.01955
G1 X125.141 Y197.736 E3.41285
G1 X124.55 Y197.736 E.01955
G1 X51.519 Y124.706 E3.41285
G1 X50.928 Y124.706 E.01955
G1 X123.958 Y197.736 E3.41285
G1 X123.366 Y197.736 E.01955
G1 X50.336 Y124.706 E3.41285
G1 X49.744 Y124.706 E.01955
G1 X122.775 Y197.736 E3.41285
G1 X122.183 Y197.736 E.01955
G1 X49.153 Y124.706 E3.41285
G1 X48.561 Y124.706 E.01955
G1 X121.592 Y197.736 E3.41285
G1 X121 Y197.736 E.01955
G1 X47.97 Y124.706 E3.41285
G1 X47.378 Y124.706 E.01955
G1 X120.408 Y197.736 E3.41285
G1 X119.817 Y197.736 E.01955
G1 X46.786 Y124.706 E3.41285
G1 X46.58 Y124.706 E.00682
G1 X46.58 Y125.091 E.01272
G1 X119.225 Y197.736 E3.39486
G1 X118.634 Y197.736 E.01955
G1 X46.58 Y125.682 E3.36721
G1 X46.58 Y126.274 E.01955
G1 X118.042 Y197.736 E3.33956
G1 X117.45 Y197.736 E.01955
G1 X46.58 Y126.866 E3.31192
G1 X46.58 Y127.457 E.01955
G1 X116.859 Y197.736 E3.28427
G1 X116.267 Y197.736 E.01955
G1 X46.58 Y128.049 E3.25662
G1 X46.58 Y128.64 E.01955
G1 X115.676 Y197.736 E3.22898
G1 X115.084 Y197.736 E.01955
G1 X46.58 Y129.232 E3.20133
G1 X46.58 Y129.824 E.01955
M73 P1 R343
G1 X114.492 Y197.736 E3.17368
G1 X113.901 Y197.736 E.01955
G1 X46.58 Y130.415 E3.14604
G1 X46.58 Y131.007 E.01955
G1 X113.309 Y197.736 E3.11839
G1 X112.718 Y197.736 E.01955
G1 X46.58 Y131.598 E3.09074
G1 X46.58 Y132.19 E.01955
G1 X112.126 Y197.736 E3.0631
G1 X111.534 Y197.736 E.01955
G1 X46.58 Y132.782 E3.03545
G1 X46.58 Y133.373 E.01955
G1 X110.943 Y197.736 E3.00781
G1 X110.351 Y197.736 E.01955
G1 X46.58 Y133.965 E2.98016
G1 X46.58 Y134.556 E.01955
G1 X109.76 Y197.736 E2.95251
G1 X109.168 Y197.736 E.01955
G1 X46.58 Y135.148 E2.92487
G1 X46.58 Y135.74 E.01955
G1 X108.577 Y197.736 E2.89722
G1 X107.985 Y197.736 E.01955
G1 X46.58 Y136.331 E2.86957
G1 X46.58 Y136.923 E.01955
G1 X107.393 Y197.736 E2.84193
G1 X106.802 Y197.736 E.01955
G1 X46.58 Y137.514 E2.81428
G1 X46.58 Y138.106 E.01955
G1 X106.21 Y197.736 E2.78663
G1 X105.619 Y197.736 E.01955
G1 X46.58 Y138.698 E2.75899
G1 X46.58 Y139.289 E.01955
G1 X105.027 Y197.736 E2.73134
G1 X104.435 Y197.736 E.01955
G1 X46.58 Y139.881 E2.70369
G1 X46.58 Y140.472 E.01955
G1 X103.844 Y197.736 E2.67605
G1 X103.252 Y197.736 E.01955
G1 X46.58 Y141.064 E2.6484
G1 X46.58 Y141.656 E.01955
G1 X102.661 Y197.736 E2.62076
G1 X102.069 Y197.736 E.01955
G1 X46.58 Y142.247 E2.59311
G1 X46.58 Y142.839 E.01955
G1 X101.477 Y197.736 E2.56546
G1 X100.886 Y197.736 E.01955
G1 X46.58 Y143.43 E2.53782
G1 X46.58 Y144.022 E.01955
G1 X100.294 Y197.736 E2.51017
G1 X99.703 Y197.736 E.01955
G1 X46.58 Y144.614 E2.48252
G1 X46.58 Y145.205 E.01955
G1 X99.111 Y197.736 E2.45488
G1 X98.519 Y197.736 E.01955
G1 X46.58 Y145.797 E2.42723
G1 X46.58 Y146.388 E.01955
G1 X97.928 Y197.736 E2.39958
G1 X97.336 Y197.736 E.01955
G1 X46.58 Y146.98 E2.37194
G1 X46.58 Y147.571 E.01955
G1 X96.745 Y197.736 E2.34429
G1 X96.153 Y197.736 E.01955
G1 X46.58 Y148.163 E2.31664
G1 X46.58 Y148.755 E.01955
G1 X95.561 Y197.736 E2.289
G1 X94.97 Y197.736 E.01955
G1 X46.58 Y149.346 E2.26135
G1 X46.58 Y149.938 E.01955
