;FLAVOR:Marlin
;TIME:5756
;Filament used: 1.94499m
;Layer height: 0.12
;MINX:54
;MINY:53
;MINZ:0.12
;MAXX:96
;MAXY:97
;MAXZ:29.88
;TARGET_MACHINE.NAME:Creality Ender-2
;Generated with Cura_SteamEngine 5.11.0
M140 S50
M105
M190 S50
M104 S200
M105
M109 S200
M201 X500.00 Y500.00 Z100.00 E5000.00 ;Setup machine max acceleration
M203 X500.00 Y500.00 Z10.00 E50.00 ;Setup machine max feedrate
M204 P500.00 R1000.00 T500.00 ;Setup Print/Retract/Travel acceleration
M205 X8.00 Y8.00 Z0.40 E5.00 ;Setup Jerk
M220 S100 ;Reset Feedrate
M221 S100 ;Reset Flowrate

G28 ;Home

G92 E0 ;Reset Extruder
G1 Z2.0 F3000 ;Move Z Axis up
G1 X10.1 Y20 Z0.28 F5000.0 ;Move to start position
G1 X10.1 Y100.0 Z0.28 F1500.0 E8 ;Draw the first line
G1 X10.4 Y100.0 Z0.28 F5000.0 ;Move to side a little
G1 X10.4 Y20 Z0.28 F1500.0 E15 ;Draw the second line
G92 E0 ;Reset Extruder
G1 Z2.0 F3000 ;Move Z Axis up

M82 ;absolute extrusion mode
G92 E0
G92 E0
G1 F2700 E-5
;LAYER_COUNT:249
;LAYER:0
M107
G0 F6000 X57.351 Y57.114 Z0.12
;TYPE:SKIRT
G1 F2700 E0
G1 F1200 X58.078 Y56.468 E0.01941
G1 X58.861 Y55.888 E0.03885
G1 X59.691 Y55.38 E0.05827
G1 X60.53 Y54.962 E0.07698
G1 X61.472 Y54.593 E0.09717
G1 X62.405 Y54.322 E0.11656
G1 X63.324 Y54.138 E0.13526
G1 X66.054 Y53.71 E0.19041
G1 X69.219 Y53.121 E0.25465
G1 X70.455 Y53.015 E0.27941
G1 X71.138 Y53 E0.29304
G1 X72.363 Y53.011 E0.31749
G1 X72.723 Y53.023 E0.32468
G1 X73.614 Y53.1 E0.34252
G1 X75.001 Y53.285 E0.37045
G1 X77.811 Y53.6 E0.42688
G1 X80.312 Y53.809 E0.47696
G1 X82.839 Y53.946 E0.52746
G1 X85.316 Y54.016 E0.57691
G1 X85.939 Y54.052 E0.58937
G1 X86.964 Y54.19 E0.61001
G1 X87.913 Y54.406 E0.62943
G1 X88.839 Y54.705 E0.64885
G1 X89.672 Y55.056 E0.66689
G1 X90.596 Y55.546 E0.68776
G1 X91.411 Y56.078 E0.70718
G1 X92.149 Y56.658 E0.72591
G1 X92.885 Y57.351 E0.74609
G1 X93.531 Y58.078 E0.7655
G1 X94.111 Y58.861 E0.78494
G1 X94.619 Y59.691 E0.80436
G1 X95.037 Y60.53 E0.82307
G1 X95.406 Y61.472 E0.84326
G1 X95.677 Y62.406 E0.86266
G1 X95.867 Y63.376 E0.88239
G1 X95.987 Y64.706 E0.90904
G1 X96 Y65.33 E0.92149
G1 X95.999 Y84.416 E1.30238
G1 X95.987 Y85.177 E1.31756
G1 X95.929 Y86.15 E1.33702
G1 X95.783 Y87.113 E1.35645
G1 X95.552 Y88.06 E1.37591
G1 X95.239 Y88.982 E1.39534
G1 X94.847 Y89.873 E1.41476
G1 X94.395 Y90.695 E1.43348
G1 X93.833 Y91.533 E1.45362
G1 X93.243 Y92.263 E1.47235
G1 X92.54 Y92.989 E1.49252
G1 X91.804 Y93.625 E1.51193
G1 X91.014 Y94.195 E1.53137
G1 X90.238 Y94.658 E1.5494
G1 X89.298 Y95.111 E1.57023
G1 X88.385 Y95.453 E1.58968
G1 X87.447 Y95.712 E1.6091
G1 X86.481 Y95.889 E1.6287
G1 X85.309 Y95.987 E1.65217
G1 X82.932 Y96.055 E1.69962
G1 X80.46 Y96.183 E1.74902
G1 X77.927 Y96.387 E1.79973
G1 X75.401 Y96.663 E1.85044
G1 X73.48 Y96.916 E1.88911
G1 X72.494 Y96.987 E1.90884
G1 X71.862 Y97 E1.92145
G1 X70.614 Y96.987 E1.94636
G1 X69.645 Y96.928 E1.96573
G1 X68.795 Y96.804 E1.98287
G1 X67.488 Y96.558 E2.00942
G1 X65.012 Y96.127 E2.05957
G1 X63.289 Y95.854 E2.09438
G1 X62.456 Y95.691 E2.11132
G1 X61.452 Y95.4 E2.13218
G1 X60.545 Y95.044 E2.15163
G1 X59.674 Y94.61 E2.17105
G1 X58.843 Y94.1 E2.1905
G1 X58.063 Y93.52 E2.2099
G1 X57.361 Y92.897 E2.22863
G1 X56.691 Y92.189 E2.24808
G1 X56.066 Y91.395 E2.26825
G1 X55.553 Y90.61 E2.28696
G1 X55.093 Y89.752 E2.30639
G1 X54.7 Y88.823 E2.32652
G1 X54.4 Y87.896 E2.34597
G1 X54.185 Y86.946 E2.3654
G1 X54.053 Y85.976 E2.38494
G1 X54 Y84.658 E2.41126
G1 X54.001 Y65.509 E2.7934
G1 X54.013 Y64.814 E2.80727
G1 X54.058 Y63.999 E2.82356
G1 X54.19 Y63.035 E2.84298
G1 X54.406 Y62.086 E2.8624
G1 X54.705 Y61.16 E2.88182
G1 X55.056 Y60.327 E2.89986
G1 X55.546 Y59.403 E2.92073
G1 X56.078 Y58.588 E2.94015
G1 X56.658 Y57.85 E2.95889
G1 X57.351 Y57.114 E2.97906
G0 F6000 X57.617 Y57.413
G1 F1200 X58.317 Y56.789 E2.99777
G1 X59.07 Y56.229 E3.0165
G1 X59.87 Y55.738 E3.03523
G1 X60.677 Y55.334 E3.05324
G1 X61.584 Y54.977 E3.07269
G1 X62.484 Y54.714 E3.09141
G1 X63.386 Y54.533 E3.10976
G1 X66.116 Y54.105 E3.16491
G1 X69.253 Y53.52 E3.22859
G1 X70.489 Y53.414 E3.25335
G1 X71.134 Y53.4 E3.26622
G1 X72.35 Y53.411 E3.29049
G1 X72.71 Y53.423 E3.29768
G1 X73.561 Y53.497 E3.31472
G1 X74.948 Y53.681 E3.34265
G1 X77.778 Y53.999 E3.39948
G1 X80.279 Y54.207 E3.44956
G1 X82.828 Y54.346 E3.5005
G1 X85.293 Y54.415 E3.54971
G1 X85.916 Y54.451 E3.56217
G1 X86.876 Y54.58 E3.5815
G1 X87.791 Y54.787 E3.60022
G1 X88.684 Y55.074 E3.61894
G1 X89.517 Y55.425 E3.63698
G1 X90.378 Y55.881 E3.65642
G1 X91.164 Y56.393 E3.67514
G1 X91.875 Y56.95 E3.69316
G1 X92.586 Y57.617 E3.71262
G1 X93.21 Y58.317 E3.73133
G1 X93.77 Y59.07 E3.75006
G1 X94.261 Y59.87 E3.76879
G1 X94.665 Y60.677 E3.7868
G1 X95.022 Y61.584 E3.80625
G1 X95.285 Y62.484 E3.82496
G1 X95.469 Y63.412 E3.84384
G1 X95.587 Y64.714 E3.86993
G1 X95.6 Y65.33 E3.88223
G1 X95.599 Y84.41 E4.26299
G1 X95.588 Y85.154 E4.27784
G1 X95.533 Y86.091 E4.29657
G1 X95.394 Y87.019 E4.3153
G1 X95.173 Y87.932 E4.33404
G1 X94.873 Y88.821 E4.35277
G1 X94.496 Y89.68 E4.37149
G1 X94.044 Y90.502 E4.39021
G1 X93.521 Y91.282 E4.40895
G1 X92.955 Y91.985 E4.42696
G1 X92.278 Y92.687 E4.44642
G1 X91.57 Y93.301 E4.46512
G1 X90.809 Y93.851 E4.48386
G1 X90.033 Y94.314 E4.5019
G1 X89.157 Y94.737 E4.52131
G1 X88.278 Y95.068 E4.54005
G1 X87.374 Y95.319 E4.55877
G1 X86.447 Y95.49 E4.57759
G1 X85.298 Y95.587 E4.6006
G1 X82.921 Y95.655 E4.64805
G1 X80.428 Y95.785 E4.69787
G1 X77.888 Y95.989 E4.74872
G1 X75.349 Y96.266 E4.79969
G1 X73.428 Y96.519 E4.83836
G1 X72.486 Y96.587 E4.85721
G1 X71.866 Y96.6 E4.86958
G1 X70.638 Y96.588 E4.89409
G1 X69.702 Y96.532 E4.9128
G1 X68.869 Y96.411 E4.9296
G1 X67.557 Y96.164 E4.95624
G1 X65.081 Y95.733 E5.00639
G1 X63.366 Y95.461 E5.04105
G1 X62.533 Y95.298 E5.05799
G1 X61.597 Y95.027 E5.07743
G1 X60.723 Y94.686 E5.09615
G1 X59.883 Y94.269 E5.11487
G1 X59.081 Y93.779 E5.13362
G1 X58.328 Y93.22 E5.15234
G1 X57.652 Y92.622 E5.17035
G1 X56.982 Y91.914 E5.1898
G1 X56.401 Y91.176 E5.20855
G1 X55.906 Y90.421 E5.22656
G1 X55.446 Y89.563 E5.24599
G1 X55.08 Y88.699 E5.26472
G1 X54.79 Y87.807 E5.28343
G1 X54.581 Y86.892 E5.30217
G1 X54.453 Y85.96 E5.32094
G1 X54.4 Y84.658 E5.34694
G1 X54.401 Y65.515 E5.72896
G1 X54.412 Y64.835 E5.74253
G1 X54.454 Y64.053 E5.75816
G1 X54.58 Y63.123 E5.77689
G1 X54.787 Y62.208 E5.79561
G1 X55.074 Y61.315 E5.81433
G1 X55.425 Y60.482 E5.83237
G1 X55.881 Y59.621 E5.85181
G1 X56.393 Y58.835 E5.87053
G1 X56.95 Y58.124 E5.88856
G1 X57.617 Y57.413 E5.90801
G0 F6000 X57.883 Y57.711
G1 F1200 X58.556 Y57.11 E5.92602
G1 X59.28 Y56.57 E5.94404
G1 X60.049 Y56.096 E5.96207
G1 X60.856 Y55.692 E5.98008
G1 X61.697 Y55.361 E5.99812
G1 X62.563 Y55.106 E6.01613
G1 X63.448 Y54.928 E6.03415
G1 X66.178 Y54.5 E6.08929
G1 X69.287 Y53.919 E6.15241
G1 X70.523 Y53.813 E6.17717
G1 X71.13 Y53.8 E6.18928
G1 X72.337 Y53.811 E6.21337
G1 X72.697 Y53.823 E6.22056
G1 X73.509 Y53.894 E6.23682
G1 X74.896 Y54.077 E6.26474
G1 X77.745 Y54.398 E6.32196
G1 X80.246 Y54.605 E6.37204
G1 X82.817 Y54.746 E6.42342
G1 X85.27 Y54.814 E6.47239
G1 X85.893 Y54.85 E6.48485
G1 X86.788 Y54.97 E6.50287
G1 X87.669 Y55.168 E6.52089
G1 X88.529 Y55.443 E6.53891
G1 X89.362 Y55.794 E6.55694
G1 X90.16 Y56.217 E6.57497
G1 X90.917 Y56.708 E6.59297
G1 X91.628 Y57.265 E6.611
G1 X92.288 Y57.883 E6.62904
G1 X92.889 Y58.556 E6.64705
G1 X93.429 Y59.28 E6.66507
G1 X93.903 Y60.049 E6.6831
G1 X94.307 Y60.856 E6.70111
G1 X94.638 Y61.697 E6.71915
G1 X94.893 Y62.563 E6.73716
G1 X95.071 Y63.448 E6.75518
G1 X95.187 Y64.723 E6.78073
G1 X95.2 Y65.33 E6.79284
G1 X95.199 Y84.404 E7.17348
G1 X95.189 Y85.131 E7.18799
G1 X95.137 Y86.033 E7.20602
G1 X95.005 Y86.926 E7.22404
G1 X94.794 Y87.805 E7.24208
G1 X94.507 Y88.661 E7.2601
G1 X94.145 Y89.488 E7.27811
G1 X93.711 Y90.28 E7.29613
G1 X93.209 Y91.031 E7.31416
G1 X92.643 Y91.734 E7.33217
G1 X92.016 Y92.385 E7.35021
G1 X91.335 Y92.977 E7.36822
G1 X90.604 Y93.507 E7.38623
G1 X89.828 Y93.97 E7.40427
G1 X89.015 Y94.363 E7.42229
G1 X88.17 Y94.683 E7.44032
G1 X87.301 Y94.926 E7.45833
G1 X86.413 Y95.091 E7.47635
G1 X85.286 Y95.187 E7.49892
G1 X82.909 Y95.256 E7.54638
G1 X80.396 Y95.386 E7.5966
G1 X77.849 Y95.591 E7.64759
G1 X75.297 Y95.869 E7.69882
G1 X73.376 Y96.122 E7.73748
G1 X72.477 Y96.187 E7.75547
G1 X71.87 Y96.2 E7.76759
G1 X70.661 Y96.189 E7.79172
G1 X69.759 Y96.136 E7.80975
G1 X68.943 Y96.018 E7.8262
G1 X67.626 Y95.77 E7.85294
G1 X65.15 Y95.339 E7.9031
G1 X63.443 Y95.068 E7.93759
G1 X62.61 Y94.905 E7.95453
G1 X61.742 Y94.654 E7.97256
G1 X60.9 Y94.327 E7.99059
G1 X60.091 Y93.927 E8.0086
G1 X59.319 Y93.457 E8.02663
G1 X58.593 Y92.92 E8.04465
G1 X57.917 Y92.322 E8.06266
G1 X57.296 Y91.666 E8.08069
G1 X56.736 Y90.957 E8.09872
G1 X56.241 Y90.202 E8.11674
G1 X55.814 Y89.406 E8.13476
G1 X55.46 Y88.575 E8.15279
G1 X55.18 Y87.717 E8.1708
G1 X54.977 Y86.837 E8.18882
G1 X54.853 Y85.942 E8.20685
G1 X54.8 Y84.658 E8.2325
G1 X54.801 Y65.521 E8.6144
G1 X54.811 Y64.856 E8.62767
G1 X54.85 Y64.106 E8.64266
G1 X54.97 Y63.211 E8.66068
G1 X55.168 Y62.33 E8.6787
G1 X55.443 Y61.47 E8.69672
G1 X55.794 Y60.637 E8.71476
G1 X56.217 Y59.839 E8.73278
G1 X56.708 Y59.082 E8.75079
G1 X57.265 Y58.371 E8.76881
G1 X57.883 Y57.711 E8.78685
G1 F2700 E3.78685
G0 F6000 X70.653 Y64.347
G0 X70.653 Y67.153
G0 X67.5 Y67.5
G1 F2700 E8.78685
G1 F1200 X70.8 Y67.5 E8.85271
G1 X70.919 Y67.461 E8.85521
G1 X71 Y67.3 E8.85881
G1 X71 Y64.2 E8.92067
G1 X72 Y64.2 E8.94063
G1 X72 Y67.3 E9.00249
G1 X72.039 Y67.419 E9.00499
G1 X72.2 Y67.5 E9.00858
G1 X82.5 Y67.5 E9.21413
G1 X82.5 Y82.5 E9.51347
G1 X72.2 Y82.5 E9.71902
G1 X72.081 Y82.539 E9.72152
G1 X72 Y82.7 E9.72512
G1 X72 Y85.8 E9.78698
G1 X71 Y85.8 E9.80694
G1 X71 Y82.7 E9.8688
G1 X70.961 Y82.581 E9.8713
G1 X70.8 Y82.5 E9.8749
G1 X67.5 Y82.5 E9.94075
G1 X67.5 Y67.5 E10.24009
G0 F6000 X67.9 Y67.9
G1 F1200 X70.8 Y67.9 E10.29797
G1 X71.015 Y67.86 E10.30233
G1 X71.201 Y67.747 E10.30667
G1 X71.334 Y67.574 E10.31103
G1 X71.4 Y67.3 E10.31665
G1 X71.4 Y64.6 E10.37053
G1 X71.6 Y64.6 E10.37452
G1 X71.6 Y67.3 E10.42841
G1 X71.64 Y67.515 E10.43277
G1 X71.753 Y67.701 E10.43711
G1 X71.926 Y67.834 E10.44147
G1 X72.2 Y67.9 E10.44709
G1 X82.1 Y67.9 E10.64466
G1 X82.1 Y82.1 E10.92803
G1 X72.2 Y82.1 E11.1256
G1 X71.985 Y82.14 E11.12996
G1 X71.799 Y82.253 E11.13431
G1 X71.666 Y82.426 E11.13866
G1 X71.6 Y82.7 E11.14429
G1 X71.6 Y85.4 E11.19817
G1 X71.4 Y85.4 E11.20216
G1 X71.4 Y82.7 E11.25604
G1 X71.36 Y82.485 E11.2604
G1 X71.247 Y82.299 E11.26475
G1 X71.074 Y82.166 E11.2691
G1 X70.8 Y82.1 E11.27473
G1 X67.9 Y82.1 E11.3326
G1 X67.9 Y67.9 E11.61597
G0 F6000 X68.3 Y68.3
G1 F1200 X70.8 Y68.3 E11.66587
G1 X71.079 Y68.26 E11.67149
G1 X71.336 Y68.144 E11.67712
G1 X71.5 Y68.005 E11.68141
G1 X71.539 Y68.051 E11.68261
G1 X71.775 Y68.205 E11.68823
G1 X72.045 Y68.288 E11.69387
G1 X72.2 Y68.3 E11.69697
G1 X81.7 Y68.3 E11.88656
G1 X81.7 Y81.7 E12.15397
G1 X72.2 Y81.7 E12.34355
G1 X71.921 Y81.74 E12.34918
G1 X71.664 Y81.856 E12.3548
G1 X71.5 Y81.995 E12.35909
G1 X71.461 Y81.949 E12.3603
G1 X71.225 Y81.795 E12.36592
G1 X70.955 Y81.712 E12.37156
G1 X70.8 Y81.7 E12.37466
G1 X68.3 Y81.7 E12.42455
G1 X68.3 Y68.3 E12.69196
G0 F6000 X68.7 Y68.7
G1 F1200 X70.8 Y68.7 E12.73387
G1 X71.132 Y68.66 E12.74054
G1 X71.444 Y68.543 E12.74719
G1 X71.503 Y68.503 E12.74861
G1 X71.687 Y68.603 E12.75279
G1 X72.011 Y68.687 E12.75947
G1 X72.2 Y68.7 E12.76325
G1 X81.3 Y68.7 E12.94485
G1 X81.3 Y81.3 E13.1963
G1 X72.2 Y81.3 E13.3779
G1 X71.868 Y81.34 E13.38457
G1 X71.556 Y81.457 E13.39122
G1 X71.497 Y81.497 E13.39265
G1 X71.313 Y81.397 E13.39683
G1 X70.989 Y81.313 E13.4035
G1 X70.8 Y81.3 E13.40729
G1 X68.7 Y81.3 E13.44919
G1 X68.7 Y68.7 E13.70064
G0 F6000 X69.1 Y69.1
G1 F1200 X70.8 Y69.1 E13.73457
G1 X71.177 Y69.06 E13.74213
G1 X71.509 Y68.951 E13.7491
G1 X71.659 Y69.017 E13.75237
G1 X72.2 Y69.1 E13.7633
G1 X80.9 Y69.1 E13.93691
G1 X80.9 Y80.9 E14.1724
G1 X72.2 Y80.9 E14.34601
G1 X71.823 Y80.94 E14.35358
G1 X71.491 Y81.049 E14.36055
G1 X71.341 Y80.983 E14.36382
G1 X70.8 Y80.9 E14.37475
G1 X69.1 Y80.9 E14.40867
G1 X69.1 Y69.1 E14.64415
G0 F6000 X69.5 Y69.5
G1 F1200 X70.8 Y69.5 E14.6701
G1 X71.217 Y69.46 E14.67846
G1 X71.503 Y69.376 E14.6844
G1 X71.687 Y69.439 E14.68829
G1 X72.2 Y69.5 E14.6986
G1 X80.5 Y69.5 E14.86423
G1 X80.5 Y80.5 E15.08375
G1 X72.2 Y80.5 E15.24938
G1 X71.783 Y80.54 E15.25774
G1 X71.497 Y80.624 E15.26369
G1 X71.313 Y80.561 E15.26757
G1 X70.8 Y80.5 E15.27788
G1 X69.5 Y80.5 E15.30383
G1 X69.5 Y69.5 E15.52334
G0 F6000 X69.9 Y69.9
G1 F1200 X70.8 Y69.9 E15.5413
G1 X71.254 Y69.86 E15.5504
G1 X71.5 Y69.794 E15.55548
G1 X71.768 Y69.864 E15.56101
G1 X72.2 Y69.9 E15.56966
G1 X80.1 Y69.9 E15.72731
G1 X80.1 Y80.1 E15.93086
G1 X72.2 Y80.1 E16.08852
G1 X71.746 Y80.14 E16.09761
G1 X71.5 Y80.206 E16.1027
G1 X71.232 Y80.136 E16.10822
G1 X70.8 Y80.1 E16.11687
G1 X69.9 Y80.1 E16.13483
G1 X69.9 Y69.9 E16.33839
G0 F6000 X70.3 Y70.3
G1 F1200 X70.8 Y70.3 E16.34836
G1 X71.288 Y70.26 E16.35814
G1 X71.49 Y70.209 E16.36229
G1 X71.898 Y70.285 E16.37058
G1 X72.2 Y70.3 E16.37661
G1 X79.7 Y70.3 E16.52628
G1 X79.7 Y79.7 E16.71387
G1 X72.2 Y79.7 E16.86354
G1 X71.712 Y79.74 E16.87331
G1 X71.51 Y79.791 E16.87747
G1 X71.102 Y79.715 E16.88575
G1 X70.8 Y79.7 E16.89178
G1 X70.3 Y79.7 E16.90176
G1 X70.3 Y70.3 E17.08935
G0 F6000 X70.7 Y70.7
G1 F1200 X70.8 Y70.7 E17.09134
G1 X71.32 Y70.66 E17.10175
G1 X71.489 Y70.62 E17.10522
G1 X71.558 Y70.639 E17.10665
G1 X72.2 Y70.7 E17.11952
G1 X79.3 Y70.7 E17.2612
G1 X79.3 Y79.3 E17.43283
G1 X72.2 Y79.3 E17.57451
G1 X71.68 Y79.34 E17.58492
G1 X71.511 Y79.38 E17.58839
G1 X71.442 Y79.361 E17.58982
G1 X70.8 Y79.3 E17.60269
G1 X70.7 Y79.3 E17.60468
G1 X70.7 Y70.7 E17.7763
G0 F6000 X71.1 Y71.078
G1 F1200 X71.35 Y71.06 E17.78131
G1 X71.504 Y71.026 E17.78445
G1 X71.747 Y71.073 E17.78939
G1 X72.2 Y71.1 E17.79845
G1 X78.9 Y71.1 E17.93215
G1 X78.9 Y78.9 E18.08781
G1 X72.2 Y78.9 E18.22152
G1 X71.65 Y78.94 E18.23252
G1 X71.496 Y78.974 E18.23567
G1 X71.253 Y78.927 E18.24061
G1 X71.1 Y78.918 E18.24367
G1 X71.1 Y71.078 E18.40012
G0 F6000 X71.5 Y71.5
;TYPE:SUPPORT
G1 F1200 X78.5 Y71.5 E18.53981
G1 X78.5 Y78.5 E18.67951
G1 X71.5 Y78.5 E18.8192
G1 X71.5 Y71.5 E18.95889
G0 F6000 X72 Y71.58
G1 F1200 X72 Y78.42 E19.09539
G0 F6000 X71.58 Y78
G1 F1200 X78.42 Y78 E19.23189
G0 F6000 X78 Y78.42
G1 F1200 X78 Y71.58 E19.36839
G0 F6000 X78.42 Y72
G1 F1200 X71.58 Y72 E19.50489
G1 F2700 E14.50489
G0 F6000 X71.58 Y74
G1 F2700 E19.50489
G1 F1200 X78.42 Y74 E19.64139
G1 F2700 E14.64139
G0 F6000 X78.42 Y76
G1 F2700 E19.64139
G1 F1200 X71.58 Y76 E19.77789
G1 F2700 E14.77789
G0 F6000 X70.635 Y76
G0 X70.647 Y79.353
G0 X74 Y79.365
G0 X74 Y78.42
G1 F2700 E19.77789
G1 F1200 X74 Y71.58 E19.91439
G1 F2700 E14.91439
G0 F6000 X76 Y71.58
G1 F2700 E19.91439
G1 F1200 X76 Y78.42 E20.05089
G1 F2700 E15.05089
;MESH:huisje.stl
G0 F6000 X76 Y79.365
G0 X76 Y82.835
G0 X75 Y84.425
;TYPE:WALL-INNER
G1 F2700 E20.05089
G1 F1352.1 X83.63 Y84.422 E20.20374
G1 F1148.3 X84.121 Y84.361 E20.21405
G1 F1002.1 X84.361 Y84.361 E20.21979
G1 X84.361 Y84.121 E20.22552
G1 F1151.1 X84.423 Y83.63 E20.23582
G1 F1363.6 X84.425 Y66.5 E20.53665
G1 F1311.5 X84.339 Y65.662 E20.55203
G1 X83.5 Y65.575 E20.56743
G1 F1371.4 X73.575 Y65.575 E20.74074
G1 X73.575 Y65.925 E20.74685
G1 X83.5 Y65.925 E20.92015
G1 F1159.4 X83.952 Y66.048 E20.92983
G1 X84.075 Y66.5 E20.9395
G1 F1363.6 X84.07 Y83.6 E21.2398
G1 F1151.1 X83.952 Y83.952 E21.24753
G1 F1148.3 X83.6 Y84.07 E21.25527
G1 F1359.8 X73.575 Y84.075 E21.43182
G1 F1371.4 X73.575 Y84.425 E21.43793
G1 F1363.6 X75 Y84.425 E21.46296
G0 F6000 X75 Y84.8
;TYPE:WALL-OUTER
G1 F1200 X84.8 Y84.8 E21.65853
G1 X84.8 Y65.2 E22.04967
G1 X73.2 Y65.2 E22.28116
G1 X73.2 Y66.3 E22.30311
G1 X83.5 Y66.3 E22.50866
G1 X83.642 Y66.358 E22.51172
G1 X83.7 Y66.5 E22.51478
G1 X83.698 Y83.535 E22.85473
G1 X83.642 Y83.642 E22.85714
G1 X83.535 Y83.698 E22.85955
G1 X73.2 Y83.7 E23.0658
G1 X73.2 Y84.8 E23.08775
G1 X75 Y84.8 E23.12367
G1 F2700 E18.12367
G0 F6000 X75 Y84.49
G0 X73.43 Y84.425
G0 X72.335 Y84.425
G0 X70.665 Y84.425
G0 X69.425 Y84.425
;TYPE:WALL-INNER
G1 F2700 E23.12367
G1 F1371.4 X69.425 Y84.075 E23.12978
G1 X66.5 Y84.075 E23.18086
G1 F1159.4 X66.048 Y83.952 E23.19053
G1 F1151.1 X65.93 Y83.6 E23.19826
G1 F1359.8 X65.925 Y66.5 E23.49941
