;FLAVOR:Marlin
;TIME:1929
;Filament used: 0.933596m
;Layer height: 0.2
;MINX:80.822
;MINY:80.744
;MINZ:0.2
;MAXX:143.484
;MAXY:137.984
;MAXZ:11.6
;TARGET_MACHINE.NAME:Creality Ender-3 Pro
;Generated with Cura_SteamEngine 5.11.0
; Ender 3 Custom Start G-code
G92 E0 ; Reset Extruder
G28 ; Home all axes
G1 Z5.0 F3000 ; Move Z Axis up a bit during heating to not damage bed
M104 S175 ; Start heating up the nozzle most of the way
M190 S60 ; Start heating the bed, wait until target temperature reached
M109 S200 ; Finish heating the nozzle
G1 Z2.0 F3000 ; Move Z Axis up little to prevent scratching of Heat Bed
G1 X0.1 Y20 Z0.3 F5000.0 ; Move to start position
G1 X0.1 Y200.0 Z0.3 F1500.0 E15 ; Draw the first line
G1 X0.4 Y200.0 Z0.3 F5000.0 ; Move to side a little
G1 X0.4 Y20 Z0.3 F1500.0 E30 ; Draw the second line
G92 E0 ; Reset Extruder
G1 Z2.0 F3000 ; Move Z Axis up little to prevent scratching of Heat Bed
G1 X5 Y20 Z0.3 F5000.0 ; Move over to prevent blob squish
M82 ;absolute extrusion mode
G92 E0
G92 E0
G1 F1500 E-6.5
;LAYER_COUNT:58
;LAYER:0
M107
G0 F6000 X90.869 Y84.232 Z0.2
;TYPE:SKIRT
G1 F1500 E0
G1 F1200 X91.565 Y83.552 E0.03236
G1 X92.291 Y82.957 E0.06358
G1 X93.126 Y82.389 E0.09717
G1 X93.977 Y81.915 E0.12957
G1 X94.867 Y81.519 E0.16197
G1 X95.789 Y81.203 E0.19439
G1 X96.777 Y80.961 E0.22822
G1 X97.737 Y80.815 E0.26052
G1 X98.594 Y80.757 E0.28909
G1 X99.201 Y80.744 E0.30928
G1 X120.415 Y80.744 E1.01486
G1 X121.292 Y80.757 E1.04403
G1 X122.116 Y80.802 E1.07148
G1 X123.08 Y80.934 E1.10384
G1 X124.029 Y81.15 E1.13621
G1 X124.955 Y81.449 E1.16858
G1 X125.788 Y81.8 E1.19864
G1 X126.712 Y82.29 E1.23343
G1 X127.527 Y82.822 E1.2658
G1 X128.238 Y83.379 E1.29584
G1 X128.904 Y83.995 E1.32601
G1 X129.269 Y84.379 E1.34363
G1 X130.698 Y85.987 E1.41518
G1 X132.433 Y87.847 E1.49978
G1 X134.162 Y89.599 E1.58165
G1 X136.012 Y91.373 E1.6669
G1 X136.657 Y91.951 E1.69571
G1 X137.771 Y92.976 E1.74606
G1 X138.211 Y93.402 E1.76643
G1 X138.65 Y93.87 E1.78777
G1 X138.899 Y94.153 E1.80031
G1 X139.508 Y94.908 E1.83257
G1 X139.966 Y95.583 E1.8597
G1 X140.652 Y96.679 E1.90271
G1 X141.129 Y97.528 E1.9351
G1 X141.527 Y98.409 E1.96725
G1 X141.787 Y99.129 E1.99271
G1 X142.402 Y101.024 E2.05897
G1 X142.673 Y102.117 E2.09643
G1 X143.085 Y104.316 E2.17084
G1 X143.14 Y104.693 E2.18351
G1 X143.307 Y106.237 E2.23517
G1 X143.376 Y106.964 E2.25945
G1 X143.414 Y107.484 E2.2768
G1 X143.471 Y108.977 E2.32649
G1 X143.484 Y109.962 E2.35925
G1 X143.465 Y111.257 E2.40233
G1 X143.428 Y112.182 E2.43312
G1 X143.286 Y113.988 E2.49337
G1 X143.185 Y114.923 E2.52465
G1 X142.975 Y116.345 E2.57246
G1 X142.828 Y117.156 E2.59987
G1 X142.584 Y118.306 E2.63897
G1 X142.332 Y119.244 E2.67128
G1 X141.873 Y120.66 E2.72079
G1 X141.691 Y121.184 E2.73924
G1 X141.322 Y122.087 E2.77168
G1 X140.91 Y122.89 E2.8017
G1 X140.721 Y123.212 E2.81412
G1 X140.385 Y123.733 E2.83474
G1 X139.622 Y124.846 E2.87962
G1 X139.166 Y125.474 E2.90543
G1 X138.527 Y126.263 E2.9392
G1 X137.867 Y126.943 E2.97072
G1 X136.776 Y127.849 E3.01789
G1 X136.196 Y128.244 E3.04123
G1 X135.666 Y128.575 E3.06201
G1 X134.783 Y129.087 E3.09596
G1 X134.257 Y129.369 E3.11581
G1 X132.761 Y130.068 E3.17073
G1 X130.463 Y131.175 E3.25557
G1 X128.248 Y132.322 E3.33853
G1 X126.033 Y133.549 E3.42275
G1 X123.135 Y135.266 E3.53479
G1 X122.277 Y135.726 E3.56717
G1 X121.395 Y136.105 E3.5991
G1 X120.858 Y136.291 E3.618
G1 X118.976 Y136.902 E3.68381
G1 X117.879 Y137.174 E3.7214
G1 X115.684 Y137.585 E3.79567
G1 X115.308 Y137.64 E3.80831
G1 X113.891 Y137.794 E3.85572
G1 X113.017 Y137.877 E3.88492
G1 X112.516 Y137.914 E3.90163
G1 X111.027 Y137.97 E3.95119
G1 X110.038 Y137.984 E3.98409
G1 X108.743 Y137.965 E4.02716
G1 X107.818 Y137.928 E4.05795
G1 X106.012 Y137.786 E4.11821
G1 X105.077 Y137.685 E4.14949
G1 X103.655 Y137.475 E4.19729
G1 X102.844 Y137.328 E4.22471
G1 X101.694 Y137.084 E4.26381
G1 X100.756 Y136.832 E4.29611
G1 X99.34 Y136.373 E4.34562
G1 X98.816 Y136.191 E4.36407
G1 X97.945 Y135.837 E4.39534
G1 X96.104 Y134.925 E4.46368
G1 X93.809 Y133.833 E4.54821
G1 X91.536 Y132.831 E4.63083
G1 X89.169 Y131.865 E4.71586
G1 X87.709 Y131.302 E4.7679
G1 X86.881 Y130.926 E4.79815
G1 X86.031 Y130.45 E4.83055
G1 X85.227 Y129.9 E4.86295
G1 X84.475 Y129.281 E4.89535
G1 X83.781 Y128.598 E4.92773
G1 X83.172 Y127.885 E4.95892
G1 X82.586 Y127.063 E4.9925
G1 X82.129 Y126.285 E5.02251
G1 X81.684 Y125.345 E5.0571
G1 X81.384 Y124.545 E5.08551
G1 X81.121 Y123.608 E5.11788
G1 X80.939 Y122.639 E5.15068
G1 X80.837 Y121.456 E5.19017
G1 X80.822 Y120.781 E5.21263
G1 X80.823 Y99.438 E5.9225
G1 X80.835 Y98.711 E5.94668
G1 X80.88 Y97.884 E5.97423
G1 X81.012 Y96.92 E6.00659
G1 X81.228 Y95.971 E6.03896
G1 X81.527 Y95.045 E6.07132
G1 X81.878 Y94.212 E6.10139
G1 X82.368 Y93.288 E6.13618
G1 X82.9 Y92.473 E6.16855
G1 X83.457 Y91.762 E6.19859
G1 X84.071 Y91.098 E6.22867
G1 X84.648 Y90.541 E6.25534
G1 X85.93 Y89.346 E6.31363
G1 X87.732 Y87.569 E6.39781
G1 X89.465 Y85.761 E6.4811
G1 X90.192 Y84.958 E6.51713
G1 X90.869 Y84.232 E6.55015
G0 F6000 X91.149 Y84.518
G1 F1200 X91.819 Y83.861 E6.58136
G1 X92.517 Y83.287 E6.61142
G1 X93.321 Y82.738 E6.6438
G1 X94.14 Y82.28 E6.67501
G1 X94.997 Y81.897 E6.70623
G1 X95.885 Y81.591 E6.73747
G1 X96.838 Y81.356 E6.77011
G1 X97.764 Y81.214 E6.80127
G1 X98.603 Y81.157 E6.82924
G1 X99.21 Y81.144 E6.84944
G1 X120.409 Y81.144 E7.55452
G1 X121.271 Y81.156 E7.58319
G1 X122.062 Y81.198 E7.60954
G1 X122.992 Y81.324 E7.64075
G1 X123.907 Y81.531 E7.67195
G1 X124.8 Y81.818 E7.70315
G1 X125.633 Y82.169 E7.73321
G1 X126.494 Y82.625 E7.76562
G1 X127.28 Y83.137 E7.79682
G1 X127.991 Y83.694 E7.82686
G1 X128.614 Y84.271 E7.8551
G1 X128.97 Y84.645 E7.87228
G1 X130.405 Y86.26 E7.94413
G1 X132.14 Y88.12 E8.02873
G1 X133.885 Y89.888 E8.11136
G1 X135.736 Y91.662 E8.19663
G1 X136.386 Y92.245 E8.22567
G1 X137.493 Y93.264 E8.27571
G1 X137.919 Y93.676 E8.29542
G1 X138.35 Y94.135 E8.31637
G1 X138.588 Y94.404 E8.32831
G1 X139.177 Y95.133 E8.35948
G1 X139.627 Y95.795 E8.38611
G1 X140.304 Y96.876 E8.42853
G1 X140.765 Y97.693 E8.45973
G1 X141.151 Y98.545 E8.49084
G1 X141.407 Y99.253 E8.51588
G1 X142.014 Y101.121 E8.58121
G1 X142.28 Y102.191 E8.61788
G1 X142.689 Y104.374 E8.69175
G1 X142.742 Y104.736 E8.70392
G1 X142.909 Y106.275 E8.75541
G1 X142.977 Y106.993 E8.7794
G1 X143.014 Y107.499 E8.79627
G1 X143.071 Y108.982 E8.84563
G1 X143.084 Y109.956 E8.87803
G1 X143.065 Y111.241 E8.92077
G1 X143.029 Y112.151 E8.95106
G1 X142.888 Y113.945 E9.01092
G1 X142.789 Y114.865 E9.04169
G1 X142.581 Y116.274 E9.08906
G1 X142.437 Y117.073 E9.11607
G1 X142.198 Y118.202 E9.15445
G1 X141.951 Y119.121 E9.1861
G1 X141.495 Y120.529 E9.23533
G1 X141.32 Y121.033 E9.25307
G1 X140.966 Y121.904 E9.28434
G1 X140.554 Y122.707 E9.31436
G1 X140.385 Y122.995 E9.32547
G1 X140.055 Y123.507 E9.34573
G1 X139.298 Y124.611 E9.39025
G1 X138.842 Y125.239 E9.41606
G1 X138.239 Y125.985 E9.44797
G1 X137.611 Y126.635 E9.47803
G1 X136.52 Y127.541 E9.52519
G1 X135.984 Y127.905 E9.54674
G1 X135.465 Y128.229 E9.56709
G1 X134.594 Y128.734 E9.60058
G1 X134.068 Y129.016 E9.62043
G1 X132.587 Y129.708 E9.6748
G1 X130.289 Y130.815 E9.75964
G1 X128.054 Y131.972 E9.84334
G1 X125.839 Y133.199 E9.92756
G1 X122.945 Y134.914 E10.03945
G1 X122.119 Y135.359 E10.07066
G1 X121.264 Y135.727 E10.10162
G1 X120.734 Y135.911 E10.12028
G1 X118.879 Y136.514 E10.18515
G1 X117.805 Y136.781 E10.22196
G1 X115.626 Y137.189 E10.29569
G1 X115.265 Y137.242 E10.30783
G1 X113.853 Y137.396 E10.35507
G1 X112.987 Y137.478 E10.384
G1 X112.501 Y137.514 E10.40021
G1 X111.018 Y137.571 E10.44957
G1 X110.044 Y137.584 E10.48197
G1 X108.759 Y137.565 E10.52472
G1 X107.849 Y137.529 E10.55501
G1 X106.055 Y137.388 E10.61486
G1 X105.135 Y137.289 E10.64563
G1 X103.726 Y137.081 E10.69301
G1 X102.927 Y136.937 E10.72001
G1 X101.798 Y136.698 E10.75839
G1 X100.879 Y136.451 E10.79004
G1 X99.471 Y135.995 E10.83927
G1 X98.967 Y135.82 E10.85701
G1 X98.096 Y135.466 E10.88828
G1 X96.282 Y134.567 E10.95562
G1 X93.981 Y133.472 E11.04038
G1 X91.697 Y132.465 E11.1234
G1 X89.313 Y131.492 E11.20904
G1 X87.874 Y130.938 E11.26033
G1 X87.076 Y130.577 E11.28946
G1 X86.256 Y130.119 E11.3207
G1 X85.481 Y129.591 E11.35189
G1 X84.755 Y128.995 E11.38313
G1 X84.085 Y128.338 E11.41434
G1 X83.497 Y127.652 E11.44439
G1 X82.931 Y126.86 E11.47677
G1 X82.474 Y126.082 E11.50678
G1 X82.058 Y125.204 E11.53909
G1 X81.769 Y124.436 E11.56638
G1 X81.514 Y123.533 E11.59759
G1 X81.338 Y122.605 E11.62901
G1 X81.236 Y121.422 E11.6685
G1 X81.222 Y120.781 E11.68983
G1 X81.223 Y99.444 E12.3995
G1 X81.234 Y98.732 E12.42318
G1 X81.276 Y97.938 E12.44963
G1 X81.402 Y97.008 E12.48084
G1 X81.609 Y96.093 E12.51204
G1 X81.896 Y95.2 E12.54324
G1 X82.247 Y94.367 E12.57331
G1 X82.703 Y93.506 E12.60571
G1 X83.215 Y92.72 E12.63691
G1 X83.772 Y92.009 E12.66695
G1 X84.349 Y91.386 E12.69519
G1 X84.921 Y90.834 E12.72163
G1 X86.203 Y89.639 E12.77992
G1 X88.013 Y87.854 E12.86447
G1 X89.754 Y86.038 E12.94815
G1 X90.485 Y85.231 E12.98436
G1 X91.149 Y84.518 E13.01677
G0 F6000 X91.429 Y84.803
G1 F1200 X92.073 Y84.17 E13.0468
G1 X92.771 Y83.596 E13.07686
G1 X93.517 Y83.087 E13.1069
G1 X94.304 Y82.645 E13.13692
G1 X95.128 Y82.275 E13.16696
G1 X95.981 Y81.979 E13.19699
G1 X96.899 Y81.751 E13.22845
G1 X97.791 Y81.613 E13.25847
G1 X98.612 Y81.557 E13.28584
G1 X99.219 Y81.544 E13.30604
G1 X120.404 Y81.544 E14.01065
G1 X121.25 Y81.555 E14.03879
G1 X122.009 Y81.594 E14.06407
G1 X122.904 Y81.714 E14.09411
G1 X123.785 Y81.912 E14.12414
G1 X124.645 Y82.187 E14.15417
G1 X125.478 Y82.538 E14.18423
G1 X126.276 Y82.961 E14.21427
G1 X127.033 Y83.452 E14.24428
G1 X127.744 Y84.009 E14.27433
G1 X128.324 Y84.547 E14.30064
G1 X128.671 Y84.911 E14.31736
G1 X130.112 Y86.533 E14.38953
G1 X131.847 Y88.393 E14.47413
G1 X133.608 Y90.177 E14.5575
G1 X135.46 Y91.95 E14.64278
G1 X136.115 Y92.539 E14.67207
G1 X137.215 Y93.551 E14.72179
G1 X137.627 Y93.95 E14.74086
G1 X138.058 Y94.409 E14.76181
G1 X138.277 Y94.656 E14.77279
G1 X138.846 Y95.358 E14.80284
G1 X139.288 Y96.007 E14.82896
G1 X139.956 Y97.073 E14.8708
G1 X140.401 Y97.859 E14.90084
G1 X140.775 Y98.681 E14.93088
G1 X141.027 Y99.377 E14.9555
G1 X141.626 Y101.218 E15.01989
G1 X141.887 Y102.265 E15.05578
G1 X142.293 Y104.432 E15.12911
G1 X142.344 Y104.779 E15.14077
G1 X142.511 Y106.313 E15.19209
G1 X142.578 Y107.022 E15.21578
G1 X142.614 Y107.514 E15.23219
G1 X142.671 Y108.987 E15.28122
G1 X142.684 Y109.95 E15.31325
G1 X142.665 Y111.225 E15.35566
G1 X142.63 Y112.12 E15.38545
G1 X142.49 Y113.902 E15.4449
G1 X142.393 Y114.807 E15.47518
G1 X142.187 Y116.203 E15.52211
G1 X142.046 Y116.99 E15.5487
G1 X141.812 Y118.098 E15.58637
G1 X141.57 Y118.998 E15.61736
G1 X141.117 Y120.398 E15.66631
G1 X140.949 Y120.883 E15.68338
G1 X140.61 Y121.721 E15.71344
G1 X140.198 Y122.524 E15.74346
G1 X140.049 Y122.778 E15.75326
G1 X139.725 Y123.281 E15.77316
G1 X138.974 Y124.376 E15.81732
G1 X138.518 Y125.004 E15.84313
G1 X137.951 Y125.707 E15.87317
G1 X137.323 Y126.357 E15.90323
G1 X136.295 Y127.21 E15.94766
G1 X135.772 Y127.566 E15.9687
G1 X135.265 Y127.883 E15.98859
G1 X134.405 Y128.381 E16.02164
G1 X133.879 Y128.663 E16.0415
G1 X132.413 Y129.348 E16.09531
G1 X130.115 Y130.455 E16.18015
G1 X127.86 Y131.622 E16.2646
G1 X125.645 Y132.849 E16.34882
G1 X122.755 Y134.562 E16.46056
G1 X121.961 Y134.992 E16.49059
G1 X121.132 Y135.349 E16.52061
G1 X120.61 Y135.531 E16.539
G1 X118.782 Y136.126 E16.60294
G1 X117.731 Y136.388 E16.63897
G1 X115.568 Y136.793 E16.71216
G1 X115.221 Y136.844 E16.72382
G1 X113.815 Y136.998 E16.77087
G1 X112.957 Y137.079 E16.79953
G1 X112.486 Y137.114 E16.81524
G1 X111.013 Y137.171 E16.86427
G1 X110.05 Y137.184 E16.8963
G1 X108.775 Y137.165 E16.93871
G1 X107.88 Y137.13 E16.9685
G1 X106.098 Y136.99 E17.02795
G1 X105.193 Y136.893 E17.05823
G1 X103.797 Y136.687 E17.10516
G1 X103.01 Y136.546 E17.13175
G1 X101.902 Y136.312 E17.16942
G1 X101.002 Y136.07 E17.20042
G1 X99.602 Y135.617 E17.24936
G1 X99.117 Y135.449 E17.26643
G1 X98.279 Y135.11 E17.2965
G1 X96.459 Y134.208 E17.36406
G1 X94.153 Y133.111 E17.44899
G1 X91.858 Y132.099 E17.53241
G1 X89.457 Y131.119 E17.61867
G1 X88.038 Y130.573 E17.66924
G1 X87.27 Y130.227 E17.69725
G1 X86.481 Y129.788 E17.72728
G1 X85.734 Y129.281 E17.75731
G1 X85.035 Y128.709 E17.78735
G1 X84.389 Y128.078 E17.81739
G1 X83.801 Y127.392 E17.84744
G1 X83.276 Y126.657 E17.87748
G1 X82.819 Y125.879 E17.90749
G1 X82.432 Y125.063 E17.93753
G1 X82.154 Y124.327 E17.9637
G1 X81.907 Y123.458 E17.99374
G1 X81.737 Y122.571 E18.02378
G1 X81.635 Y121.388 E18.06328
G1 X81.622 Y120.781 E18.08347
G1 X81.623 Y99.45 E18.79294
G1 X81.633 Y98.752 E18.81616
G1 X81.672 Y97.991 E18.8415
G1 X81.792 Y97.096 E18.87154
G1 X81.99 Y96.215 E18.90157
G1 X82.265 Y95.355 E18.9316
G1 X82.616 Y94.522 E18.96167
G1 X83.039 Y93.724 E18.99171
G1 X83.53 Y92.967 E19.02172
G1 X84.087 Y92.256 E19.05176
G1 X84.627 Y91.674 E19.07816
G1 X85.194 Y91.127 E19.10437
G1 X86.476 Y89.932 E19.16266
G1 X88.294 Y88.139 E19.24758
G1 X90.043 Y86.315 E19.33163
G1 X90.778 Y85.503 E19.36806
G1 X91.429 Y84.803 E19.39986
G1 F1500 E12.89986
;MESH:stapelbed_ladder.stl
G0 F6000 X96.691 Y98.224
G0 X96.754 Y103.332
;TYPE:WALL-INNER
G1 F1500 E19.39986
G1 F813.6 X96.717 Y103.269 E19.40344
G1 X96.644 Y103.269 E19.40702
G1 X96.608 Y103.332 E19.41058
G1 X96.645 Y103.395 E19.41417
G1 X96.718 Y103.395 E19.41775
G1 X96.754 Y103.332 E19.42131
G0 F6000 X96.754 Y106.664
G1 F813.6 X96.717 Y106.601 E19.42489
G1 X96.644 Y106.601 E19.42847
G1 X96.608 Y106.664 E19.43203
G1 X96.645 Y106.727 E19.43562
G1 X96.718 Y106.727 E19.4392
G1 X96.754 Y106.664 E19.44276
G0 F6000 X96.754 Y110
G1 F813.6 X96.717 Y109.937 E19.44634
G1 X96.644 Y109.937 E19.44992
G1 X96.608 Y110 E19.45348
G1 X96.645 Y110.063 E19.45707
G1 X96.718 Y110.063 E19.46065
G1 X96.754 Y110 E19.46421
G0 F6000 X96.754 Y113.332
G1 F813.6 X96.717 Y113.269 E19.46779
G1 X96.644 Y113.269 E19.47137
G1 X96.608 Y113.332 E19.47493
G1 X96.645 Y113.395 E19.47852
G1 X96.718 Y113.395 E19.4821
G1 X96.754 Y113.332 E19.48566
G0 F6000 X96.754 Y116.664
G1 F813.6 X96.717 Y116.601 E19.48924
G1 X96.644 Y116.601 E19.49282
G1 X96.608 Y116.664 E19.49638
G1 X96.645 Y116.727 E19.49997
G1 X96.718 Y116.727 E19.50355
G1 X96.754 Y116.664 E19.50711
G0 F6000 X96.754 Y120
G1 F813.6 X96.717 Y119.937 E19.51069
G1 X96.644 Y119.937 E19.51428
G1 X96.608 Y120 E19.51784
G1 X96.645 Y120.063 E19.52142
G1 X96.718 Y120.063 E19.525
G1 X96.754 Y120 E19.52856
G0 F6000 X96.039 Y120.278
;TYPE:WALL-OUTER
G1 F774.2 X96.264 Y120.278 E19.54016
G1 F932 X96.348 Y120.334 E19.54448
G1 F1098.4 X96.464 Y120.556 E19.55358
G1 F1200 X96.464 Y120.908 E19.56529
G1 X97.176 Y120.908 E19.58897
G1 X97.176 Y120 E19.61917
G1 F1000 X97.096 Y119.54 E19.63781
G1 F860.2 X97.098 Y117.22 E19.74545
G1 F1004.2 X97.176 Y116.664 E19.76777
G1 F1000 X97.096 Y116.204 E19.7864
G1 F860.2 X97.098 Y113.888 E19.89386
G1 F1004.2 X97.176 Y113.332 E19.91618
G1 F1000 X97.096 Y112.872 E19.93481
G1 F860.2 X97.098 Y110.556 E20.04227
G1 F1004.2 X97.176 Y110 E20.06458
G1 F1000 X97.096 Y109.54 E20.08322
G1 F860.2 X97.098 Y107.22 E20.19086
G1 F1004.2 X97.176 Y106.664 E20.21318
G1 F1000 X97.096 Y106.204 E20.23181
G1 F860.2 X97.098 Y103.888 E20.33927
G1 F1004.2 X97.176 Y103.332 E20.36158
G1 F1000 X97.096 Y102.872 E20.38022
G1 F860.2 X97.098 Y99.166 E20.55217
G1 F863.3 X96.542 Y99.166 E20.57787
G1 F860.2 X96.54 Y102.824 E20.7476
G1 X96.264 Y103.054 E20.76427
G1 F829 X95.084 Y103.054 E20.82108
G1 F766.8 X93.904 Y103.054 E20.8825
G1 F714.3 X92.724 Y103.054 E20.94843
G1 F764.3 X92.656 Y102.824 E20.96096
G1 F860.2 X92.654 Y99.166 E21.13068
G1 F863.3 X92.098 Y99.166 E21.15639
G1 F860.2 X92.1 Y102.872 E21.32834
G1 F764.3 X92.167 Y103.332 E21.35261
G1 F766.8 X92.098 Y103.888 E21.38177
G1 F860.2 X92.1 Y106.204 E21.48923
G1 F764.3 X92.167 Y106.664 E21.51351
G1 F766.8 X92.098 Y107.22 E21.54267
G1 F860.2 X92.1 Y109.54 E21.65031
G1 F764.3 X92.167 Y110 E21.67459
G1 F766.8 X92.098 Y110.556 E21.70375
G1 F860.2 X92.1 Y112.872 E21.81121
G1 F764.3 X92.167 Y113.332 E21.83548
G1 F766.8 X92.098 Y113.888 E21.86464
G1 F860.2 X92.1 Y116.204 E21.9721
G1 F764.3 X92.167 Y116.664 E21.99637
G1 F766.8 X92.098 Y117.22 E22.02554
