;FLAVOR:Marlin
;TIME:5493
;Filament used: 3.10647m
;Layer height: 0.2
;MINX:67.492
;MINY:67.5
;MINZ:0.2
;MAXX:156.76
;MAXY:146.559
;MAXZ:25
;TARGET_MACHINE.NAME:Creality Ender-3 Pro
;Generated with Cura_SteamEngine 5.11.0
; Ender 3 Custom Start G-code
G92 E0 ; Reset Extruder
G28 ; Home all axes
G1 Z5.0 F3000 ; Move Z Axis up a bit during heating to not damage bed
M104 S175 ; Start heating up the nozzle most of the way
M190 S60 ; Start heating the bed, wait until target temperature reached
M109 S200 ; Finish heating the nozzle
G1 Z2.0 F3000 ; Move Z Axis up little to prevent scratching of Heat Bed
G1 X0.1 Y20 Z0.3 F5000.0 ; Move to start position
G1 X0.1 Y200.0 Z0.3 F1500.0 E15 ; Draw the first line
G1 X0.4 Y200.0 Z0.3 F5000.0 ; Move to side a little
G1 X0.4 Y20 Z0.3 F1500.0 E30 ; Draw the second line
G92 E0 ; Reset Extruder
G1 Z2.0 F3000 ; Move Z Axis up little to prevent scratching of Heat Bed
G1 X5 Y20 Z0.3 F5000.0 ; Move over to prevent blob squish
M82 ;absolute extrusion mode
G92 E0
G92 E0
G1 F1500 E-6.5
;LAYER_COUNT:125
;LAYER:0
M107
G0 F6000 X71.344 Y81.631 Z0.2
;TYPE:SKIRT
G1 F1500 E0
G1 F1200 X73.655 Y79.602 E0.10229
G1 X75.455 Y77.923 E0.18416
G1 X77.282 Y76.118 E0.26958
G1 X78.983 Y74.34 E0.35142
G1 X80.708 Y72.432 E0.43697
G1 X81.753 Y71.237 E0.48977
G1 X82.253 Y70.708 E0.51398
G1 X82.973 Y70.052 E0.54637
G1 X83.69 Y69.503 E0.57641
G1 X84.574 Y68.945 E0.61118
G1 X85.441 Y68.501 E0.64358
G1 X86.277 Y68.161 E0.67359
G1 X87.264 Y67.857 E0.70794
G1 X87.832 Y67.727 E0.72732
G1 X88.848 Y67.571 E0.76151
G1 X89.705 Y67.513 E0.79008
G1 X90.312 Y67.5 E0.81027
G1 X129.304 Y67.5 E2.10715
G1 X130.187 Y67.513 E2.13653
G1 X131.159 Y67.572 E2.16891
G1 X132.122 Y67.718 E2.20131
G1 X133.069 Y67.949 E2.23373
G1 X133.99 Y68.262 E2.26608
G1 X134.882 Y68.656 E2.29852
G1 X135.735 Y69.127 E2.33093
G1 X136.541 Y69.671 E2.36327
G1 X137.298 Y70.284 E2.39567
G1 X137.948 Y70.911 E2.4257
G1 X138.406 Y71.42 E2.44848
G1 X139.287 Y72.505 E2.49496
G1 X140.931 Y74.482 E2.58048
G1 X142.618 Y76.395 E2.66532
G1 X144.343 Y78.246 E2.74947
G1 X146.066 Y79.99 E2.83101
G1 X147.903 Y81.749 E2.9156
G1 X151.076 Y84.591 E3.05728
G1 X151.78 Y85.293 E3.09035
G1 X152.383 Y86.009 E3.12148
G1 X152.909 Y86.751 E3.15173
G1 X153.347 Y87.429 E3.17858
G1 X153.604 Y87.853 E3.19507
G1 X153.931 Y88.456 E3.21788
G1 X154.141 Y88.898 E3.23416
G1 X154.337 Y89.359 E3.25082
G1 X154.527 Y89.84 E3.26802
G1 X154.846 Y90.726 E3.29934
G1 X154.872 Y90.854 E3.30369
G1 X155.109 Y91.589 E3.32937
G1 X155.473 Y93.045 E3.37929
G1 X155.59 Y93.61 E3.39848
G1 X155.809 Y94.835 E3.43987
G1 X155.991 Y96.007 E3.47932
G1 X156.154 Y97.358 E3.52458
G1 X156.263 Y98.423 E3.56019
G1 X156.413 Y100.212 E3.6199
G1 X156.531 Y101.981 E3.67887
G1 X156.607 Y103.387 E3.7257
G1 X156.692 Y105.575 E3.79853
G1 X156.729 Y106.998 E3.84587
G1 X156.76 Y109.365 E3.9246
G1 X156.759 Y110.871 E3.97469
G1 X156.729 Y113.101 E4.04887
G1 X156.692 Y114.526 E4.09628
G1 X156.604 Y116.729 E4.16961
G1 X156.532 Y118.099 E4.21524
G1 X156.411 Y119.911 E4.27564
G1 X156.248 Y121.825 E4.33953
G1 X156.051 Y123.632 E4.39999
G1 X155.886 Y124.776 E4.43843
G1 X155.633 Y126.278 E4.48909
G1 X155.506 Y126.894 E4.51001
G1 X155.124 Y128.459 E4.56359
G1 X154.901 Y129.208 E4.58959
G1 X154.664 Y129.87 E4.61297
G1 X154.398 Y130.57 E4.63788
G1 X154.01 Y131.461 E4.6702
G1 X153.579 Y132.261 E4.70043
G1 X153.261 Y132.793 E4.72104
G1 X152.927 Y133.32 E4.74179
G1 X152.36 Y134.112 E4.77419
G1 X151.73 Y134.847 E4.80639
G1 X151.139 Y135.432 E4.83405
G1 X150.407 Y136.087 E4.86672
G1 X149.603 Y136.714 E4.90063
G1 X148.78 Y137.244 E4.93319
G1 X147.824 Y137.741 E4.96902
G1 X147.191 Y138.016 E4.99198
G1 X146.493 Y138.287 E5.01688
G1 X145.881 Y138.49 E5.03833
G1 X144.164 Y138.998 E5.09788
G1 X141.772 Y139.756 E5.18134
G1 X139.349 Y140.599 E5.26667
G1 X137.055 Y141.472 E5.3483
G1 X134.719 Y142.437 E5.43237
G1 X131.338 Y143.97 E5.55584
G1 X130.462 Y144.342 E5.58749
G1 X129.59 Y144.665 E5.61842
G1 X129.202 Y144.796 E5.63204
G1 X128.28 Y145.064 E5.66398
G1 X126.848 Y145.405 E5.71294
G1 X126.023 Y145.57 E5.74092
G1 X125.563 Y145.648 E5.75644
G1 X124.151 Y145.849 E5.80388
G1 X123.097 Y145.977 E5.83919
G1 X121.248 Y146.147 E5.90095
G1 X119.587 Y146.268 E5.95634
G1 X117.776 Y146.374 E6.01668
G1 X116.369 Y146.436 E6.06352
G1 X114.257 Y146.505 E6.1338
G1 X113.013 Y146.531 E6.17519
G1 X110.515 Y146.559 E6.25827
G1 X109.317 Y146.558 E6.29812
G1 X106.812 Y146.53 E6.38144
G1 X105.687 Y146.505 E6.41887
G1 X103.452 Y146.431 E6.49325
G1 X102.034 Y146.365 E6.54046
G1 X100.351 Y146.268 E6.59653
G1 X98.531 Y146.132 E6.65723
G1 X97.544 Y146.045 E6.69019
G1 X96.467 Y145.932 E6.7262
G1 X94.859 Y145.717 E6.78016
G1 X94.147 Y145.608 E6.80412
G1 X93.429 Y145.477 E6.82839
G1 X91.964 Y145.146 E6.87835
G1 X91.043 Y144.883 E6.91021
G1 X89.524 Y144.375 E6.96348
G1 X88.399 Y143.974 E7.0032
G1 X85.984 Y143.184 E7.08771
G1 X83.606 Y142.479 E7.17021
G1 X81.155 Y141.827 E7.25456
G1 X78.74 Y141.258 E7.33709
G1 X77.283 Y140.962 E7.38654
G1 X76.151 Y140.718 E7.42505
G1 X75.208 Y140.468 E7.4575
G1 X74.295 Y140.136 E7.48981
G1 X73.411 Y139.725 E7.52224
G1 X72.599 Y139.255 E7.55344
G1 X71.801 Y138.697 E7.58583
G1 X71.029 Y138.045 E7.61944
G1 X70.392 Y137.405 E7.64947
G1 X69.724 Y136.602 E7.68421
G1 X69.172 Y135.8 E7.71659
G1 X68.693 Y134.952 E7.74899
G1 X68.292 Y134.066 E7.78133
G1 X67.97 Y133.146 E7.81375
G1 X67.729 Y132.203 E7.84613
G1 X67.583 Y131.312 E7.87616
G1 X67.523 Y130.363 E7.90778
G1 X67.505 Y130.264 E7.91113
G1 X67.492 Y129.639 E7.93192
G1 X67.493 Y90.53 E9.23269
G1 X67.505 Y89.803 E9.25687
G1 X67.55 Y88.976 E9.28442
G1 X67.682 Y88.012 E9.31678
G1 X67.898 Y87.063 E9.34915
G1 X68.197 Y86.137 E9.38152
G1 X68.548 Y85.304 E9.41158
G1 X69.038 Y84.38 E9.44637
G1 X69.57 Y83.565 E9.47874
G1 X70.127 Y82.854 E9.50878
G1 X70.749 Y82.184 E9.53919
G1 X71.344 Y81.631 E9.56621
G0 F6000 X71.608 Y81.932
G1 F1200 X73.919 Y79.903 E9.66849
G1 X75.736 Y78.208 E9.75114
G1 X77.563 Y76.403 E9.83656
G1 X79.28 Y74.608 E9.91918
G1 X81.005 Y72.7 E10.00473
G1 X82.044 Y71.511 E10.05724
G1 X82.523 Y71.003 E10.08047
G1 X83.216 Y70.37 E10.11168
G1 X83.933 Y69.821 E10.14172
G1 X84.757 Y69.301 E10.17413
G1 X85.592 Y68.872 E10.20535
G1 X86.428 Y68.532 E10.23537
G1 X87.353 Y68.247 E10.26756
G1 X87.921 Y68.117 E10.28694
G1 X88.875 Y67.97 E10.31905
G1 X89.714 Y67.913 E10.34702
G1 X90.321 Y67.9 E10.36721
G1 X129.298 Y67.9 E11.66359
G1 X130.163 Y67.912 E11.69236
G1 X131.1 Y67.968 E11.72358
G1 X132.028 Y68.107 E11.75479
G1 X132.941 Y68.328 E11.78604
G1 X133.829 Y68.628 E11.81721
G1 X134.689 Y69.006 E11.84846
G1 X135.512 Y69.459 E11.8797
G1 X136.29 Y69.982 E11.91088
G1 X137.02 Y70.572 E11.9421
G1 X137.67 Y71.199 E11.97214
G1 X138.095 Y71.672 E11.99329
G1 X138.976 Y72.757 E12.03977
G1 X140.631 Y74.746 E12.12583
G1 X142.325 Y76.668 E12.21104
G1 X144.05 Y78.519 E12.2952
G1 X145.789 Y80.279 E12.37749
G1 X147.627 Y82.039 E12.46213
G1 X150.809 Y84.889 E12.60421
G1 X151.474 Y85.551 E12.63542
G1 X152.057 Y86.241 E12.66546
G1 X152.573 Y86.968 E12.69511
G1 X153.005 Y87.637 E12.7216
G1 X153.252 Y88.044 E12.73744
G1 X153.579 Y88.647 E12.76025
G1 X153.773 Y89.055 E12.77528
G1 X153.965 Y89.506 E12.79158
G1 X154.151 Y89.976 E12.80839
G1 X154.47 Y90.862 E12.83971
G1 X154.48 Y90.942 E12.84239
G1 X154.728 Y91.712 E12.8693
G1 X155.081 Y93.126 E12.91777
G1 X155.196 Y93.681 E12.93662
G1 X155.414 Y94.896 E12.97768
G1 X155.594 Y96.055 E13.01669
G1 X155.756 Y97.399 E13.06172
G1 X155.864 Y98.457 E13.09709
G1 X156.014 Y100.239 E13.15657
G1 X156.132 Y102.002 E13.21534
G1 X156.207 Y103.403 E13.262
G1 X156.292 Y105.585 E13.33463
G1 X156.329 Y107.003 E13.38181
G1 X156.36 Y109.365 E13.46038
G1 X156.359 Y110.866 E13.5103
G1 X156.329 Y113.091 E13.58431
G1 X156.292 Y114.51 E13.63152
G1 X156.205 Y116.708 E13.70468
G1 X156.133 Y118.072 E13.75011
G1 X156.012 Y119.877 E13.81028
G1 X155.85 Y121.782 E13.87387
G1 X155.655 Y123.575 E13.93386
G1 X155.492 Y124.709 E13.97196
G1 X155.241 Y126.197 E14.02216
G1 X155.117 Y126.799 E14.0426
G1 X154.735 Y128.364 E14.09618
G1 X154.524 Y129.073 E14.12078
G1 X154.29 Y129.728 E14.14392
G1 X154.031 Y130.411 E14.16821
G1 X153.658 Y131.271 E14.19939
G1 X153.235 Y132.056 E14.22905
G1 X152.923 Y132.579 E14.2493
G1 X152.601 Y133.088 E14.26934
G1 X152.056 Y133.852 E14.30055
G1 X151.448 Y134.563 E14.33166
G1 X150.872 Y135.134 E14.35864
G1 X150.14 Y135.789 E14.39131
G1 X149.386 Y136.378 E14.42313
G1 X148.595 Y136.889 E14.45445
G1 X147.664 Y137.374 E14.48937
G1 X147.046 Y137.643 E14.51179
G1 X146.367 Y137.907 E14.53602
G1 X145.768 Y138.106 E14.55701
G1 X144.051 Y138.614 E14.61657
G1 X141.641 Y139.378 E14.70065
G1 X139.218 Y140.221 E14.78598
G1 X136.902 Y141.102 E14.8684
G1 X134.566 Y142.067 E14.95246
G1 X131.181 Y143.602 E15.07608
G1 X130.323 Y143.967 E15.10709
G1 X129.461 Y144.286 E15.13766
G1 X129.09 Y144.412 E15.1507
G1 X128.187 Y144.675 E15.18198
G1 X126.769 Y145.013 E15.23046
G1 X125.956 Y145.176 E15.25804
G1 X125.507 Y145.252 E15.27319
G1 X124.103 Y145.452 E15.32036
G1 X123.06 Y145.579 E15.3553
G1 X121.219 Y145.748 E15.41679
G1 X119.564 Y145.869 E15.47198
G1 X117.758 Y145.974 E15.53215
G1 X116.356 Y146.036 E15.57883
G1 X114.248 Y146.105 E15.64898
G1 X113.007 Y146.132 E15.69026
G1 X110.515 Y146.159 E15.77315
G1 X109.321 Y146.158 E15.81287
G1 X106.821 Y146.13 E15.89602
G1 X105.7 Y146.105 E15.93332
G1 X103.47 Y146.031 E16.00753
G1 X102.057 Y145.966 E16.05457
G1 X100.381 Y145.869 E16.11041
G1 X98.566 Y145.734 E16.17094
G1 X97.585 Y145.647 E16.2037
G1 X96.52 Y145.536 E16.23931
G1 X94.92 Y145.322 E16.293
G1 X94.219 Y145.214 E16.3166
G1 X93.501 Y145.083 E16.34087
G1 X92.074 Y144.761 E16.38953
G1 X91.153 Y144.498 E16.42138
G1 X89.658 Y143.998 E16.47381
G1 X88.533 Y143.597 E16.51354
G1 X86.098 Y142.8 E16.59875
G1 X83.72 Y142.095 E16.68125
G1 X81.258 Y141.441 E16.76598
G1 X78.82 Y140.866 E16.84929
G1 X77.367 Y140.571 E16.8986
G1 X76.253 Y140.331 E16.9365
G1 X75.344 Y140.092 E16.96776
G1 X74.463 Y139.773 E16.99893
G1 X73.611 Y139.378 E17.03016
G1 X72.828 Y138.927 E17.06022
G1 X72.03 Y138.369 E17.0926
G1 X71.313 Y137.763 E17.12383
G1 X70.676 Y137.123 E17.15386
G1 X70.053 Y136.375 E17.18624
G1 X69.52 Y135.603 E17.21744
G1 X69.057 Y134.786 E17.24867
G1 X68.669 Y133.933 E17.27984
G1 X68.357 Y133.047 E17.31108
G1 X68.124 Y132.138 E17.3423
G1 X67.978 Y131.247 E17.37233
G1 X67.919 Y130.296 E17.40402
G1 X67.905 Y130.256 E17.40543
G1 X67.892 Y129.639 E17.42595
G1 X67.893 Y90.536 E18.72652
G1 X67.904 Y89.824 E18.75021
G1 X67.946 Y89.03 E18.77665
G1 X68.072 Y88.1 E18.80787
G1 X68.279 Y87.185 E18.83907
G1 X68.566 Y86.292 E18.87027
G1 X68.917 Y85.459 E18.90033
G1 X69.373 Y84.598 E18.93274
G1 X69.885 Y83.812 E18.96394
G1 X70.442 Y83.101 E18.99398
G1 X71.021 Y82.477 E19.02229
G1 X71.608 Y81.932 E19.04893
G0 F6000 X71.872 Y82.233
G1 F1200 X74.183 Y80.204 E19.15122
G1 X76.017 Y78.493 E19.23464
G1 X77.844 Y76.688 E19.32006
G1 X79.577 Y74.876 E19.40345
G1 X81.302 Y72.968 E19.489
G1 X82.335 Y71.785 E19.54124
G1 X82.793 Y71.298 E19.56348
G1 X83.459 Y70.688 E19.59351
G1 X84.176 Y70.139 E19.62355
G1 X84.94 Y69.657 E19.6536
G1 X85.743 Y69.243 E19.68364
G1 X86.579 Y68.903 E19.71366
G1 X87.442 Y68.637 E19.7437
G1 X88.01 Y68.507 E19.76308
G1 X88.902 Y68.369 E19.7931
G1 X89.723 Y68.313 E19.82047
G1 X90.33 Y68.3 E19.84066
G1 X129.293 Y68.3 E21.13658
G1 X130.14 Y68.311 E21.16475
G1 X131.042 Y68.364 E21.1948
G1 X131.935 Y68.496 E21.22483
G1 X132.813 Y68.707 E21.25486
G1 X133.669 Y68.995 E21.2849
G1 X134.497 Y69.357 E21.31496
G1 X135.289 Y69.791 E21.34499
G1 X136.039 Y70.294 E21.37503
G1 X136.742 Y70.86 E21.40505
G1 X137.392 Y71.487 E21.43509
G1 X137.784 Y71.924 E21.45461
G1 X138.665 Y73.009 E21.5011
G1 X140.331 Y75.01 E21.5877
G1 X142.032 Y76.941 E21.67329
G1 X143.757 Y78.792 E21.75744
G1 X145.512 Y80.568 E21.84049
G1 X147.351 Y82.329 E21.92517
G1 X150.527 Y85.173 E22.06697
G1 X151.168 Y85.809 E22.097
G1 X151.751 Y86.499 E22.12705
G1 X152.237 Y87.185 E22.15501
G1 X152.663 Y87.844 E22.18111
G1 X152.9 Y88.235 E22.19632
G1 X153.227 Y88.838 E22.21913
G1 X153.405 Y89.212 E22.23291
G1 X153.593 Y89.653 E22.24885
G1 X153.775 Y90.112 E22.26528
G1 X154.094 Y90.998 E22.2966
G1 X154.079 Y91.003 E22.29712
G1 X154.347 Y91.835 E22.32619
G1 X154.689 Y93.207 E22.37322
G1 X154.802 Y93.752 E22.39174
G1 X155.019 Y94.957 E22.43246
G1 X155.197 Y96.103 E22.47103
G1 X155.358 Y97.44 E22.51582
G1 X155.465 Y98.491 E22.55096
G1 X155.615 Y100.266 E22.61021
G1 X155.733 Y102.023 E22.66878
G1 X155.807 Y103.419 E22.71527
G1 X155.892 Y105.595 E22.7877
G1 X155.929 Y107.008 E22.83471
G1 X155.96 Y109.365 E22.91312
G1 X155.959 Y110.861 E22.96287
G1 X155.929 Y113.081 E23.03672
G1 X155.892 Y114.494 E23.08373
G1 X155.806 Y116.687 E23.15673
G1 X155.734 Y118.045 E23.20196
G1 X155.613 Y119.843 E23.26189
G1 X155.452 Y121.741 E23.32525
G1 X155.349 Y122.745 E23.35882
G1 X155.259 Y123.518 E23.3847
G1 X155.098 Y124.642 E23.42247
G1 X154.849 Y126.116 E23.47219
G1 X154.728 Y126.704 E23.49215
G1 X154.346 Y128.269 E23.54573
G1 X154.147 Y128.939 E23.56898
G1 X153.916 Y129.586 E23.59183
G1 X153.664 Y130.252 E23.61551
G1 X153.306 Y131.081 E23.64555
G1 X152.891 Y131.851 E23.67464
G1 X152.579 Y132.374 E23.69489
G1 X152.275 Y132.856 E23.71385
G1 X151.752 Y133.592 E23.74388
G1 X151.166 Y134.279 E23.77391
G1 X150.605 Y134.836 E23.80021
G1 X149.893 Y135.474 E23.832
G1 X149.168 Y136.042 E23.86264
G1 X148.41 Y136.534 E23.89269
G1 X147.504 Y137.007 E23.92669
G1 X146.901 Y137.27 E23.94857
G1 X146.241 Y137.527 E23.97212
G1 X145.654 Y137.722 E23.9927
G1 X143.937 Y138.231 E24.05226
G1 X141.51 Y139 E24.13694
G1 X139.087 Y139.843 E24.22227
G1 X136.749 Y140.732 E24.30546
G1 X134.413 Y141.697 E24.38952
G1 X131.016 Y143.238 E24.51359
G1 X130.184 Y143.592 E24.54366
G1 X129.332 Y143.907 E24.57388
G1 X128.978 Y144.028 E24.58632
G1 X128.094 Y144.286 E24.61695
G1 X126.69 Y144.621 E24.66496
G1 X125.89 Y144.782 E24.6921
G1 X125.451 Y144.856 E24.7069
G1 X124.054 Y145.055 E24.75384
G1 X123.024 Y145.181 E24.78835
G1 X121.19 Y145.349 E24.84961
G1 X119.541 Y145.47 E24.9046
G1 X117.74 Y145.574 E24.9646
G1 X116.343 Y145.636 E25.01111
G1 X114.239 Y145.705 E25.08113
G1 X113.003 Y145.732 E25.12225
G1 X110.515 Y145.759 E25.205
G1 X109.325 Y145.758 E25.24458
G1 X106.83 Y145.73 E25.32757
G1 X105.713 Y145.705 E25.36473
G1 X103.488 Y145.631 E25.43878
G1 X102.08 Y145.567 E25.48566
G1 X100.411 Y145.47 E25.54126
G1 X98.602 Y145.336 E25.60159
G1 X97.626 Y145.249 E25.63418
G1 X96.573 Y145.14 E25.66939
G1 X94.981 Y144.927 E25.72282
G1 X94.29 Y144.82 E25.74607
G1 X93.589 Y144.693 E25.76977
G1 X92.183 Y144.376 E25.8177
G1 X91.28 Y144.119 E25.84893
G1 X89.792 Y143.621 E25.90112
G1 X88.667 Y143.22 E25.94084
G1 X86.222 Y142.42 E26.02641
G1 X83.823 Y141.708 E26.10964
G1 X81.361 Y141.055 E26.19436
G1 X78.9 Y140.474 E26.27846
G1 X77.451 Y140.18 E26.32764
G1 X76.354 Y139.944 E26.36496
G1 X75.48 Y139.716 E26.395
G1 X74.631 Y139.41 E26.42501
G1 X73.811 Y139.031 E26.45506
G1 X73.028 Y138.58 E26.48511
G1 X72.288 Y138.063 E26.51514
G1 X71.597 Y137.481 E26.54519
G1 X70.96 Y136.841 E26.57522
G1 X70.382 Y136.147 E26.60526
G1 X69.868 Y135.405 E26.63528
G1 X69.421 Y134.62 E26.66533
G1 X69.046 Y133.799 E26.69535
G1 X68.744 Y132.947 E26.72541
G1 X68.519 Y132.073 E26.75543
G1 X68.373 Y131.182 E26.78546
G1 X68.317 Y130.247 E26.81661
G1 X68.305 Y130.247 E26.81701
G1 X68.292 Y129.639 E26.83724
G1 X68.293 Y90.542 E28.13761
G1 X68.303 Y89.844 E28.16083
G1 X68.342 Y89.083 E28.18617
G1 X68.462 Y88.188 E28.21621
G1 X68.66 Y87.307 E28.24624
G1 X68.935 Y86.447 E28.27627
G1 X69.286 Y85.614 E28.30634
G1 X69.709 Y84.816 E28.33638
G1 X70.2 Y84.059 E28.36639
G1 X70.757 Y83.348 E28.39643
G1 X71.293 Y82.77 E28.42264
G1 X71.872 Y82.233 E28.44891
G1 F1500 E21.94891
;MESH:stapelbed_ladder.stl
G0 F6000 X80.424 Y92.202
G0 X86.703 Y97.542
;TYPE:WALL-INNER
G1 F1500 E28.44891
G1 F1200 X86.492 Y97.58 E28.45604
G1 X80.44 Y97.578 E28.65733
G1 X80.132 Y97.46 E28.6683
G1 X79.892 Y97.071 E28.6835
G1 X79.892 Y92.98 E28.81957
G1 X80.132 Y92.5 E28.83742
G1 X80.44 Y92.382 E28.84839
G1 X86.492 Y92.38 E29.04968
G1 X86.703 Y92.418 E29.05681
G1 X86.852 Y92.5 E29.06247
G1 X87.092 Y92.98 E29.08032
