;FLAVOR:Marlin
;TIME:1777
;Filament used: 0.744161m
;Layer height: 0.2
;MINX:88
;MINY:92.95
;MINZ:0.2
;MAXX:132
;MAXY:127.05
;MAXZ:22
;TARGET_MACHINE.NAME:Creality Ender-3 Pro
;Generated with Cura_SteamEngine 5.11.0
; Ender 3 Custom Start G-code
G92 E0 ; Reset Extruder
G28 ; Home all axes
G1 Z5.0 F3000 ; Move Z Axis up a bit during heating to not damage bed
M104 S175 ; Start heating up the nozzle most of the way
M190 S60 ; Start heating the bed, wait until target temperature reached
M109 S200 ; Finish heating the nozzle
G1 Z2.0 F3000 ; Move Z Axis up little to prevent scratching of Heat Bed
G1 X0.1 Y20 Z0.3 F5000.0 ; Move to start position
G1 X0.1 Y200.0 Z0.3 F1500.0 E15 ; Draw the first line
G1 X0.4 Y200.0 Z0.3 F5000.0 ; Move to side a little
G1 X0.4 Y20 Z0.3 F1500.0 E30 ; Draw the second line
G92 E0 ; Reset Extruder
G1 Z2.0 F3000 ; Move Z Axis up little to prevent scratching of Heat Bed
G1 X5 Y20 Z0.3 F5000.0 ; Move over to prevent blob squish
M82 ;absolute extrusion mode
G92 E0
G92 E0
G1 F1500 E-6.5
;LAYER_COUNT:110
;LAYER:0
M107
G0 F6000 X92.496 Y96.015 Z0.2
;TYPE:SKIRT
G1 F1500 E0
G1 F1200 X93.262 Y95.349 E0.03376
G1 X94.05 Y94.777 E0.06615
G1 X94.886 Y94.277 E0.09855
G1 X95.763 Y93.853 E0.13094
G1 X96.688 Y93.505 E0.16382
G1 X97.906 Y93.183 E0.20572
G1 X98.948 Y93.021 E0.24079
G1 X99.807 Y92.963 E0.26943
G1 X100.464 Y92.95 E0.29128
G1 X101.306 Y92.961 E0.31929
G1 X103.905 Y92.961 E0.40573
G1 X104.909 Y92.95 E0.43913
G1 X106.139 Y92.974 E0.48005
G1 X107.008 Y93.049 E0.50906
G1 X107.755 Y93.145 E0.53411
G1 X109.05 Y93.33 E0.57762
G1 X111.487 Y93.606 E0.65919
G1 X114.057 Y93.828 E0.74499
G1 X116.507 Y93.967 E0.8266
G1 X119.097 Y94.041 E0.91278
G1 X121.188 Y94.063 E0.98233
G1 X122.162 Y94.122 E1.01479
G1 X123.123 Y94.269 E1.04712
G1 X124.07 Y94.5 E1.07954
G1 X124.958 Y94.801 E1.11073
G1 X125.883 Y95.207 E1.14433
G1 X126.675 Y95.642 E1.17438
G1 X127.542 Y96.224 E1.20911
G1 X128.272 Y96.815 E1.24035
G1 X128.997 Y97.517 E1.27392
G1 X129.611 Y98.227 E1.30514
G1 X130.201 Y99.045 E1.33868
G1 X130.68 Y99.852 E1.3699
G1 X131.102 Y100.73 E1.4023
G1 X131.457 Y101.675 E1.43587
G1 X131.707 Y102.579 E1.46707
G1 X131.891 Y103.581 E1.50095
G1 X131.986 Y104.731 E1.53933
G1 X132 Y105.38 E1.56092
G1 X131.999 Y106.679 E1.60413
G1 X131.973 Y108.468 E1.66364
G1 X131.948 Y109.356 E1.69318
G1 X131.948 Y111.887 E1.77736
G1 X132 Y114.177 E1.85355
G1 X131.999 Y115.466 E1.89642
G1 X131.987 Y116.227 E1.92174
G1 X131.929 Y117.2 E1.95416
G1 X131.783 Y118.163 E1.98655
G1 X131.552 Y119.11 E2.01897
G1 X131.239 Y120.032 E2.05136
G1 X130.847 Y120.923 E2.08373
G1 X130.395 Y121.745 E2.11493
G1 X129.833 Y122.583 E2.14849
G1 X129.243 Y123.313 E2.17971
G1 X128.54 Y124.039 E2.21332
G1 X127.804 Y124.675 E2.24568
G1 X127.014 Y125.245 E2.27808
G1 X126.238 Y125.708 E2.30813
G1 X125.298 Y126.161 E2.34284
G1 X124.385 Y126.503 E2.37527
G1 X123.447 Y126.762 E2.40763
G1 X122.481 Y126.939 E2.44029
G1 X121.345 Y127.035 E2.47821
G1 X120.67 Y127.05 E2.50067
G1 X119.349 Y127.049 E2.54461
G1 X118.629 Y127.039 E2.56856
G1 X118.03 Y127.013 E2.5885
G1 X116.151 Y126.871 E2.65117
G1 X113.67 Y126.733 E2.73382
G1 X111.134 Y126.664 E2.8182
G1 X108.646 Y126.666 E2.90095
G1 X106.081 Y126.741 E2.9863
G1 X103.566 Y126.885 E3.07008
G1 X101.985 Y127.011 E3.12283
G1 X101.494 Y127.037 E3.13919
G1 X100.87 Y127.05 E3.15995
G1 X99.549 Y127.049 E3.20388
G1 X98.816 Y127.037 E3.22827
G1 X97.844 Y126.978 E3.26065
G1 X96.881 Y126.832 E3.29305
G1 X95.934 Y126.601 E3.32547
G1 X95.046 Y126.301 E3.35664
G1 X94.154 Y125.911 E3.38902
G1 X93.271 Y125.424 E3.42256
G1 X92.52 Y124.922 E3.45261
G1 X91.705 Y124.264 E3.48745
G1 X91.007 Y123.586 E3.51981
G1 X90.371 Y122.849 E3.55219
G1 X89.801 Y122.059 E3.58459
G1 X89.339 Y121.283 E3.61463
G1 X88.885 Y120.341 E3.64941
G1 X88.556 Y119.463 E3.68059
G1 X88.287 Y118.49 E3.71417
G1 X88.11 Y117.523 E3.74687
G1 X88.014 Y116.358 E3.78575
G1 X88 Y115.708 E3.80737
G1 X88.001 Y114.4 E3.85088
G1 X88.027 Y112.632 E3.90969
G1 X88.052 Y111.744 E3.93923
G1 X88.052 Y109.213 E4.02341
G1 X88 Y106.923 E4.0996
G1 X88.001 Y105.559 E4.14497
G1 X88.013 Y104.864 E4.16809
G1 X88.058 Y104.045 E4.19537
G1 X88.19 Y103.081 E4.22773
G1 X88.406 Y102.132 E4.2601
G1 X88.705 Y101.206 E4.29246
G1 X89.056 Y100.373 E4.32253
G1 X89.546 Y99.449 E4.35732
G1 X90.078 Y98.634 E4.38969
G1 X90.635 Y97.923 E4.41973
G1 X91.014 Y97.502 E4.43857
G1 X91.973 Y96.524 E4.48412
G1 X92.496 Y96.015 E4.5084
G0 F6000 X92.775 Y96.302
G1 F1200 X93.497 Y95.672 E4.54027
G1 X94.256 Y95.12 E4.57148
G1 X95.061 Y94.637 E4.60271
G1 X95.905 Y94.227 E4.63392
G1 X96.79 Y93.892 E4.66539
G1 X98.008 Y93.57 E4.70729
G1 X98.975 Y93.42 E4.73984
G1 X99.815 Y93.363 E4.76784
G1 X100.459 Y93.35 E4.78927
G1 X101.301 Y93.361 E4.81727
G1 X103.909 Y93.361 E4.90402
G1 X104.901 Y93.35 E4.93701
G1 X106.131 Y93.374 E4.97793
G1 X106.957 Y93.446 E5.00551
G1 X107.698 Y93.541 E5.03035
G1 X108.993 Y93.726 E5.07386
G1 X111.453 Y94.005 E5.15621
G1 X114.023 Y94.226 E5.242
G1 X116.496 Y94.367 E5.32439
G1 X119.086 Y94.441 E5.41057
G1 X121.164 Y94.462 E5.47968
G1 X122.102 Y94.518 E5.51094
G1 X123.029 Y94.658 E5.54212
G1 X123.942 Y94.879 E5.57336
G1 X124.798 Y95.168 E5.60341
G1 X125.69 Y95.558 E5.63579
G1 X126.482 Y95.993 E5.66585
G1 X127.29 Y96.535 E5.69821
G1 X128.02 Y97.126 E5.72945
G1 X128.694 Y97.779 E5.76066
G1 X129.308 Y98.489 E5.79188
G1 X129.857 Y99.25 E5.82309
G1 X130.319 Y100.025 E5.8531
G1 X130.741 Y100.903 E5.8855
G1 X131.071 Y101.782 E5.91673
G1 X131.321 Y102.686 E5.94792
G1 X131.492 Y103.614 E5.97931
G1 X131.587 Y104.764 E6.01769
G1 X131.6 Y105.38 E6.03818
G1 X131.599 Y106.673 E6.08119
G1 X131.573 Y108.457 E6.14053
G1 X131.548 Y109.345 E6.17007
G1 X131.548 Y111.887 E6.25462
G1 X131.6 Y114.177 E6.33081
G1 X131.599 Y115.46 E6.37348
G1 X131.588 Y116.204 E6.39823
G1 X131.533 Y117.141 E6.42945
G1 X131.394 Y118.069 E6.46066
G1 X131.173 Y118.982 E6.4919
G1 X130.873 Y119.871 E6.52311
G1 X130.496 Y120.73 E6.55431
G1 X130.044 Y121.552 E6.58551
G1 X129.521 Y122.332 E6.61674
G1 X128.955 Y123.035 E6.64676
G1 X128.278 Y123.737 E6.6792
G1 X127.57 Y124.351 E6.71037
G1 X126.809 Y124.901 E6.7416
G1 X126.033 Y125.364 E6.77165
G1 X125.157 Y125.787 E6.80401
G1 X124.278 Y126.118 E6.83525
G1 X123.374 Y126.369 E6.86645
G1 X122.447 Y126.54 E6.8978
G1 X121.311 Y126.636 E6.93572
G1 X120.67 Y126.65 E6.95705
G1 X119.355 Y126.649 E7.00078
G1 X118.646 Y126.639 E7.02437
G1 X118.06 Y126.614 E7.04388
G1 X116.181 Y126.472 E7.10655
G1 X113.681 Y126.333 E7.18983
G1 X111.145 Y126.264 E7.27421
G1 X108.634 Y126.266 E7.35772
G1 X106.069 Y126.341 E7.44307
G1 X103.534 Y126.487 E7.52753
G1 X101.964 Y126.612 E7.57991
G1 X101.486 Y126.637 E7.59583
G1 X100.87 Y126.65 E7.61632
G1 X99.555 Y126.649 E7.66006
G1 X98.84 Y126.638 E7.68384
G1 X97.903 Y126.582 E7.71506
G1 X96.975 Y126.443 E7.74627
G1 X96.062 Y126.222 E7.77752
G1 X95.206 Y125.934 E7.80756
G1 X94.314 Y125.544 E7.83994
G1 X93.493 Y125.091 E7.87112
G1 X92.742 Y124.589 E7.90117
G1 X91.983 Y123.977 E7.9336
G1 X91.309 Y123.324 E7.96481
G1 X90.695 Y122.615 E7.99601
G1 X90.145 Y121.854 E8.02724
G1 X89.683 Y121.078 E8.05727
G1 X89.26 Y120.201 E8.08966
G1 X88.931 Y119.323 E8.12084
G1 X88.68 Y118.418 E8.15208
G1 X88.509 Y117.49 E8.18346
G1 X88.413 Y116.325 E8.22234
G1 X88.4 Y115.708 E8.24287
G1 X88.401 Y114.406 E8.28617
G1 X88.427 Y112.643 E8.34482
G1 X88.452 Y111.755 E8.37437
G1 X88.452 Y109.213 E8.45891
G1 X88.4 Y106.923 E8.5351
G1 X88.401 Y105.565 E8.58027
G1 X88.412 Y104.885 E8.60289
G1 X88.454 Y104.099 E8.62906
G1 X88.58 Y103.169 E8.66028
G1 X88.787 Y102.254 E8.69148
G1 X89.074 Y101.361 E8.72268
G1 X89.425 Y100.528 E8.75274
G1 X89.881 Y99.667 E8.78515
G1 X90.393 Y98.881 E8.81635
G1 X90.95 Y98.17 E8.84639
G1 X91.299 Y97.782 E8.86375
G1 X92.252 Y96.811 E8.909
G1 X92.775 Y96.302 E8.93327
G0 F6000 X93.038 Y96.603
G1 F1200 X93.733 Y95.995 E8.96398
G1 X94.463 Y95.463 E8.99403
G1 X95.236 Y94.997 E9.02405
G1 X96.048 Y94.601 E9.0541
G1 X96.892 Y94.279 E9.08414
G1 X98.11 Y93.957 E9.12604
G1 X99.002 Y93.819 E9.15606
G1 X99.823 Y93.763 E9.18343
G1 X100.454 Y93.75 E9.20443
G1 X101.296 Y93.761 E9.23243
G1 X103.913 Y93.761 E9.31948
G1 X104.893 Y93.75 E9.35207
G1 X106.097 Y93.773 E9.39213
G1 X106.906 Y93.843 E9.41913
G1 X107.641 Y93.937 E9.44378
G1 X108.936 Y94.122 E9.48729
G1 X111.419 Y94.404 E9.5704
G1 X113.989 Y94.624 E9.65619
G1 X116.485 Y94.767 E9.73935
G1 X119.075 Y94.841 E9.82553
G1 X121.141 Y94.861 E9.89425
G1 X122.043 Y94.914 E9.9243
G1 X122.936 Y95.047 E9.95433
G1 X123.814 Y95.258 E9.98436
G1 X124.67 Y95.547 E10.01441
G1 X125.497 Y95.909 E10.04444
G1 X126.289 Y96.344 E10.07449
G1 X127.039 Y96.846 E10.10451
G1 X127.742 Y97.414 E10.13457
G1 X128.392 Y98.041 E10.16461
G1 X128.984 Y98.723 E10.19464
G1 X129.513 Y99.455 E10.22468
G1 X129.975 Y100.23 E10.25469
G1 X130.367 Y101.044 E10.28474
G1 X130.686 Y101.889 E10.31478
G1 X130.928 Y102.759 E10.34482
G1 X131.093 Y103.647 E10.37486
G1 X131.187 Y104.773 E10.41244
G1 X131.2 Y105.38 E10.43263
G1 X131.199 Y106.667 E10.47544
G1 X131.173 Y108.446 E10.53461
G1 X131.148 Y109.334 E10.56416
G1 X131.148 Y111.887 E10.64907
G1 X131.2 Y114.177 E10.72526
G1 X131.199 Y115.454 E10.76773
G1 X131.189 Y116.181 E10.79191
G1 X131.137 Y117.083 E10.82196
G1 X131.005 Y117.976 E10.85199
G1 X130.794 Y118.855 E10.88205
G1 X130.507 Y119.711 E10.91208
G1 X130.145 Y120.538 E10.94211
G1 X129.711 Y121.33 E10.97215
G1 X129.209 Y122.081 E11.00219
G1 X128.643 Y122.784 E11.03221
G1 X128.016 Y123.435 E11.06227
G1 X127.335 Y124.027 E11.09228
G1 X126.604 Y124.557 E11.12231
G1 X125.828 Y125.02 E11.15237
G1 X125.015 Y125.413 E11.1824
G1 X124.17 Y125.733 E11.21246
G1 X123.301 Y125.976 E11.24247
G1 X122.413 Y126.141 E11.27251
G1 X121.277 Y126.237 E11.31043
G1 X120.67 Y126.25 E11.33062
G1 X119.361 Y126.249 E11.37416
G1 X118.663 Y126.239 E11.39738
G1 X118.09 Y126.215 E11.41645
G1 X116.211 Y126.073 E11.47912
G1 X113.692 Y125.933 E11.56304
G1 X111.156 Y125.864 E11.64741
G1 X108.622 Y125.866 E11.7317
G1 X106.057 Y125.941 E11.81704
G1 X103.502 Y126.089 E11.90217
G1 X101.943 Y126.213 E11.95418
G1 X101.477 Y126.237 E11.9697
G1 X100.87 Y126.25 E11.9899
G1 X99.561 Y126.249 E12.03343
G1 X98.863 Y126.239 E12.05665
G1 X97.961 Y126.186 E12.0867
G1 X97.068 Y126.054 E12.11673
G1 X96.19 Y125.843 E12.14676
G1 X95.334 Y125.555 E12.1768
G1 X94.507 Y125.193 E12.20683
G1 X93.715 Y124.758 E12.23688
G1 X92.964 Y124.256 E12.26693
G1 X92.261 Y123.689 E12.29696
G1 X91.611 Y123.062 E12.327
G1 X91.019 Y122.38 E12.35704
G1 X90.489 Y121.649 E12.38707
G1 X90.027 Y120.873 E12.41711
G1 X89.634 Y120.06 E12.44714
G1 X89.316 Y119.215 E12.47717
G1 X89.073 Y118.345 E12.50722
G1 X88.908 Y117.457 E12.53726
G1 X88.813 Y116.316 E12.57534
G1 X88.8 Y115.708 E12.59556
G1 X88.801 Y114.412 E12.63867
G1 X88.827 Y112.654 E12.69715
G1 X88.852 Y111.766 E12.72669
G1 X88.852 Y109.213 E12.81161
G1 X88.8 Y106.923 E12.88779
G1 X88.801 Y105.571 E12.93276
G1 X88.811 Y104.906 E12.95488
G1 X88.85 Y104.152 E12.97999
G1 X88.97 Y103.257 E13.01003
G1 X89.168 Y102.376 E13.04006
G1 X89.443 Y101.516 E13.07009
G1 X89.794 Y100.683 E13.10015
G1 X90.217 Y99.885 E13.13019
G1 X90.708 Y99.128 E13.16021
G1 X91.265 Y98.417 E13.19025
G1 X91.584 Y98.062 E13.20612
G1 X92.531 Y97.097 E13.25109
G1 X93.038 Y96.603 E13.27463
G1 F1500 E6.77463
;MESH:stapelbed_total.stl
G0 F6000 X99.424 Y104.385
G0 X100.6 Y106.648
;TYPE:WALL-INNER
G1 F1500 E13.27463
G1 F1200 X100.6 Y105.228 E13.32186
G1 X100.1 Y105.648 E13.34358
G1 X99.6 Y105.648 E13.36021
G1 X99.6 Y106.648 E13.39347
G1 X100.6 Y106.648 E13.42673
G0 F6000 X101 Y107.048
;TYPE:WALL-OUTER
G1 F1200 X101 Y106.148 E13.45667
G1 F1006.3 X100.923 Y105.143 E13.49664
G1 F869.6 X100.925 Y104.223 E13.53887
G1 F872.7 X100.375 Y104.223 E13.56402
G1 F869.6 X100.373 Y105.096 E13.60409
G1 F1006.3 X100.1 Y105.248 E13.61649
G1 F1200 X99.2 Y105.248 E13.64642
G1 X99.2 Y107.048 E13.70629
G1 X101 Y107.048 E13.76616
G0 F6000 X100.72 Y106.77
G0 X100.5 Y106.148
G0 X100.185 Y106.148
;TYPE:SKIN
G1 F705.9 X100.143 Y106.222 E13.77097
G1 X100.058 Y106.222 E13.77577
G1 X100.015 Y106.148 E13.78061
G1 X100.057 Y106.074 E13.78542
G1 X100.142 Y106.074 E13.79023
G1 X100.185 Y106.148 E13.79507
G1 F1500 E7.29507
G0 F6000 X100.5 Y106.148
G0 X100.77 Y104.57
G0 X101.865 Y104.57
G0 X103.835 Y104.57
G0 X105.325 Y104.773
;TYPE:WALL-OUTER
G1 F1500 E13.79507
G1 F872.7 X104.775 Y104.773 E13.82022
G1 X104.775 Y104.223 E13.84538
G1 X105.325 Y104.223 E13.87053
G1 X105.325 Y104.773 E13.89568
G1 F1500 E7.39568
G0 F6000 X105.12 Y104.57
G0 X104.924 Y105.715
G0 X100.776 Y113.185
G0 X100.6 Y115.448
;TYPE:WALL-INNER
G1 F1500 E13.89568
G1 F1200 X100.6 Y114.448 E13.92894
G1 X99.6 Y114.448 E13.9622
G1 X99.6 Y115.448 E13.99546
G1 X100.6 Y115.448 E14.02872
G0 F6000 X101 Y115.848
;TYPE:WALL-OUTER
G1 F1200 X101 Y114.048 E14.08859
G1 X99.2 Y114.048 E14.14846
G1 X99.2 Y115.848 E14.20833
G1 X101 Y115.848 E14.2682
G0 F6000 X100.72 Y115.57
G0 X100.5 Y114.948
G0 X100.185 Y114.948
;TYPE:SKIN
G1 F705.9 X100.143 Y115.022 E14.27301
G1 X100.058 Y115.022 E14.27781
G1 X100.015 Y114.948 E14.28265
G1 X100.057 Y114.874 E14.28746
G1 X100.142 Y114.874 E14.29227
G1 X100.185 Y114.948 E14.29711
G1 F1500 E7.79711
G0 F6000 X100.5 Y114.948
G0 X100.77 Y115.448
G0 X101.865 Y115.448
G0 X118.135 Y115.448
G0 X119.4 Y115.448
;TYPE:WALL-INNER
G1 F1500 E14.29711
G1 F1200 X120.4 Y115.448 E14.33037
G1 X120.4 Y114.448 E14.36363
G1 X119.4 Y114.448 E14.39689
G1 X119.4 Y115.448 E14.43015
G0 F6000 X119 Y115.848
;TYPE:WALL-OUTER
G1 F1200 X120.8 Y115.848 E14.49002
G1 X120.8 Y114.048 E14.54989
G1 X119 Y114.048 E14.60975
G1 X119 Y115.848 E14.66962
G0 F6000 X119.28 Y115.57
G0 X120.228 Y115.276
G0 X120.3 Y114.948
G0 X119.985 Y114.948
;TYPE:SKIN
G1 F705.9 X119.943 Y115.022 E14.67443
G1 X119.858 Y115.022 E14.67924
G1 X119.815 Y114.948 E14.68408
G1 X119.857 Y114.874 E14.68889
G1 X119.942 Y114.874 E14.6937
G1 X119.985 Y114.948 E14.69853
G1 F1500 E8.19853
G0 F6000 X120.3 Y114.948
G0 X120.235 Y114.653
G0 X119.4 Y114.28
G0 X119.4 Y113.185
G0 X119.4 Y107.915
G0 X119.4 Y106.648
;TYPE:WALL-INNER
G1 F1500 E14.69853
G1 F1200 X120.4 Y106.648 E14.73179
G1 X120.4 Y105.648 E14.76505
G1 X119.4 Y105.648 E14.79831
G1 X119.4 Y106.648 E14.83158
G0 F6000 X119 Y107.048
;TYPE:WALL-OUTER
G1 F1200 X120.8 Y107.048 E14.89144
G1 X120.8 Y105.248 E14.95131
G1 X119 Y105.248 E15.01118
G1 X119 Y107.048 E15.07105
G0 F6000 X119.28 Y106.77
G0 X120.228 Y106.476
G0 X120.3 Y106.148
G0 X119.985 Y106.148
;TYPE:SKIN
G1 F705.9 X119.943 Y106.222 E15.07586
G1 X119.858 Y106.222 E15.08067
G1 X119.815 Y106.148 E15.0855
G1 X119.857 Y106.074 E15.09032
G1 X119.942 Y106.074 E15.09512
G1 X119.985 Y106.148 E15.09996
M104 S200
G1 F1500 E8.59996
;MESH:NONMESH
G0 F300 X119.985 Y106.148 Z0.4
G0 F6000 X120.3 Y106.148
G0 X120.235 Y105.853
G0 X119.224 Y105.474
G0 X118.135 Y105.474
G0 X93.038 Y96.603
;TIME_ELAPSED:34.221876
;LAYER:1
M106 S85
;TYPE:SKIRT
G1 F1500 E15.09996
G1 F1200 X93.733 Y95.995 E15.13067
G1 X94.463 Y95.463 E15.16072
G1 X95.236 Y94.997 E15.19074
G1 X96.048 Y94.601 E15.22079
G1 X96.892 Y94.279 E15.25083
G1 X98.11 Y93.957 E15.29273
G1 X99.002 Y93.819 E15.32275
G1 X99.823 Y93.763 E15.35012
G1 X100.454 Y93.75 E15.37112
G1 X101.296 Y93.761 E15.39912
G1 X103.913 Y93.761 E15.48616
G1 X104.893 Y93.75 E15.51876
G1 X106.097 Y93.773 E15.55881
G1 X106.906 Y93.843 E15.58582
G1 X107.641 Y93.937 E15.61047
G1 X108.936 Y94.122 E15.65398
G1 X111.419 Y94.404 E15.73709
G1 X113.989 Y94.624 E15.82288
G1 X116.485 Y94.767 E15.90604
G1 X119.075 Y94.841 E15.99222
G1 X121.141 Y94.861 E16.06093
G1 X122.043 Y94.914 E16.09099
G1 X122.936 Y95.047 E16.12102
G1 X123.814 Y95.258 E16.15105
G1 X124.67 Y95.547 E16.1811
G1 X125.497 Y95.909 E16.21113
G1 X126.289 Y96.344 E16.24118
G1 X127.039 Y96.846 E16.2712
G1 X127.742 Y97.414 E16.30126
G1 X128.392 Y98.041 E16.33129
G1 X128.984 Y98.723 E16.36133
G1 X129.513 Y99.455 E16.39137
G1 X129.975 Y100.23 E16.42138
G1 X130.367 Y101.044 E16.45143
G1 X130.686 Y101.889 E16.48147
G1 X130.928 Y102.759 E16.5115
G1 X131.093 Y103.647 E16.54155
G1 X131.187 Y104.773 E16.57913
G1 X131.2 Y105.38 E16.59932
G1 X131.199 Y106.667 E16.64213
G1 X131.173 Y108.446 E16.7013
G1 X131.148 Y109.334 E16.73085
