;FLAVOR:Marlin
;TIME:5799
;Filament used: 3.17777m
;Layer height: 0.2
;MINX:79
;MINY:88
;MINZ:0.2
;MAXX:141
;MAXY:132
;MAXZ:40
;TARGET_MACHINE.NAME:Creality Ender-3 Pro
;Generated with Cura_SteamEngine 5.11.0
; Ender 3 Custom Start G-code
G92 E0 ; Reset Extruder
G28 ; Home all axes
G1 Z5.0 F3000 ; Move Z Axis up a bit during heating to not damage bed
M104 S175 ; Start heating up the nozzle most of the way
M190 S60 ; Start heating the bed, wait until target temperature reached
M109 S200 ; Finish heating the nozzle
G1 Z2.0 F3000 ; Move Z Axis up little to prevent scratching of Heat Bed
G1 X0.1 Y20 Z0.3 F5000.0 ; Move to start position
G1 X0.1 Y200.0 Z0.3 F1500.0 E15 ; Draw the first line
G1 X0.4 Y200.0 Z0.3 F5000.0 ; Move to side a little
G1 X0.4 Y20 Z0.3 F1500.0 E30 ; Draw the second line
G92 E0 ; Reset Extruder
G1 Z2.0 F3000 ; Move Z Axis up little to prevent scratching of Heat Bed
G1 X5 Y20 Z0.3 F5000.0 ; Move over to prevent blob squish
M82 ;absolute extrusion mode
G92 E0
G92 E0
G1 F1500 E-6.5
;LAYER_COUNT:200
;LAYER:0
M107
G0 F6000 X84.195 Y91.263 Z0.2
;TYPE:SKIRT
G1 F1500 E0
G1 F1200 X85.245 Y90.334 E0.04663
G1 X86.076 Y89.744 E0.08053
G1 X86.856 Y89.289 E0.11056
G1 X87.801 Y88.845 E0.14529
G1 X88.649 Y88.534 E0.17533
G1 X89.888 Y88.217 E0.21787
G1 X90.848 Y88.071 E0.25016
G1 X91.706 Y88.013 E0.27877
G1 X92.33 Y88 E0.29952
G1 X93.453 Y88.001 E0.33688
G1 X95.735 Y88.04 E0.41279
G1 X98.251 Y88.044 E0.49647
G1 X100.34 Y88 E0.56596
G1 X102.178 Y88.013 E0.6271
G1 X103.006 Y88.058 E0.65468
G1 X104.016 Y88.197 E0.68859
G1 X104.992 Y88.38 E0.72162
G1 X105.992 Y88.58 E0.75553
G1 X108.428 Y88.998 E0.83774
G1 X110.946 Y89.357 E0.92234
G1 X113.442 Y89.639 E1.00588
G1 X115.944 Y89.854 E1.08941
G1 X118.459 Y89.995 E1.17319
G1 X120.993 Y90.067 E1.2575
G1 X123.506 Y90.067 E1.34108
G1 X126.337 Y90 E1.43527
G1 X129.451 Y90.001 E1.53884
G1 X130.184 Y90.013 E1.56322
G1 X131.156 Y90.072 E1.59561
G1 X132.119 Y90.218 E1.62801
G1 X133.066 Y90.449 E1.66043
G1 X133.954 Y90.749 E1.6916
G1 X134.846 Y91.139 E1.72398
G1 X135.729 Y91.626 E1.75752
G1 X136.48 Y92.128 E1.78757
G1 X137.295 Y92.786 E1.82241
G1 X137.993 Y93.464 E1.85477
G1 X138.629 Y94.201 E1.88715
G1 X139.199 Y94.991 E1.91955
G1 X139.661 Y95.767 E1.94959
G1 X140.115 Y96.709 E1.98437
G1 X140.444 Y97.587 E2.01555
G1 X140.713 Y98.559 E2.0491
G1 X140.89 Y99.525 E2.08176
G1 X140.985 Y100.655 E2.11948
G1 X141 Y101.33 E2.14193
G1 X140.999 Y104.429 E2.24501
G1 X140.981 Y105.471 E2.27967
G1 X140.891 Y107.351 E2.34227
G1 X140.822 Y109.851 E2.42545
G1 X140.824 Y112.33 E2.5079
G1 X140.986 Y116.671 E2.65239
G1 X141 Y117.33 E2.67431
G1 X140.999 Y120.416 E2.77695
G1 X140.987 Y121.177 E2.80227
G1 X140.929 Y122.15 E2.83469
G1 X140.783 Y123.113 E2.86708
G1 X140.552 Y124.06 E2.8995
G1 X140.239 Y124.982 E2.93189
G1 X139.847 Y125.873 E2.96426
G1 X139.395 Y126.695 E2.99546
G1 X138.833 Y127.533 E3.02902
G1 X138.243 Y128.263 E3.06024
G1 X137.54 Y128.989 E3.09385
G1 X136.804 Y129.625 E3.12621
G1 X136.014 Y130.195 E3.15861
G1 X135.238 Y130.658 E3.18866
G1 X134.298 Y131.111 E3.22337
G1 X133.385 Y131.453 E3.25579
G1 X132.447 Y131.712 E3.28816
G1 X131.481 Y131.889 E3.32082
G1 X130.345 Y131.985 E3.35874
G1 X129.67 Y132 E3.3812
G1 X126.545 Y131.999 E3.48514
G1 X125.487 Y131.977 E3.52033
G1 X124.49 Y131.887 E3.55363
G1 X121.318 Y131.428 E3.66023
G1 X118.8 Y131.142 E3.74452
G1 X116.311 Y130.928 E3.82761
G1 X113.796 Y130.787 E3.91139
G1 X111.262 Y130.715 E3.9957
G1 X108.774 Y130.715 E4.07845
G1 X106.23 Y130.787 E4.1631
G1 X103.731 Y130.928 E4.24635
G1 X101.218 Y131.14 E4.33023
G1 X98.732 Y131.424 E4.41345
G1 X95.504 Y131.885 E4.52191
G1 X94.345 Y131.985 E4.5606
G1 X93.67 Y132 E4.58305
G1 X90.549 Y131.999 E4.68686
G1 X89.816 Y131.987 E4.71124
G1 X88.844 Y131.928 E4.74363
G1 X87.881 Y131.782 E4.77602
G1 X86.934 Y131.551 E4.80845
G1 X86.046 Y131.251 E4.83962
G1 X85.154 Y130.861 E4.872
G1 X84.271 Y130.374 E4.90554
G1 X83.52 Y129.872 E4.93558
G1 X82.705 Y129.214 E4.97042
G1 X82.007 Y128.536 E5.00279
G1 X81.371 Y127.799 E5.03517
G1 X80.801 Y127.009 E5.06757
G1 X80.339 Y126.233 E5.09761
G1 X79.885 Y125.291 E5.13239
G1 X79.556 Y124.413 E5.16357
G1 X79.287 Y123.44 E5.19715
G1 X79.11 Y122.473 E5.22984
G1 X79.014 Y121.308 E5.26872
G1 X79 Y120.658 E5.29035
G1 X79.001 Y117.549 E5.39375
G1 X79.019 Y116.528 E5.42772
G1 X79.109 Y114.649 E5.49028
G1 X79.178 Y112.137 E5.57386
G1 X79.176 Y109.67 E5.65592
G1 X79.014 Y105.329 E5.8004
G1 X79 Y104.67 E5.82232
G1 X79.001 Y101.509 E5.92746
G1 X79.013 Y100.813 E5.95061
G1 X79.058 Y99.995 E5.97786
G1 X79.19 Y99.031 E6.01022
G1 X79.406 Y98.082 E6.04259
G1 X79.705 Y97.156 E6.07496
G1 X80.056 Y96.323 E6.10502
G1 X80.546 Y95.399 E6.13981
G1 X81.078 Y94.584 E6.17218
G1 X81.635 Y93.873 E6.20222
G1 X82.027 Y93.436 E6.22175
G1 X82.726 Y92.723 E6.25496
G1 X84.195 Y91.263 E6.32384
G0 F6000 X84.461 Y91.562
G1 F1200 X85.477 Y90.66 E6.36903
G1 X86.278 Y90.09 E6.40173
G1 X87.058 Y89.635 E6.43176
G1 X87.939 Y89.221 E6.46414
G1 X88.787 Y88.91 E6.49418
G1 X89.949 Y88.612 E6.53408
G1 X90.875 Y88.47 E6.56524
G1 X91.714 Y88.413 E6.59321
G1 X92.33 Y88.4 E6.6137
G1 X93.446 Y88.401 E6.65082
G1 X95.728 Y88.44 E6.72673
G1 X98.258 Y88.444 E6.81088
G1 X100.337 Y88.4 E6.88004
G1 X102.157 Y88.412 E6.94057
G1 X102.952 Y88.454 E6.96705
G1 X103.942 Y88.59 E7.00029
G1 X104.918 Y88.773 E7.03332
G1 X105.917 Y88.973 E7.0672
G1 X108.372 Y89.394 E7.15005
G1 X110.89 Y89.753 E7.23465
G1 X113.408 Y90.038 E7.31893
G1 X115.91 Y90.252 E7.40245
G1 X118.448 Y90.395 E7.487
G1 X120.982 Y90.467 E7.57131
G1 X123.515 Y90.467 E7.65556
G1 X126.337 Y90.4 E7.74945
G1 X129.445 Y90.401 E7.85282
G1 X130.16 Y90.412 E7.8766
G1 X131.097 Y90.468 E7.90782
G1 X132.025 Y90.607 E7.93903
G1 X132.938 Y90.828 E7.97028
G1 X133.794 Y91.116 E8.00032
G1 X134.686 Y91.506 E8.0327
G1 X135.507 Y91.959 E8.06388
G1 X136.258 Y92.461 E8.09393
G1 X137.017 Y93.073 E8.12636
G1 X137.691 Y93.726 E8.15757
G1 X138.305 Y94.435 E8.18877
G1 X138.855 Y95.196 E8.21999
G1 X139.317 Y95.972 E8.25003
G1 X139.74 Y96.849 E8.28242
G1 X140.069 Y97.727 E8.3136
G1 X140.32 Y98.632 E8.34484
G1 X140.491 Y99.559 E8.37619
G1 X140.586 Y100.689 E8.41391
G1 X140.6 Y101.33 E8.43523
G1 X140.599 Y104.422 E8.53807
G1 X140.581 Y105.452 E8.57234
G1 X140.491 Y107.332 E8.63494
G1 X140.422 Y109.84 E8.71839
G1 X140.424 Y112.345 E8.8017
G1 X140.586 Y116.68 E8.94599
G1 X140.6 Y117.33 E8.96761
G1 X140.599 Y120.41 E9.07005
G1 X140.588 Y121.154 E9.0948
G1 X140.533 Y122.091 E9.12602
G1 X140.394 Y123.019 E9.15723
G1 X140.173 Y123.932 E9.18847
G1 X139.873 Y124.821 E9.21968
G1 X139.496 Y125.68 E9.25088
G1 X139.044 Y126.502 E9.28208
G1 X138.521 Y127.282 E9.31331
G1 X137.955 Y127.985 E9.34333
G1 X137.278 Y128.687 E9.37577
G1 X136.57 Y129.301 E9.40694
G1 X135.809 Y129.851 E9.43817
G1 X135.033 Y130.314 E9.46822
G1 X134.157 Y130.737 E9.50058
G1 X133.278 Y131.068 E9.53182
G1 X132.374 Y131.319 E9.56302
G1 X131.447 Y131.49 E9.59437
G1 X130.311 Y131.586 E9.63229
G1 X129.67 Y131.6 E9.65362
G1 X126.553 Y131.599 E9.75729
G1 X125.495 Y131.577 E9.79249
G1 X124.547 Y131.491 E9.82415
G1 X121.375 Y131.032 E9.93075
G1 X118.834 Y130.743 E10.01581
G1 X116.345 Y130.53 E10.09889
G1 X113.807 Y130.387 E10.18344
G1 X111.273 Y130.315 E10.26776
G1 X108.763 Y130.315 E10.35124
G1 X106.219 Y130.387 E10.43589
G1 X103.697 Y130.529 E10.5199
G1 X101.184 Y130.742 E10.60378
G1 X98.675 Y131.028 E10.68777
G1 X95.47 Y131.486 E10.79546
G1 X94.311 Y131.586 E10.83415
G1 X93.67 Y131.6 E10.85547
G1 X90.555 Y131.599 E10.95908
G1 X89.84 Y131.588 E10.98286
G1 X88.903 Y131.532 E11.01408
G1 X87.975 Y131.393 E11.04529
G1 X87.062 Y131.172 E11.07653
G1 X86.206 Y130.884 E11.10657
G1 X85.314 Y130.494 E11.13895
G1 X84.493 Y130.041 E11.17014
G1 X83.742 Y129.539 E11.20019
G1 X82.983 Y128.927 E11.23261
G1 X82.309 Y128.274 E11.26383
G1 X81.695 Y127.565 E11.29502
G1 X81.145 Y126.804 E11.32625
G1 X80.683 Y126.028 E11.35629
G1 X80.26 Y125.151 E11.38867
G1 X79.931 Y124.273 E11.41986
G1 X79.68 Y123.368 E11.4511
G1 X79.509 Y122.44 E11.48248
G1 X79.413 Y121.275 E11.52136
G1 X79.4 Y120.658 E11.54189
G1 X79.401 Y117.556 E11.64506
G1 X79.419 Y116.547 E11.67862
G1 X79.509 Y114.668 E11.74119
G1 X79.578 Y112.148 E11.82504
G1 X79.576 Y109.655 E11.90796
G1 X79.414 Y105.32 E12.05224
G1 X79.4 Y104.67 E12.07386
G1 X79.401 Y101.515 E12.1788
G1 X79.412 Y100.834 E12.20145
G1 X79.454 Y100.049 E12.2276
G1 X79.58 Y99.119 E12.25881
G1 X79.787 Y98.204 E12.29002
G1 X80.074 Y97.311 E12.32121
G1 X80.425 Y96.478 E12.35128
G1 X80.881 Y95.617 E12.38368
G1 X81.393 Y94.831 E12.41488
G1 X81.95 Y94.12 E12.44492
G1 X82.313 Y93.716 E12.46299
G1 X83.008 Y93.007 E12.49601
G1 X84.461 Y91.562 E12.56417
G0 F6000 X84.727 Y91.861
G1 F1200 X85.743 Y90.959 E12.60935
G1 X86.48 Y90.436 E12.63941
G1 X87.26 Y89.981 E12.66945
G1 X88.077 Y89.597 E12.69947
G1 X88.925 Y89.286 E12.72951
G1 X90.01 Y89.007 E12.76677
G1 X90.902 Y88.869 E12.7968
G1 X91.723 Y88.813 E12.82417
G1 X92.33 Y88.8 E12.84436
G1 X93.439 Y88.801 E12.88124
G1 X95.721 Y88.84 E12.95716
G1 X98.266 Y88.844 E13.0418
G1 X100.335 Y88.8 E13.11063
G1 X102.137 Y88.811 E13.17057
G1 X102.898 Y88.85 E13.19591
G1 X103.868 Y88.983 E13.22848
G1 X104.839 Y89.165 E13.26134
G1 X105.842 Y89.366 E13.29536
G1 X108.316 Y89.79 E13.37884
G1 X110.834 Y90.149 E13.46344
G1 X113.374 Y90.437 E13.54846
G1 X115.876 Y90.65 E13.63198
G1 X118.437 Y90.795 E13.7173
G1 X120.971 Y90.867 E13.80161
G1 X123.525 Y90.867 E13.88656
G1 X126.337 Y90.8 E13.98011
G1 X129.439 Y90.801 E14.08328
G1 X130.137 Y90.811 E14.1065
G1 X131.039 Y90.864 E14.13655
G1 X131.932 Y90.996 E14.16658
G1 X132.81 Y91.207 E14.19661
G1 X133.666 Y91.495 E14.22665
G1 X134.493 Y91.857 E14.25668
G1 X135.285 Y92.292 E14.28673
G1 X136.036 Y92.794 E14.31678
G1 X136.739 Y93.361 E14.34682
G1 X137.389 Y93.988 E14.37685
G1 X137.981 Y94.67 E14.40689
G1 X138.511 Y95.401 E14.43692
G1 X138.973 Y96.177 E14.46696
G1 X139.366 Y96.99 E14.49699
G1 X139.684 Y97.835 E14.52702
G1 X139.927 Y98.705 E14.55707
G1 X140.092 Y99.593 E14.58711
G1 X140.187 Y100.723 E14.62482
G1 X140.2 Y101.33 E14.64502
G1 X140.199 Y104.415 E14.74762
G1 X140.181 Y105.433 E14.78149
G1 X140.091 Y107.313 E14.84409
G1 X140.022 Y109.829 E14.9278
G1 X140.024 Y112.36 E15.01198
G1 X140.186 Y116.689 E15.15607
G1 X140.2 Y117.33 E15.17739
G1 X140.199 Y120.404 E15.27963
G1 X140.189 Y121.131 E15.30382
G1 X140.137 Y122.033 E15.33387
G1 X140.005 Y122.926 E15.36389
G1 X139.794 Y123.805 E15.39396
G1 X139.507 Y124.661 E15.42399
G1 X139.145 Y125.488 E15.45401
G1 X138.711 Y126.28 E15.48405
G1 X138.209 Y127.031 E15.51409
G1 X137.643 Y127.734 E15.54411
G1 X137.016 Y128.385 E15.57418
G1 X136.335 Y128.977 E15.60419
G1 X135.604 Y129.507 E15.63422
G1 X134.828 Y129.97 E15.66427
G1 X134.015 Y130.363 E15.69431
G1 X133.17 Y130.683 E15.72436
G1 X132.301 Y130.926 E15.75437
G1 X131.413 Y131.091 E15.78441
G1 X130.277 Y131.187 E15.82233
G1 X129.67 Y131.2 E15.84252
G1 X126.561 Y131.199 E15.94593
G1 X125.503 Y131.177 E15.98113
G1 X124.604 Y131.095 E16.01115
G1 X121.432 Y130.636 E16.11775
G1 X118.868 Y130.344 E16.20358
G1 X116.379 Y130.132 E16.28667
G1 X113.818 Y129.987 E16.37198
G1 X111.284 Y129.915 E16.4563
G1 X108.752 Y129.915 E16.54051
G1 X106.208 Y129.987 E16.62516
G1 X103.663 Y130.13 E16.70994
G1 X101.15 Y130.344 E16.79382
G1 X98.618 Y130.632 E16.87858
G1 X95.436 Y131.087 E16.98549
G1 X94.277 Y131.187 E17.02418
G1 X93.67 Y131.2 E17.04438
G1 X90.561 Y131.199 E17.14778
G1 X89.863 Y131.189 E17.171
G1 X88.961 Y131.136 E17.20105
G1 X88.068 Y131.004 E17.23108
G1 X87.19 Y130.793 E17.26111
G1 X86.334 Y130.505 E17.29115
G1 X85.507 Y130.143 E17.32118
G1 X84.715 Y129.708 E17.35123
G1 X83.964 Y129.206 E17.38128
G1 X83.261 Y128.639 E17.41131
G1 X82.611 Y128.012 E17.44135
G1 X82.019 Y127.33 E17.47139
G1 X81.489 Y126.599 E17.50142
G1 X81.027 Y125.823 E17.53146
G1 X80.634 Y125.01 E17.56149
G1 X80.316 Y124.165 E17.59152
G1 X80.073 Y123.295 E17.62157
G1 X79.908 Y122.407 E17.65161
G1 X79.813 Y121.266 E17.68969
G1 X79.8 Y120.658 E17.70991
G1 X79.801 Y117.563 E17.81285
G1 X79.819 Y116.566 E17.84602
G1 X79.909 Y114.687 E17.90859
G1 X79.978 Y112.159 E17.9927
G1 X79.976 Y109.64 E18.07648
G1 X79.814 Y105.311 E18.22057
G1 X79.8 Y104.67 E18.24189
G1 X79.801 Y101.521 E18.34663
G1 X79.811 Y100.855 E18.36878
G1 X79.85 Y100.102 E18.39386
G1 X79.97 Y99.207 E18.42389
G1 X80.168 Y98.326 E18.45393
G1 X80.443 Y97.466 E18.48396
G1 X80.794 Y96.633 E18.51402
G1 X81.217 Y95.835 E18.54406
G1 X81.708 Y95.078 E18.57407
G1 X82.265 Y94.367 E18.60411
G1 X82.598 Y93.996 E18.62069
G1 X83.29 Y93.291 E18.65355
G1 X84.727 Y91.861 E18.72098
G1 F1500 E12.22098
;MESH:stapelbed_total.stl
G0 F6000 X90.424 Y100.335
G0 X93.4 Y104.4
;TYPE:WALL-INNER
G1 F1500 E18.72098
G1 F1200 X93.4 Y99.6 E18.88063
G1 X92.6 Y99.6 E18.90724
G1 X92.6 Y101.085 E18.95663
G1 X92.482 Y101.36 E18.96658
G1 X92.232 Y101.554 E18.9771
G1 X92 Y101.6 E18.98497
G1 X90.6 Y101.6 E19.03154
G1 X90.6 Y104.4 E19.12466
G1 X93.4 Y104.4 E19.21779
G0 F6000 X93.8 Y104.8
;TYPE:WALL-OUTER
G1 F1200 X93.8 Y99.2 E19.40405
G1 X92.2 Y99.2 E19.45727
G1 X92.198 Y101.035 E19.5183
G1 X92.161 Y101.12 E19.52138
G1 X92.059 Y101.2 E19.52569
G1 X90.2 Y101.2 E19.58752
G1 X90.2 Y104.8 E19.70726
G1 X93.8 Y104.8 E19.827
G0 F6000 X93.52 Y104.52
G0 X93.228 Y99.772
G0 X92.772 Y99.772
G0 X93 Y100
;TYPE:SKIN
G1 F997.9 X92.999 Y101.145 E19.87279
G0 F6000 X93.3 Y101.145
G0 X93.3 Y104.04
G0 X93.04 Y104.04
G1 F1200 X90.96 Y104.04 E19.94197
G1 X90.96 Y101.96 E20.01115
G1 X91.992 Y101.96 E20.04548
G1 X92.375 Y101.887 E20.05845
G1 F1142.9 X92.763 Y101.586 E20.07559
G1 F1039 X92.999 Y101.145 E20.09481
G1 F1088.4 X93.04 Y101.584 E20.11098
G1 F1200 X93.04 Y104.04 E20.19266
G0 F6000 X93.3 Y104.04
G0 X90.772 Y104.228
G0 X90.7 Y103.605
G0 X91.16 Y103.605
G1 F1200 X91.395 Y103.84 E20.20372
G0 F6000 X91.961 Y103.84
G1 F1200 X91.16 Y103.04 E20.24137
G0 F6000 X91.16 Y102.474
G1 F1200 X92.526 Y103.84 E20.30562
G0 F6000 X92.84 Y103.588
G1 F1200 X91.412 Y102.16 E20.37279
G0 F6000 X91.978 Y102.16
G1 F1200 X92.84 Y103.023 E20.41336
G0 F6000 X92.84 Y102.457
G1 F1200 X92.442 Y102.059 E20.43208
G0 F6000 X92.777 Y101.828
G1 F1200 X92.84 Y101.891 E20.43505
G1 F1500 E13.93505
G0 F6000 X93.3 Y101.891
G0 X93.57 Y100.4
G0 X94.665 Y100.4
G0 X99.335 Y100.4
G0 X101.4 Y100.4
;TYPE:WALL-INNER
G1 F1500 E20.43505
G1 F1200 X101.4 Y99.6 E20.46165
G1 X100.6 Y99.6 E20.48826
G1 X100.6 Y100.4 E20.51487
G1 X101.4 Y100.4 E20.54148
G0 F6000 X101.8 Y100.8
;TYPE:WALL-OUTER
G1 F1200 X101.8 Y99.2 E20.59469
G1 X100.2 Y99.2 E20.64791
G1 X100.2 Y100.8 E20.70113
G1 X101.8 Y100.8 E20.75434
G1 F1500 E14.25434
G0 F6000 X101.52 Y100.52
G0 X100.424 Y100.576
G0 X100.424 Y101.665
G0 X93.576 Y116.335
G0 X93.4 Y120.4
;TYPE:WALL-INNER
G1 F1500 E20.75434
G1 F1200 X93.4 Y117.6 E20.84747
G1 X90.6 Y117.6 E20.9406
G1 X90.6 Y120.4 E21.03373
G1 X93.4 Y120.4 E21.12686
G0 F6000 X93.8 Y120.8
;TYPE:WALL-OUTER
G1 F1200 X93.8 Y117.2 E21.24659
G1 X90.2 Y117.2 E21.36633
G1 X90.2 Y120.8 E21.48607
G1 X93.8 Y120.8 E21.6058
G0 F6000 X93.52 Y120.52
G0 X93.3 Y120.04
G0 X93.04 Y120.04
;TYPE:SKIN
G1 F1200 X90.96 Y120.04 E21.67498
G1 X90.96 Y117.96 E21.74416
G1 X93.04 Y117.96 E21.81335
G1 X93.04 Y120.04 E21.88253
G0 F6000 X93.3 Y120.04
G0 X93.228 Y117.772
G0 X92.705 Y117.7
G0 X92.705 Y118.16
G1 F1200 X92.84 Y118.296 E21.8889
G0 F6000 X92.84 Y118.862
G1 F1200 X92.139 Y118.16 E21.9219
G0 F6000 X91.573 Y118.16
G1 F1200 X92.84 Y119.428 E21.98152
G0 F6000 X92.687 Y119.84
G1 F1200 X91.16 Y118.313 E22.05334
G0 F6000 X91.16 Y118.879
G1 F1200 X92.121 Y119.84 E22.09854
G0 F6000 X91.555 Y119.84
G1 F1200 X91.16 Y119.444 E22.11715
G1 F1500 E15.61715
G0 F6000 X90.7 Y119.444
G0 X90.772 Y120.228
G0 X93.57 Y120.4
G0 X94.665 Y120.4
G0 X125.335 Y120.4
G0 X126.6 Y120.4
;TYPE:WALL-INNER
G1 F1500 E22.11715
G1 F1200 X129.4 Y120.4 E22.21028
G1 X129.4 Y117.6 E22.3034
G1 X126.6 Y117.6 E22.39653
G1 X126.6 Y120.4 E22.48966
G0 F6000 X126.2 Y120.8
;TYPE:WALL-OUTER
G1 F1200 X129.8 Y120.8 E22.6094
G1 X129.8 Y117.2 E22.72913
G1 X126.2 Y117.2 E22.84887
G1 X126.2 Y120.8 E22.96861
G0 F6000 X126.48 Y120.52
G0 X126.7 Y120.04
G0 X126.96 Y120.04
;TYPE:SKIN
G1 F1200 X126.96 Y117.96 E23.03779
G1 X129.04 Y117.96 E23.10697
