;TIME:2852.96
;Filament used:1.57433m
;Layer height:0.200
; HEADER_BLOCK_START
; generated by Creality_Print V7.0.0.4127 on 2026-03-01 at 16:46:28
; total layer number: 468
; filament_density: 1.24,1.24,1.24,1.24
; filament_diameter: 1.75,1.75,1.75,1.75
; max_z_height: 30.44
; creality_uuid: bc574dd0-0980-451a-aea5-4f51cb8e393e
; HEADER_BLOCK_END

; MINX = 45.78
; MINY = 79.83
; MINZ = 0.00
; MAXX = 173.25
; MAXY = 161.43
; MAXZ = 30.39

; multicolor_method = 0 
; THUMBNAIL_BLOCK_START

;
; THUMBNAIL_BLOCK_END

; THUMBNAIL_BLOCK_START

;
; THUMBNAIL_BLOCK_END

; external perimeters extrusion width = 0.42mm
; perimeters extrusion width = 0.45mm
; infill extrusion width = 0.45mm
; solid infill extrusion width = 0.42mm
; top infill extrusion width = 0.42mm
; support material extrusion width = 0.38mm
; first layer extrusion width = 0.46mm

; external perimeters extrusion width = 0.42mm
; perimeters extrusion width = 0.45mm
; infill extrusion width = 0.45mm
; solid infill extrusion width = 0.42mm
; top infill extrusion width = 0.42mm
; support material extrusion width = 0.38mm
; first layer extrusion width = 0.46mm

; EXECUTABLE_BLOCK_START
M73 P0 R47
M201 X5000 Y5000 Z500 E5000
M203 X500 Y500 Z30 E100
M204 P5000 R2500 T5000 ; sets acceleration (P, T) and retract acceleration (R), mm/sec^2
M205 X10.00 Y10.00 Z0.40 E5.00 ; sets the jerk limits, mm/sec
; max_print_temp = 60,190
;TYPE:Custom
M220 S100 ;Reset Feedrate 
M221 S100 ;Reset Flowrate 
 
M140 S60 ;Set final bed temp 
G28 ;Home 
 
G92 E0 ;Reset Extruder 
G1 Z2.0 F3000 ;Move Z Axis up 
M104 S190 ;Set final nozzle temp 
G1 X-2.1 Y20 Z0.28 F5000.0 ;Move to start position 
M190 S60 ;Wait for bed temp to stabilize 
M109 S190 ;Wait for nozzle temp to stabilize 
G1 X-2.1 Y145.0 Z0.28 F1500.0 E15 ;Draw the first line 
G1 X-2.4 Y145.0 Z0.28 F5000.0 ;Move to side a little 
G1 X-2.4 Y20 Z0.28 F1500.0 E30 ;Draw the second line 
G92 E0  ;Reset Extruder 
G1 E-1.0000 F1800 ;Retract a bit 
G1 Z2.0 F3000 ;Move Z Axis up 
G1 E0.0000 F1800
G90
G21
M83 ; use relative distances for extrusion
;filament start gcode
; MANUAL_TOOL_CHANGE T0
G1 E-1.2 F2400
M106 S0
;LAYER_CHANGE
;:0.2
;HEIGHT:0.2
;BEFORE_LAYER_CHANGE
;0.2
G92 E0

;_SET_FAN_SPEED_CHANGING_LAYER
M204 P500
M205 X8 Y8
; OBJECT_ID: 418
; printing object LeonardoDaVinci.stl id:0 copy 0
M204 T500
G1 X74.988 Y152.227 Z.2 F9000
G1 E1.2 F1800
;TYPE:Inner wall
;WIDTH:0.459999
G1 X74.988 Y160.633 E.27694
G1 X46.582 Y160.633 E.93587
G1 X46.582 Y152.227 E.27694
G1 X74.948 Y152.227 E.93455
G1 X75.405 Y151.81 F9000
;TYPE:Outer wall
G1 F1800
G1 X75.405 Y161.05 E.30442
G1 X46.165 Y161.05 E.96335
G1 X46.165 Y151.81 E.30442
G1 X75.365 Y151.81 E.96203
G1 E-1.2 F2400
;WIPE_START
G1 F1800
G1 X75.373 Y153.81
;WIPE_END
G1 X74.863 Y153.205 Z.4 F9000
G1 Z.2
G1 E1.2 F1800
;TYPE:Bottom surface
;WIDTH:0.464803
G1 F4800
G1 X74.197 Y152.54 E.03137
G1 X73.6 Y152.54 E.01988
G1 X74.675 Y153.614 E.05064
G1 X74.675 Y154.211 E.01988
G1 X73.004 Y152.54 E.07876
G1 X72.407 Y152.54 E.01988
G1 X74.675 Y154.808 E.10688
G1 X74.675 Y155.404 E.01988
G1 X71.81 Y152.54 E.135
G1 X71.214 Y152.54 E.01988
G1 X74.675 Y156.001 E.16312
G1 X74.675 Y156.598 E.01988
G1 X70.617 Y152.54 E.19124
G1 X70.021 Y152.54 E.01988
G1 X74.675 Y157.194 E.21936
G1 X74.675 Y157.791 E.01988
G1 X69.424 Y152.54 E.24748
G1 X68.827 Y152.54 E.01988
G1 X74.675 Y158.388 E.2756
G1 X74.675 Y158.984 E.01988
G1 X68.231 Y152.54 E.30372
G1 X67.634 Y152.54 E.01988
G1 X74.675 Y159.581 E.33184
G1 X74.675 Y160.177 E.01988
G1 X67.037 Y152.54 E.35995
G1 X66.441 Y152.54 E.01988
G1 X74.221 Y160.32 E.36668
G1 X73.624 Y160.32 E.01988
G1 X65.844 Y152.54 E.36668
G1 X65.247 Y152.54 E.01988
G1 X73.028 Y160.32 E.36668
G1 X72.431 Y160.32 E.01988
G1 X64.651 Y152.54 E.36668
G1 X64.054 Y152.54 E.01988
G1 X71.834 Y160.32 E.36668
G1 X71.238 Y160.32 E.01988
G1 X63.458 Y152.54 E.36668
G1 X62.861 Y152.54 E.01988
G1 X70.641 Y160.32 E.36668
G1 X70.045 Y160.32 E.01988
G1 X62.264 Y152.54 E.36668
G1 X61.668 Y152.54 E.01988
G1 X69.448 Y160.32 E.36668
G1 X68.851 Y160.32 E.01988
G1 X61.071 Y152.54 E.36668
G1 X60.474 Y152.54 E.01988
G1 X68.255 Y160.32 E.36668
G1 X67.658 Y160.32 E.01988
G1 X59.878 Y152.54 E.36668
G1 X59.281 Y152.54 E.01988
G1 X67.061 Y160.32 E.36668
G1 X66.465 Y160.32 E.01988
G1 X58.685 Y152.54 E.36668
G1 X58.088 Y152.54 E.01988
G1 X65.868 Y160.32 E.36668
G1 X65.271 Y160.32 E.01988
G1 X57.491 Y152.54 E.36668
G1 X56.895 Y152.54 E.01988
G1 X64.675 Y160.32 E.36668
G1 X64.078 Y160.32 E.01988
G1 X56.298 Y152.54 E.36668
G1 X55.701 Y152.54 E.01988
G1 X63.482 Y160.32 E.36668
G1 X62.885 Y160.32 E.01988
G1 X55.105 Y152.54 E.36668
G1 X54.508 Y152.54 E.01988
G1 X62.288 Y160.32 E.36668
G1 X61.692 Y160.32 E.01988
G1 X53.911 Y152.54 E.36668
G1 X53.315 Y152.54 E.01988
G1 X61.095 Y160.32 E.36668
G1 X60.498 Y160.32 E.01988
G1 X52.718 Y152.54 E.36668
G1 X52.122 Y152.54 E.01988
G1 X59.902 Y160.32 E.36668
G1 X59.305 Y160.32 E.01988
G1 X51.525 Y152.54 E.36668
G1 X50.928 Y152.54 E.01988
G1 X58.709 Y160.32 E.36668
G1 X58.112 Y160.32 E.01988
G1 X50.332 Y152.54 E.36668
G1 X49.735 Y152.54 E.01988
G1 X57.515 Y160.32 E.36668
G1 X56.919 Y160.32 E.01988
G1 X49.138 Y152.54 E.36668
G1 X48.542 Y152.54 E.01988
G1 X56.322 Y160.32 E.36668
G1 X55.725 Y160.32 E.01988
G1 X47.945 Y152.54 E.36668
G1 X47.348 Y152.54 E.01988
G1 X55.129 Y160.32 E.36668
M73 P1 R47
G1 X54.532 Y160.32 E.01988
G1 X46.895 Y152.683 E.35995
G1 X46.895 Y153.279 E.01988
G1 X53.935 Y160.32 E.33183
G1 X53.339 Y160.32 E.01988
G1 X46.895 Y153.876 E.30371
G1 X46.895 Y154.473 E.01988
G1 X52.742 Y160.32 E.27559
G1 X52.146 Y160.32 E.01988
G1 X46.895 Y155.069 E.24747
G1 X46.895 Y155.666 E.01988
G1 X51.549 Y160.32 E.21935
G1 X50.952 Y160.32 E.01988
G1 X46.895 Y156.262 E.19124
G1 X46.895 Y156.859 E.01988
G1 X50.356 Y160.32 E.16312
G1 X49.759 Y160.32 E.01988
G1 X46.895 Y157.456 E.135
G1 X46.895 Y158.052 E.01988
G1 X49.162 Y160.32 E.10688
G1 X48.566 Y160.32 E.01988
G1 X46.895 Y158.649 E.07876
G1 X46.895 Y159.246 E.01988
G1 X47.969 Y160.32 E.05064
G1 X47.373 Y160.32 E.01988
G1 X46.707 Y159.655 E.03137
; stop printing object LeonardoDaVinci.stl id:0 copy 0
;TIME_ELAPSED:31.571793

M106 S255
;LAYER_CHANGE
;:0.32
;HEIGHT:0.12
;BEFORE_LAYER_CHANGE
;0.32
G92 E0

G1 E-1.2 F2400
;WIPE_START
G1 F4800
G1 X47.373 Y160.32
G1 X47.969 Y160.32
G1 X47.642 Y159.993
;WIPE_END
;_SET_FAN_SPEED_CHANGING_LAYER
M204 P2500
; OBJECT_ID: 418
; printing object LeonardoDaVinci.stl id:0 copy 0
M204 T2500
G1 X51.309 Y158.935 Z.4 F9000
G1 X75.165 Y152.049 Z.4
G1 Z.32
G1 E1.2 F1800
M204 P2000
M205 X10 Y10
;TYPE:Inner wall
;WIDTH:0.449999
G1 F5400
G1 X75.166 Y160.811 E.17617
G1 X46.404 Y160.811 E.57832
G1 X46.404 Y152.049 E.17617
G1 X75.125 Y152.049 E.57751
M205 X8 Y8
G1 X75.448 Y151.64 F9000
M204 P1000
M205 X10 Y10
;TYPE:Outer wall
;WIDTH:0.419999
G1 F1560
G1 X75.574 Y151.767 E.00334
G1 X75.574 Y152.546 E.01456
G1 X75.575 Y160.313 E.14513
G1 X75.575 Y161.093 E.01457
G1 X75.448 Y161.22 E.00336
G1 X74.668 Y161.22 E.01457
G1 X46.902 Y161.22 E.51882
M73 P1 R46
G1 X46.122 Y161.22 E.01457
G1 X45.995 Y161.093 E.00336
G1 X45.995 Y160.313 E.01457
G1 X45.995 Y152.547 E.14511
G1 X45.995 Y151.767 E.01457
G1 X46.122 Y151.64 E.00336
G1 X46.902 Y151.64 E.01457
G1 X74.628 Y151.64 E.51808
G1 X75.408 Y151.64 E.01457
G1 E-1.2 F2400
;WIPE_START
G1 F1560
G1 X75.574 Y151.767
G1 X75.574 Y153.557
;WIPE_END
M205 X8 Y8
G1 X74.455 Y157.206 Z.52 F9000
G1 X73.474 Y160.401 Z.52
G1 Z.32
G1 E1.2 F1800
M204 P2500
M205 X10 Y10
;TYPE:Internal solid infill
G1 F10800
G1 X74.756 Y160.401 E.02395
G1 X74.756 Y159.12 E.02395
G1 X73.503 Y160.373 E.03313
M205 X8 Y8
G1 X74.403 Y159.987 F9000
M205 X10 Y10
;WIDTH:0.382398
G1 F10800
G1 X74.336 Y160.026 E.00131
G1 X74.405 Y160.061 E.00131
M205 X8 Y8
G1 X72.731 Y160.643 F9000
M205 X10 Y10
;WIDTH:0.421291
G1 F10800
G1 X74.82 Y158.553 E.05539
G1 X74.82 Y157.994 E.01049
G1 X72.349 Y160.465 E.06552
G1 X71.789 Y160.465 E.01049
G1 X74.82 Y157.435 E.08035
G1 X74.82 Y156.875 E.01049
G1 X71.23 Y160.465 E.09518
G1 X70.67 Y160.465 E.01049
G1 X74.82 Y156.316 E.11001
G1 X74.82 Y155.757 E.01049
G1 X70.111 Y160.465 E.12483
G1 X69.552 Y160.465 E.01049
G1 X74.82 Y155.197 E.13966
G1 X74.82 Y154.638 E.01049
G1 X68.992 Y160.465 E.15449
G1 X68.433 Y160.465 E.01049
G1 X74.82 Y154.078 E.16932
G1 X74.82 Y153.519 E.01049
G1 X67.874 Y160.465 E.18415
G1 X67.314 Y160.465 E.01049
G1 X74.82 Y152.96 E.19898
G1 X74.82 Y152.4 E.01049
G1 X66.755 Y160.465 E.21381
G1 X66.195 Y160.465 E.01049
G1 X74.266 Y152.395 E.21396
G1 X73.706 Y152.395 E.01049
G1 X65.636 Y160.465 E.21396
G1 X65.077 Y160.465 E.01049
G1 X73.147 Y152.395 E.21396
G1 X72.588 Y152.395 E.01049
G1 X64.517 Y160.465 E.21396
G1 X63.958 Y160.465 E.01049
G1 X72.028 Y152.395 E.21396
G1 X71.469 Y152.395 E.01049
G1 X63.399 Y160.465 E.21396
G1 X62.839 Y160.465 E.01049
G1 X70.909 Y152.395 E.21396
G1 X70.35 Y152.395 E.01049
G1 X62.28 Y160.465 E.21396
G1 X61.72 Y160.465 E.01049
G1 X69.791 Y152.395 E.21396
G1 X69.231 Y152.395 E.01049
G1 X61.161 Y160.465 E.21396
G1 X60.602 Y160.465 E.01049
G1 X68.672 Y152.395 E.21396
G1 X68.113 Y152.395 E.01049
G1 X60.042 Y160.465 E.21396
G1 X59.483 Y160.465 E.01049
G1 X67.553 Y152.395 E.21396
G1 X66.994 Y152.395 E.01049
G1 X58.924 Y160.465 E.21396
G1 X58.364 Y160.465 E.01049
G1 X66.434 Y152.395 E.21396
G1 X65.875 Y152.395 E.01049
G1 X57.805 Y160.465 E.21396
G1 X57.245 Y160.465 E.01049
G1 X65.316 Y152.395 E.21396
G1 X64.756 Y152.395 E.01049
G1 X56.686 Y160.465 E.21396
G1 X56.127 Y160.465 E.01049
G1 X64.197 Y152.395 E.21396
G1 X63.638 Y152.395 E.01049
G1 X55.567 Y160.465 E.21396
G1 X55.008 Y160.465 E.01049
G1 X63.078 Y152.395 E.21396
G1 X62.519 Y152.395 E.01049
G1 X54.449 Y160.465 E.21396
G1 X53.889 Y160.465 E.01049
G1 X61.959 Y152.395 E.21396
G1 X61.4 Y152.395 E.01049
G1 X53.33 Y160.465 E.21396
G1 X52.77 Y160.465 E.01049
G1 X60.841 Y152.395 E.21396
G1 X60.281 Y152.395 E.01049
G1 X52.211 Y160.465 E.21396
G1 X51.652 Y160.465 E.01049
G1 X59.722 Y152.395 E.21396
G1 X59.163 Y152.395 E.01049
G1 X51.092 Y160.465 E.21396
G1 X50.533 Y160.465 E.01049
G1 X58.603 Y152.395 E.21396
G1 X58.044 Y152.395 E.01049
G1 X49.974 Y160.465 E.21396
G1 X49.414 Y160.465 E.01049
G1 X57.484 Y152.395 E.21396
G1 X56.925 Y152.395 E.01049
G1 X48.855 Y160.465 E.21396
G1 X48.295 Y160.465 E.01049
G1 X56.366 Y152.395 E.21396
G1 X55.806 Y152.395 E.01049
G1 X47.736 Y160.465 E.21396
G1 X47.177 Y160.465 E.01049
G1 X55.247 Y152.395 E.21396
G1 X54.688 Y152.395 E.01049
G1 X46.75 Y160.333 E.21045
G1 X46.75 Y159.773 E.01049
G1 X54.128 Y152.395 E.19562
G1 X53.569 Y152.395 E.01049
G1 X46.75 Y159.214 E.18079
G1 X46.75 Y158.655 E.01049
G1 X53.009 Y152.395 E.16596
G1 X52.45 Y152.395 E.01049
G1 X46.75 Y158.095 E.15113
G1 X46.75 Y157.536 E.01049
G1 X51.891 Y152.395 E.1363
G1 X51.331 Y152.395 E.01049
G1 X46.75 Y156.976 E.12147
G1 X46.75 Y156.417 E.01049
G1 X50.772 Y152.395 E.10664
G1 X50.213 Y152.395 E.01049
G1 X46.75 Y155.858 E.09181
G1 X46.75 Y155.298 E.01049
G1 X49.653 Y152.395 E.07698
G1 X49.094 Y152.395 E.01049
G1 X46.75 Y154.739 E.06215
G1 X46.75 Y154.18 E.01049
G1 X48.534 Y152.395 E.04732
G1 X47.975 Y152.395 E.01049
G1 X46.75 Y153.62 E.03249
G1 X46.75 Y153.061 E.01049
G1 X47.593 Y152.217 E.02236
M205 X8 Y8
G1 X46.85 Y152.424 F9000
M205 X10 Y10
;WIDTH:0.441106
G1 F10800
G1 X46.798 Y152.424 E.00102
G1 X46.772 Y152.469 E.00102
G1 X46.798 Y152.514 E.00102
G1 X46.856 Y152.504 E.00116
; stop printing object LeonardoDaVinci.stl id:0 copy 0
;TIME_ELAPSED:44.709072

;LAYER_CHANGE
;:0.44
;HEIGHT:0.12
;BEFORE_LAYER_CHANGE
;0.44
G92 E0

G1 E-1.2 F2400
;WIPE_START
G1 F10800
G1 X46.798 Y152.514
G1 X46.772 Y152.469
G1 X46.798 Y152.424
G1 X46.85 Y152.424
;WIPE_END
;_SET_FAN_SPEED_CHANGING_LAYER
; OBJECT_ID: 418
; printing object LeonardoDaVinci.stl id:0 copy 0
M205 X8 Y8
G1 X50.666 Y152.374 Z.52 F9000
G1 X75.161 Y152.049 Z.52
G1 Z.44
G1 E1.2 F1800
M204 P2000
M205 X10 Y10
;TYPE:Inner wall
;WIDTH:0.449999
G1 F5400
G1 X75.165 Y160.811 E.17617
G1 X46.404 Y160.811 E.57832
G1 X46.404 Y152.049 E.17617
G1 X75.121 Y152.049 E.57743
M205 X8 Y8
G1 X75.448 Y151.64 F9000
M204 P1000
M205 X10 Y10
;TYPE:Outer wall
;WIDTH:0.419999
G1 F3600
G1 X75.57 Y151.762 E.00323
G1 X75.575 Y161.093 E.17435
G1 X75.448 Y161.22 E.00335
G1 X46.122 Y161.22 E.54797
G1 X45.995 Y161.093 E.00336
G1 X45.995 Y151.767 E.17426
G1 X46.122 Y151.64 E.00336
G1 X75.408 Y151.64 E.54723
G1 E-1.2 F2400
;WIPE_START
G1 F3600
G1 X75.57 Y151.762
G1 X75.571 Y153.559
;WIPE_END
M205 X8 Y8
G1 X73.474 Y152.458 Z.64 F9000
G1 Z.44
G1 E1.2 F1800
M204 P2500
M205 X10 Y10
;TYPE:Internal solid infill
G1 F10527
G1 X74.753 Y153.737 E.03378
G1 X74.752 Y152.458 E.02389
G1 X73.514 Y152.458 E.02313
M205 X8 Y8
G1 X74.4 Y152.794 F9000
M205 X10 Y10
;WIDTH:0.380038
G1 F10527
G1 X74.334 Y152.833 E.00129
G1 X74.402 Y152.867 E.00129
M205 X8 Y8
G1 X74.994 Y154.481 F9000
M205 X10 Y10
;WIDTH:0.421291
G1 F10527
G1 X72.908 Y152.395 E.05531
G1 X72.349 Y152.395 E.01049
G1 X74.817 Y154.863 E.06544
G1 X74.817 Y155.423 E.01049
G1 X71.789 Y152.395 E.08028
G1 X71.23 Y152.395 E.01049
G1 X74.817 Y155.982 E.09511
G1 X74.818 Y156.542 E.01049
G1 X70.67 Y152.395 E.10995
G1 X70.111 Y152.395 E.01049
G1 X74.818 Y157.102 E.12479
G1 X74.818 Y157.661 E.01049
G1 X69.552 Y152.395 E.13963
G1 X68.992 Y152.395 E.01049
G1 X74.818 Y158.221 E.15446
G1 X74.819 Y158.781 E.01049
G1 X68.433 Y152.395 E.1693
G1 X67.874 Y152.395 E.01049
G1 X74.819 Y159.34 E.18414
G1 X74.819 Y159.9 E.01049
G1 X67.314 Y152.395 E.19898
G1 X66.755 Y152.395 E.01049
G1 X74.82 Y160.46 E.21381
G1 X74.266 Y160.465 E.01038
G1 X66.195 Y152.395 E.21396
G1 X65.636 Y152.395 E.01049
G1 X73.706 Y160.465 E.21396
G1 X73.147 Y160.465 E.01049
G1 X65.077 Y152.395 E.21396
G1 X64.517 Y152.395 E.01049
G1 X72.588 Y160.465 E.21396
G1 X72.028 Y160.465 E.01049
G1 X63.958 Y152.395 E.21396
G1 X63.399 Y152.395 E.01049
G1 X71.469 Y160.465 E.21396
G1 X70.909 Y160.465 E.01049
G1 X62.839 Y152.395 E.21396
G1 X62.28 Y152.395 E.01049
G1 X70.35 Y160.465 E.21396
G1 X69.791 Y160.465 E.01049
G1 X61.72 Y152.395 E.21396
G1 X61.161 Y152.395 E.01049
G1 X69.231 Y160.465 E.21396
G1 X68.672 Y160.465 E.01049
G1 X60.602 Y152.395 E.21396
G1 X60.042 Y152.395 E.01049
G1 X68.113 Y160.465 E.21396
G1 X67.553 Y160.465 E.01049
G1 X59.483 Y152.395 E.21396
G1 X58.924 Y152.395 E.01049
G1 X66.994 Y160.465 E.21396
G1 X66.434 Y160.465 E.01049
G1 X58.364 Y152.395 E.21396
G1 X57.805 Y152.395 E.01049
G1 X65.875 Y160.465 E.21396
G1 X65.316 Y160.465 E.01049
G1 X57.245 Y152.395 E.21396
G1 X56.686 Y152.395 E.01049
G1 X64.756 Y160.465 E.21396
G1 X64.197 Y160.465 E.01049
G1 X56.127 Y152.395 E.21396
G1 X55.567 Y152.395 E.01049
G1 X63.638 Y160.465 E.21396
G1 X63.078 Y160.465 E.01049
G1 X55.008 Y152.395 E.21396
G1 X54.449 Y152.395 E.01049
G1 X62.519 Y160.465 E.21396
G1 X61.959 Y160.465 E.01049
G1 X53.889 Y152.395 E.21396
G1 X53.33 Y152.395 E.01049
G1 X61.4 Y160.465 E.21396
G1 X60.841 Y160.465 E.01049
G1 X52.77 Y152.395 E.21396
G1 X52.211 Y152.395 E.01049
G1 X60.281 Y160.465 E.21396
G1 X59.722 Y160.465 E.01049
G1 X51.652 Y152.395 E.21396
G1 X51.092 Y152.395 E.01049
G1 X59.163 Y160.465 E.21396
G1 X58.603 Y160.465 E.01049
G1 X50.533 Y152.395 E.21396
G1 X49.974 Y152.395 E.01049
G1 X58.044 Y160.465 E.21396
G1 X57.484 Y160.465 E.01049
G1 X49.414 Y152.395 E.21396
G1 X48.855 Y152.395 E.01049
G1 X56.925 Y160.465 E.21396
G1 X56.366 Y160.465 E.01049
G1 X48.295 Y152.395 E.21396
G1 X47.736 Y152.395 E.01049
G1 X55.806 Y160.465 E.21396
G1 X55.247 Y160.465 E.01049
G1 X47.177 Y152.395 E.21396
G1 X46.75 Y152.395 E.008
G1 X46.75 Y152.527 E.00248
G1 X54.688 Y160.465 E.21045
G1 X54.128 Y160.465 E.01049
G1 X46.75 Y153.087 E.19562
G1 X46.75 Y153.646 E.01049
G1 X53.569 Y160.465 E.18079
G1 X53.009 Y160.465 E.01049
G1 X46.75 Y154.205 E.16596
G1 X46.75 Y154.765 E.01049
G1 X52.45 Y160.465 E.15113
G1 X51.891 Y160.465 E.01049
G1 X46.75 Y155.324 E.1363
G1 X46.75 Y155.883 E.01049
G1 X51.331 Y160.465 E.12147
G1 X50.772 Y160.465 E.01049
G1 X46.75 Y156.443 E.10664
G1 X46.75 Y157.002 E.01049
G1 X50.213 Y160.465 E.09181
G1 X49.653 Y160.465 E.01049
G1 X46.75 Y157.562 E.07698
G1 X46.75 Y158.121 E.01049
G1 X49.094 Y160.465 E.06215
G1 X48.534 Y160.465 E.01049
