;TIME:2957.85
;Filament used:1.48581m
;Layer height:0.200
; HEADER_BLOCK_START
; generated by Creality_Print V7.0.0.4127 on 2026-03-01 at 16:48:01
; total layer number: 446
; filament_density: 1.24,1.24,1.24,1.24
; filament_diameter: 1.75,1.75,1.75,1.75
; max_z_height: 29.24
; creality_uuid: 500571fd-551f-4530-bedf-e7cabd5d213b
; HEADER_BLOCK_END

; MINX = 66.83
; MINY = 48.53
; MINZ = 0.00
; MAXX = 170.34
; MAXY = 158.05
; MAXZ = 29.27

; multicolor_method = 0 
; THUMBNAIL_BLOCK_START

;
; THUMBNAIL_BLOCK_END

; THUMBNAIL_BLOCK_START

;
; THUMBNAIL_BLOCK_END

; external perimeters extrusion width = 0.42mm
; perimeters extrusion width = 0.45mm
; infill extrusion width = 0.45mm
; solid infill extrusion width = 0.42mm
; top infill extrusion width = 0.42mm
; support material extrusion width = 0.38mm
; first layer extrusion width = 0.46mm

; external perimeters extrusion width = 0.42mm
; perimeters extrusion width = 0.45mm
; infill extrusion width = 0.45mm
; solid infill extrusion width = 0.42mm
; top infill extrusion width = 0.42mm
; support material extrusion width = 0.38mm
; first layer extrusion width = 0.46mm

; EXECUTABLE_BLOCK_START
M73 P0 R49
M201 X5000 Y5000 Z500 E5000
M203 X500 Y500 Z30 E100
M204 P5000 R2500 T5000 ; sets acceleration (P, T) and retract acceleration (R), mm/sec^2
M205 X10.00 Y10.00 Z0.40 E5.00 ; sets the jerk limits, mm/sec
; max_print_temp = 60,190
;TYPE:Custom
M220 S100 ;Reset Feedrate 
M221 S100 ;Reset Flowrate 
 
M140 S60 ;Set final bed temp 
G28 ;Home 
 
G92 E0 ;Reset Extruder 
G1 Z2.0 F3000 ;Move Z Axis up 
M104 S190 ;Set final nozzle temp 
G1 X-2.1 Y20 Z0.28 F5000.0 ;Move to start position 
M190 S60 ;Wait for bed temp to stabilize 
M109 S190 ;Wait for nozzle temp to stabilize 
G1 X-2.1 Y145.0 Z0.28 F1500.0 E15 ;Draw the first line 
G1 X-2.4 Y145.0 Z0.28 F5000.0 ;Move to side a little 
G1 X-2.4 Y20 Z0.28 F1500.0 E30 ;Draw the second line 
G92 E0  ;Reset Extruder 
G1 E-1.0000 F1800 ;Retract a bit 
G1 Z2.0 F3000 ;Move Z Axis up 
G1 E0.0000 F1800
G90
G21
M83 ; use relative distances for extrusion
;filament start gcode
; MANUAL_TOOL_CHANGE T0
G1 E-1.2 F2400
M106 S0
;LAYER_CHANGE
;:0.2
;HEIGHT:0.2
;BEFORE_LAYER_CHANGE
;0.2
G92 E0

;_SET_FAN_SPEED_CHANGING_LAYER
M204 P500
M205 X8 Y8
; OBJECT_ID: 498
; printing object Rembrandt.stl id:0 copy 0
M204 T500
G1 X91.07 Y149.852 Z.2 F9000
G1 E1.2 F1800
;TYPE:Inner wall
;WIDTH:0.459999
G1 X91.07 Y156.674 E.22478
G1 X67.581 Y156.674 E.77388
G1 X67.581 Y149.852 E.22478
G1 X91.03 Y149.852 E.77256
G1 X91.487 Y149.435 F9000
;TYPE:Outer wall
G1 F1800
G1 X91.487 Y157.091 E.25226
G1 X67.163 Y157.091 E.80136
G1 X67.163 Y149.435 E.25226
G1 X91.447 Y149.435 E.80004
G1 E-1.2 F2400
;WIPE_START
G1 F1800
G1 X91.457 Y151.435
;WIPE_END
G1 X90.945 Y150.832 Z.4 F9000
G1 Z.2
G1 E1.2 F1800
;TYPE:Bottom surface
;WIDTH:0.465694
G1 F4800
G1 X90.277 Y150.165 E.03153
G1 X89.679 Y150.165 E.01997
G1 X90.757 Y151.242 E.0509
G1 X90.757 Y151.84 E.01997
G1 X89.081 Y150.165 E.07914
G1 X88.483 Y150.165 E.01997
G1 X90.757 Y152.438 E.10738
G1 X90.757 Y153.036 E.01997
G1 X87.886 Y150.165 E.13561
G1 X87.288 Y150.165 E.01997
G1 X90.757 Y153.634 E.16385
G1 X90.757 Y154.232 E.01997
G1 X86.69 Y150.165 E.19209
G1 X86.092 Y150.165 E.01997
G1 X90.757 Y154.83 E.22033
G1 X90.757 Y155.428 E.01997
G1 X85.494 Y150.165 E.24857
G1 X84.896 Y150.165 E.01997
G1 X90.757 Y156.026 E.2768
G1 X90.757 Y156.362 E.01122
G1 X90.495 Y156.362 E.00874
G1 X84.298 Y150.165 E.29268
G1 X83.7 Y150.165 E.01997
G1 X89.897 Y156.362 E.29268
G1 X89.299 Y156.362 E.01997
G1 X83.102 Y150.165 E.29268
G1 X82.505 Y150.165 E.01997
G1 X88.701 Y156.362 E.29268
G1 X88.104 Y156.362 E.01997
G1 X81.907 Y150.165 E.29268
G1 X81.309 Y150.165 E.01997
M73 P0 R48
G1 X87.506 Y156.362 E.29268
G1 X86.908 Y156.362 E.01997
G1 X80.711 Y150.165 E.29268
G1 X80.113 Y150.165 E.01997
G1 X86.31 Y156.362 E.29268
G1 X85.712 Y156.362 E.01997
G1 X79.515 Y150.165 E.29268
G1 X78.917 Y150.165 E.01997
G1 X85.114 Y156.362 E.29268
G1 X84.516 Y156.362 E.01997
G1 X78.319 Y150.165 E.29268
G1 X77.721 Y150.165 E.01997
G1 X83.918 Y156.362 E.29268
G1 X83.32 Y156.362 E.01997
G1 X77.123 Y150.165 E.29268
G1 X76.526 Y150.165 E.01997
G1 X82.723 Y156.362 E.29268
G1 X82.125 Y156.362 E.01997
G1 X75.928 Y150.165 E.29268
G1 X75.33 Y150.165 E.01997
G1 X81.527 Y156.362 E.29268
G1 X80.929 Y156.362 E.01997
G1 X74.732 Y150.165 E.29268
G1 X74.134 Y150.165 E.01997
G1 X80.331 Y156.362 E.29268
G1 X79.733 Y156.362 E.01997
G1 X73.536 Y150.165 E.29268
G1 X72.938 Y150.165 E.01997
G1 X79.135 Y156.362 E.29268
G1 X78.537 Y156.362 E.01997
G1 X72.34 Y150.165 E.29268
G1 X71.742 Y150.165 E.01997
G1 X77.939 Y156.362 E.29268
G1 X77.341 Y156.362 E.01997
G1 X71.145 Y150.165 E.29268
G1 X70.547 Y150.165 E.01997
G1 X76.744 Y156.362 E.29268
G1 X76.146 Y156.362 E.01997
G1 X69.949 Y150.165 E.29268
G1 X69.351 Y150.165 E.01997
G1 X75.548 Y156.362 E.29268
G1 X74.95 Y156.362 E.01997
G1 X68.753 Y150.165 E.29268
G1 X68.155 Y150.165 E.01997
G1 X74.352 Y156.362 E.29268
G1 X73.754 Y156.362 E.01997
G1 X67.893 Y150.501 E.2768
G1 X67.893 Y151.099 E.01997
G1 X73.156 Y156.362 E.24856
G1 X72.558 Y156.362 E.01997
G1 X67.893 Y151.697 E.22032
G1 X67.893 Y152.295 E.01997
G1 X71.96 Y156.362 E.19208
G1 X71.363 Y156.362 E.01997
G1 X67.893 Y152.892 E.16385
G1 X67.893 Y153.49 E.01997
G1 X70.765 Y156.362 E.13561
G1 X70.167 Y156.362 E.01997
G1 X67.893 Y154.088 E.10737
G1 X67.893 Y154.686 E.01997
G1 X69.569 Y156.362 E.07913
G1 X68.971 Y156.362 E.01997
G1 X67.893 Y155.284 E.05089
G1 X67.893 Y155.882 E.01997
G1 X68.561 Y156.549 E.03152
; stop printing object Rembrandt.stl id:0 copy 0
;TIME_ELAPSED:26.600420

M106 S255
;LAYER_CHANGE
;:0.32
;HEIGHT:0.12
;BEFORE_LAYER_CHANGE
;0.32
G92 E0

G1 E-1.2 F2400
;WIPE_START
G1 F4800
G1 X67.893 Y155.882
G1 X67.893 Y155.284
G1 X68.217 Y155.608
;WIPE_END
;_SET_FAN_SPEED_CHANGING_LAYER
M204 P2500
; OBJECT_ID: 498
; printing object Rembrandt.stl id:0 copy 0
M204 T2500
G1 X71.914 Y154.66 Z.4 F9000
G1 X91.204 Y149.716 Z.4
G1 Z.32
G1 E1.2 F1800
M204 P2000
M205 X10 Y10
;TYPE:Inner wall
;WIDTH:0.449999
G1 F5400
G1 X91.206 Y156.811 E.14266
G1 X67.444 Y156.811 E.47778
G1 X67.444 Y149.716 E.14266
G1 X91.164 Y149.716 E.47694
M205 X8 Y8
G1 X91.572 Y149.348 F9000
M204 P1000
M205 X10 Y10
;TYPE:Outer wall
;WIDTH:0.419999
G1 F2400
G1 X91.613 Y149.449 E.00204
G1 X91.614 Y150.186 E.01377
G1 X91.615 Y156.396 E.11604
G1 X91.615 Y157.135 E.01381
G1 X91.53 Y157.22 E.00225
G1 X90.792 Y157.22 E.01379
G1 X67.859 Y157.22 E.42852
G1 X67.12 Y157.22 E.01381
G1 X67.035 Y157.134 E.00226
G1 X67.035 Y156.396 E.01379
G1 X67.035 Y150.13 E.11708
G1 X67.035 Y149.392 E.01379
G1 X67.12 Y149.306 E.00226
G1 X67.859 Y149.306 E.01381
G1 X90.732 Y149.306 E.4274
G1 X91.471 Y149.306 E.01381
G1 X91.535 Y149.333 E.0013
G1 E-1.2
;WIPE_START
G1 X91.613 Y149.449
G1 X91.614 Y151.309
;WIPE_END
M205 X8 Y8
M73 P1 R48
G1 X90.145 Y154.831 Z.52 F9000
G1 X89.491 Y156.401 Z.52
G1 Z.32
G1 E1.2 F1800
M204 P2500
M205 X10 Y10
;TYPE:Internal solid infill
G1 F7388
G1 X90.796 Y156.401 E.0244
G1 X90.796 Y155.096 E.02439
G1 X89.519 Y156.373 E.03375
M205 X8 Y8
G1 X90.437 Y155.979 F9000
M205 X10 Y10
;WIDTH:0.396294
G1 F7388
G1 X90.368 Y156.019 E.00141
G1 X90.44 Y156.054 E.00141
M205 X8 Y8
G1 X88.747 Y156.642 F9000
M205 X10 Y10
;WIDTH:0.421608
G1 F7388
G1 X90.86 Y154.529 E.05606
G1 X90.86 Y153.97 E.0105
G1 X88.364 Y156.465 E.06621
G1 X87.805 Y156.465 E.0105
G1 X90.859 Y153.41 E.08106
G1 X90.859 Y152.85 E.0105
G1 X87.245 Y156.465 E.09591
G1 X86.685 Y156.465 E.0105
G1 X90.859 Y152.291 E.11076
G1 X90.859 Y151.731 E.0105
G1 X86.125 Y156.465 E.12561
G1 X85.565 Y156.465 E.0105
G1 X90.859 Y151.171 E.14046
G1 X90.859 Y150.612 E.0105
G1 X85.005 Y156.465 E.15531
G1 X84.446 Y156.465 E.0105
G1 X90.849 Y150.061 E.16991
G1 X90.289 Y150.061 E.0105
G1 X83.886 Y156.465 E.16991
G1 X83.326 Y156.465 E.0105
G1 X89.73 Y150.061 E.16991
G1 X89.17 Y150.061 E.0105
G1 X82.766 Y156.465 E.16991
G1 X82.206 Y156.465 E.0105
G1 X88.61 Y150.061 E.16991
G1 X88.05 Y150.061 E.0105
G1 X81.646 Y156.465 E.16991
G1 X81.087 Y156.465 E.0105
G1 X87.49 Y150.061 E.16991
G1 X86.93 Y150.061 E.0105
G1 X80.527 Y156.465 E.16991
G1 X79.967 Y156.465 E.0105
G1 X86.371 Y150.061 E.16991
G1 X85.811 Y150.061 E.0105
G1 X79.407 Y156.465 E.16991
G1 X78.847 Y156.465 E.0105
G1 X85.251 Y150.061 E.16991
G1 X84.691 Y150.061 E.0105
G1 X78.288 Y156.465 E.16991
G1 X77.728 Y156.465 E.0105
G1 X84.131 Y150.061 E.16991
G1 X83.571 Y150.061 E.0105
G1 X77.168 Y156.465 E.16991
G1 X76.608 Y156.465 E.0105
G1 X83.012 Y150.061 E.16991
G1 X82.452 Y150.061 E.0105
G1 X76.048 Y156.465 E.16991
G1 X75.488 Y156.465 E.0105
G1 X81.892 Y150.061 E.16991
G1 X81.332 Y150.061 E.0105
G1 X74.929 Y156.465 E.16991
G1 X74.369 Y156.465 E.0105
G1 X80.772 Y150.061 E.16991
G1 X80.213 Y150.061 E.0105
G1 X73.809 Y156.465 E.16991
G1 X73.249 Y156.465 E.0105
G1 X79.653 Y150.061 E.16991
G1 X79.093 Y150.061 E.0105
G1 X72.689 Y156.465 E.16991
G1 X72.129 Y156.465 E.0105
G1 X78.533 Y150.061 E.16991
G1 X77.973 Y150.061 E.0105
G1 X71.57 Y156.465 E.16991
G1 X71.01 Y156.465 E.0105
G1 X77.413 Y150.061 E.16991
G1 X76.854 Y150.061 E.0105
G1 X70.45 Y156.465 E.16991
G1 X69.89 Y156.465 E.0105
G1 X76.294 Y150.061 E.16991
G1 X75.734 Y150.061 E.0105
G1 X69.33 Y156.465 E.16991
G1 X68.77 Y156.465 E.0105
G1 X75.174 Y150.061 E.16991
G1 X74.614 Y150.061 E.0105
G1 X68.211 Y156.465 E.16991
G1 X67.79 Y156.465 E.00789
G1 X67.79 Y156.326 E.00261
G1 X74.054 Y150.061 E.16622
G1 X73.495 Y150.061 E.0105
G1 X67.79 Y155.766 E.15136
G1 X67.79 Y155.206 E.0105
G1 X72.935 Y150.061 E.13651
G1 X72.375 Y150.061 E.0105
G1 X67.79 Y154.646 E.12165
G1 X67.79 Y154.086 E.0105
G1 X71.815 Y150.061 E.1068
G1 X71.255 Y150.061 E.0105
G1 X67.79 Y153.527 E.09195
G1 X67.79 Y152.967 E.0105
G1 X70.696 Y150.061 E.07709
G1 X70.136 Y150.061 E.0105
G1 X67.79 Y152.407 E.06224
G1 X67.79 Y151.847 E.0105
G1 X69.576 Y150.061 E.04738
G1 X69.016 Y150.061 E.0105
G1 X67.79 Y151.287 E.03253
G1 X67.79 Y150.728 E.0105
G1 X68.634 Y149.884 E.02238
M205 X8 Y8
G1 X67.89 Y150.091 F9000
M205 X10 Y10
;WIDTH:0.441102
G1 F7388
G1 X67.838 Y150.091 E.00102
G1 X67.812 Y150.136 E.00102
G1 X67.838 Y150.18 E.00102
G1 X67.896 Y150.17 E.00116
; stop printing object Rembrandt.stl id:0 copy 0
;TIME_ELAPSED:35.911701

;LAYER_CHANGE
;:0.44
;HEIGHT:0.12
;BEFORE_LAYER_CHANGE
;0.44
G92 E0

G1 E-1.2 F2400
;WIPE_START
G1 F10800
G1 X67.838 Y150.18
G1 X67.812 Y150.136
G1 X67.838 Y150.091
G1 X67.89 Y150.091
;WIPE_END
;_SET_FAN_SPEED_CHANGING_LAYER
; OBJECT_ID: 498
; printing object Rembrandt.stl id:0 copy 0
M205 X8 Y8
G1 X71.706 Y150.029 Z.52 F9000
G1 X91.2 Y149.716 Z.52
G1 Z.44
G1 E1.2 F1800
M204 P2000
M205 X10 Y10
;TYPE:Inner wall
;WIDTH:0.449999
G1 F5400
G1 X91.206 Y156.811 E.14266
G1 X67.444 Y156.811 E.47778
G1 X67.444 Y149.716 E.14266
G1 X91.16 Y149.716 E.47686
M205 X8 Y8
G1 X91.569 Y149.346 F9000
M204 P1000
M205 X10 Y10
;TYPE:Outer wall
;WIDTH:0.419999
G1 F3600
G1 X91.609 Y149.442 E.00193
G1 X91.615 Y157.135 E.14375
G1 X91.53 Y157.22 E.00225
G1 X67.12 Y157.22 E.4561
G1 X67.035 Y157.134 E.00225
G1 X67.035 Y149.392 E.14468
G1 X67.12 Y149.306 E.00225
G1 X91.474 Y149.306 E.45506
G1 X91.533 Y149.331 E.00119
G1 E-1.2 F2400
;WIPE_START
G1 F3600
G1 X91.609 Y149.442
G1 X91.611 Y151.307
;WIPE_END
M205 X8 Y8
G1 X89.491 Y150.125 Z.64 F9000
G1 Z.44
G1 E1.2 F1800
M204 P2500
M205 X10 Y10
;TYPE:Internal solid infill
G1 F6367
G1 X90.792 Y151.426 E.03439
G1 X90.791 Y150.125 E.02432
G1 X89.531 Y150.125 E.02355
M205 X8 Y8
G1 X90.433 Y150.466 F9000
M205 X10 Y10
;WIDTH:0.393416
G1 F6367
G1 X90.365 Y150.506 E.00139
G1 X90.436 Y150.541 E.00139
M205 X8 Y8
G1 X91.034 Y152.171 F9000
M205 X10 Y10
;WIDTH:0.421608
G1 F6367
G1 X88.924 Y150.061 E.05598
G1 X88.364 Y150.061 E.0105
G1 X90.857 Y152.554 E.06613
G1 X90.857 Y153.114 E.01051
G1 X87.805 Y150.061 E.081
G1 X87.245 Y150.061 E.0105
G1 X90.858 Y153.674 E.09586
G1 X90.858 Y154.234 E.01051
G1 X86.685 Y150.061 E.11073
G1 X86.125 Y150.061 E.0105
G1 X90.858 Y154.795 E.12559
G1 X90.859 Y155.355 E.01051
G1 X85.565 Y150.061 E.14046
G1 X85.005 Y150.061 E.0105
G1 X90.859 Y155.915 E.15532
G1 X90.849 Y156.465 E.01032
G1 X84.446 Y150.061 E.16991
G1 X83.886 Y150.061 E.0105
G1 X90.289 Y156.465 E.16991
G1 X89.73 Y156.465 E.0105
G1 X83.326 Y150.061 E.16991
G1 X82.766 Y150.061 E.0105
G1 X89.17 Y156.465 E.16991
G1 X88.61 Y156.465 E.0105
G1 X82.206 Y150.061 E.16991
G1 X81.646 Y150.061 E.0105
G1 X88.05 Y156.465 E.16991
G1 X87.49 Y156.465 E.0105
G1 X81.087 Y150.061 E.16991
G1 X80.527 Y150.061 E.0105
G1 X86.93 Y156.465 E.16991
G1 X86.371 Y156.465 E.0105
G1 X79.967 Y150.061 E.16991
G1 X79.407 Y150.061 E.0105
G1 X85.811 Y156.465 E.16991
G1 X85.251 Y156.465 E.0105
G1 X78.847 Y150.061 E.16991
G1 X78.288 Y150.061 E.0105
G1 X84.691 Y156.465 E.16991
G1 X84.131 Y156.465 E.0105
G1 X77.728 Y150.061 E.16991
G1 X77.168 Y150.061 E.0105
G1 X83.571 Y156.465 E.16991
G1 X83.012 Y156.465 E.0105
G1 X76.608 Y150.061 E.16991
G1 X76.048 Y150.061 E.0105
G1 X82.452 Y156.465 E.16991
G1 X81.892 Y156.465 E.0105
G1 X75.488 Y150.061 E.16991
G1 X74.929 Y150.061 E.0105
G1 X81.332 Y156.465 E.16991
G1 X80.772 Y156.465 E.0105
G1 X74.369 Y150.061 E.16991
G1 X73.809 Y150.061 E.0105
G1 X80.213 Y156.465 E.16991
G1 X79.653 Y156.465 E.0105
G1 X73.249 Y150.061 E.16991
G1 X72.689 Y150.061 E.0105
G1 X79.093 Y156.465 E.16991
G1 X78.533 Y156.465 E.0105
G1 X72.129 Y150.061 E.16991
G1 X71.57 Y150.061 E.0105
G1 X77.973 Y156.465 E.16991
G1 X77.413 Y156.465 E.0105
G1 X71.01 Y150.061 E.16991
G1 X70.45 Y150.061 E.0105
G1 X76.854 Y156.465 E.16991
G1 X76.294 Y156.465 E.0105
G1 X69.89 Y150.061 E.16991
G1 X69.33 Y150.061 E.0105
G1 X75.734 Y156.465 E.16991
G1 X75.174 Y156.465 E.0105
G1 X68.77 Y150.061 E.16991
G1 X68.211 Y150.061 E.0105
G1 X74.614 Y156.465 E.16991
G1 X74.054 Y156.465 E.0105
G1 X67.79 Y150.201 E.16622
G1 X67.79 Y150.76 E.0105
G1 X73.495 Y156.465 E.15136
G1 X72.935 Y156.465 E.0105
G1 X67.79 Y151.32 E.13651
G1 X67.79 Y151.88 E.0105
G1 X72.375 Y156.465 E.12165
G1 X71.815 Y156.465 E.0105
G1 X67.79 Y152.44 E.1068
G1 X67.79 Y153 E.0105
G1 X71.255 Y156.465 E.09195
G1 X70.696 Y156.465 E.0105
G1 X67.79 Y153.559 E.07709
G1 X67.79 Y154.119 E.0105
G1 X70.136 Y156.465 E.06224
G1 X69.576 Y156.465 E.0105
G1 X67.79 Y154.679 E.04738
G1 X67.79 Y155.239 E.0105
G1 X69.016 Y156.465 E.03253
G1 X68.456 Y156.465 E.0105
G1 X67.613 Y155.621 E.02238
M205 X8 Y8
G1 X67.931 Y149.928 F9000
;TYPE:Gap infill
;WIDTH:0.0790791
G1 F3000
G1 X67.794 Y149.955 E.00035
;WIDTH:0.0916688
G1 X67.657 Y149.982 E.00044
G1 X67.89 Y156.346 F9000
M205 X10 Y10
;TYPE:Internal solid infill
;WIDTH:0.441106
G1 F6367
G1 X67.838 Y156.346 E.00102
G1 X67.812 Y156.391 E.00102
G1 X67.838 Y156.436 E.00102
G1 X67.896 Y156.425 E.00116
; stop printing object Rembrandt.stl id:0 copy 0
;TIME_ELAPSED:44.858498

;LAYER_CHANGE
;:0.56
;HEIGHT:0.12
;BEFORE_LAYER_CHANGE
;0.56
G92 E0

G1 E-1.2 F2400
;WIPE_START
G1 F10800
G1 X67.838 Y156.436
G1 X67.812 Y156.391
G1 X67.838 Y156.346
G1 X67.89 Y156.346
;WIPE_END
;_SET_FAN_SPEED_CHANGING_LAYER
; OBJECT_ID: 498
; printing object Rembrandt.stl id:0 copy 0
M205 X8 Y8
G1 X71.561 Y155.302 Z.64 F9000
G1 X91.196 Y149.716 Z.64
G1 Z.56
G1 E1.2 F1800
M204 P2000
M205 X10 Y10
;TYPE:Inner wall
;WIDTH:0.449999
G1 F5400
G1 X91.205 Y156.811 E.14266
G1 X67.444 Y156.811 E.47777
G1 X67.444 Y149.716 E.14266
G1 X91.156 Y149.716 E.47678
M205 X8 Y8
G1 X91.567 Y149.344 F9000
M204 P1000
M205 X10 Y10
;TYPE:Outer wall
;WIDTH:0.419999
G1 F3600
G1 X91.605 Y149.434 E.00183
G1 X91.615 Y157.135 E.14388
G1 X91.53 Y157.22 E.00225
G1 X67.12 Y157.22 E.4561
G1 X67.035 Y157.134 E.00225
G1 X67.035 Y149.392 E.14468
G1 X67.12 Y149.306 E.00225
G1 X91.477 Y149.306 E.45511
G1 X91.53 Y149.329 E.00109
G1 E-1.2 F2400
;WIPE_START
G1 F3600
G1 X91.605 Y149.434
G1 X91.607 Y151.305
;WIPE_END
M205 X8 Y8
G1 X90.144 Y154.829 Z.76 F9000
G1 X89.491 Y156.401 Z.76
G1 Z.56
G1 E1.2 F1800
M204 P2500
M205 X10 Y10
;TYPE:Internal solid infill
G1 F6278
G1 X90.796 Y156.401 E.02438
G1 X90.794 Y155.098 E.02435
G1 X89.519 Y156.373 E.03369
M205 X8 Y8
G1 X90.436 Y155.979 F9000
M205 X10 Y10
;WIDTH:0.395532
G1 F6278
G1 X90.367 Y156.019 E.0014
G1 X90.439 Y156.054 E.00141
M205 X8 Y8
