;TIME:-nan
;Filament used:1.69171m
;Layer height:0.200
; HEADER_BLOCK_START
; generated by Creality_Print V7.0.0.4127 on 2026-03-01 at 16:45:48
; total layer number: 489
; filament_density: 1.24,1.24,1.24,1.24
; filament_diameter: 1.75,1.75,1.75,1.75
; max_z_height: 32.24
; creality_uuid: 31a7fed5-815f-44c9-aec4-f4d07c719914
; HEADER_BLOCK_END

; MINX = 44.24
; MINY = 74.35
; MINZ = 0.00
; MAXX = 176.52
; MAXY = 167.71
; MAXZ = 32.19

; multicolor_method = 0 
; THUMBNAIL_BLOCK_START

;
; THUMBNAIL_BLOCK_END

; THUMBNAIL_BLOCK_START

;
; THUMBNAIL_BLOCK_END

; external perimeters extrusion width = 0.42mm
; perimeters extrusion width = 0.45mm
; infill extrusion width = 0.45mm
; solid infill extrusion width = 0.42mm
; top infill extrusion width = 0.42mm
; support material extrusion width = 0.38mm
; first layer extrusion width = 0.46mm

; external perimeters extrusion width = 0.42mm
; perimeters extrusion width = 0.45mm
; infill extrusion width = 0.45mm
; solid infill extrusion width = 0.42mm
; top infill extrusion width = 0.42mm
; support material extrusion width = 0.38mm
; first layer extrusion width = 0.46mm

; EXECUTABLE_BLOCK_START
M73 P0 R-2147483648
M201 X5000 Y5000 Z500 E5000
M203 X500 Y500 Z30 E100
M204 P5000 R2500 T5000 ; sets acceleration (P, T) and retract acceleration (R), mm/sec^2
M205 X10.00 Y10.00 Z0.40 E5.00 ; sets the jerk limits, mm/sec
; max_print_temp = 60,190
;TYPE:Custom
M220 S100 ;Reset Feedrate 
M221 S100 ;Reset Flowrate 
 
M140 S60 ;Set final bed temp 
G28 ;Home 
 
G92 E0 ;Reset Extruder 
G1 Z2.0 F3000 ;Move Z Axis up 
M104 S190 ;Set final nozzle temp 
G1 X-2.1 Y20 Z0.28 F5000.0 ;Move to start position 
M190 S60 ;Wait for bed temp to stabilize 
M109 S190 ;Wait for nozzle temp to stabilize 
M73 P-2147483648 R-2147483648
G1 X-2.1 Y145.0 Z0.28 F1500.0 E15 ;Draw the first line 
G1 X-2.4 Y145.0 Z0.28 F5000.0 ;Move to side a little 
G1 X-2.4 Y20 Z0.28 F1500.0 E30 ;Draw the second line 
G92 E0  ;Reset Extruder 
G1 E-1.0000 F1800 ;Retract a bit 
G1 Z2.0 F3000 ;Move Z Axis up 
G1 E0.0000 F1800
G90
G21
M83 ; use relative distances for extrusion
;filament start gcode
; MANUAL_TOOL_CHANGE T0
G1 E-1.2 F2400
M106 S0
;LAYER_CHANGE
;:0.2
;HEIGHT:0.2
;BEFORE_LAYER_CHANGE
;0.2
G92 E0

;_SET_FAN_SPEED_CHANGING_LAYER
M204 P500
M205 X8 Y8
; OBJECT_ID: 378
; printing object ClaudeMonet.stl id:0 copy 0
M204 T500
G1 X67.833 Y168.091 Z.2 F9000
G1 E1.2 F1800
;TYPE:Support
;WIDTH:0.46
G1 X68.404 Y168.876 E.032
G1 X68.825 Y169.752 E.032
G1 X69.083 Y170.688 E.032
G1 X69.17 Y171.655 E.032
G1 X69.083 Y172.623 E.032
G1 X68.825 Y173.559 E.032
G1 X68.404 Y174.434 E.032
G1 X67.833 Y175.22 E.032
G1 X67.131 Y175.891 E.032
G1 X66.32 Y176.426 E.032
G1 X65.427 Y176.808 E.032
G1 X64.48 Y177.024 E.032
G1 X63.51 Y177.067 E.032
G1 X62.547 Y176.937 E.032
G1 X61.624 Y176.637 E.032
G1 X60.768 Y176.177 E.032
G1 X60.009 Y175.571 E.032
G1 X59.37 Y174.84 E.032
G1 X58.872 Y174.006 E.032
G1 X58.53 Y173.097 E.032
G1 X58.357 Y172.141 E.032
G1 X58.357 Y171.17 E.032
G1 X58.53 Y170.214 E.032
G1 X58.871 Y169.305 E.032
G1 X59.37 Y168.471 E.032
G1 X59.931 Y167.829 E.02809
G1 X67.559 Y167.829 E.25132
G1 X67.788 Y168.047 E.01043
G1 X68.616 Y172.904 F9000
G1 F1800
G1 X68.508 Y173.298 E.01345
G1 X68.508 Y170.013 E.10823
G1 X68.616 Y170.406 E.01345
G1 X59.59 Y174.476 F9000
G1 F1800
G1 X59.239 Y173.889 E.0225
G1 X59.239 Y169.421 E.14722
G1 X59.703 Y168.66 E.02935
G1 X59.703 Y174.65 E.19735
G1 X60.166 Y175.181 E.02321
G1 X60.166 Y168.204 E.22985
G1 X60.63 Y168.204 E.01527
G1 X60.63 Y175.586 E.24321
G1 X60.976 Y175.862 E.01459
G1 X61.093 Y175.925 E.00438
G1 X61.093 Y168.204 E.25438
G1 X61.556 Y168.204 E.01527
G1 X61.556 Y176.174 E.2626
G1 X61.772 Y176.29 E.00805
G1 X62.02 Y176.371 E.0086
G1 X62.02 Y168.204 E.26907
G1 X62.483 Y168.204 E.01527
G1 X62.483 Y176.521 E.27403
G1 X62.631 Y176.57 E.00512
G1 X62.947 Y176.612 E.01049
G1 X62.947 Y168.204 E.27702
G1 X63.41 Y168.204 E.01527
G1 X63.41 Y176.675 E.27909
G1 X63.527 Y176.691 E.00387
G1 X63.873 Y176.675 E.01144
G1 X63.873 Y168.204 E.2791
G1 X64.337 Y168.204 E.01527
G1 X64.337 Y176.654 E.27841
G1 X64.429 Y176.65 E.00305
G1 X64.8 Y176.566 E.01254
G1 X64.8 Y168.204 E.27548
G1 X65.264 Y168.204 E.01527
G1 X65.264 Y176.46 E.272
G1 X65.727 Y176.271 E.01649
G1 X65.727 Y168.204 E.26578
G1 X66.191 Y168.204 E.01527
G1 X66.191 Y176.062 E.25888
G1 X66.654 Y175.756 E.01829
G1 X66.654 Y168.204 E.2488
G1 X67.117 Y168.204 E.01527
G1 X67.117 Y175.384 E.23656
G1 X67.581 Y174.928 E.02143
G1 X67.581 Y168.383 E.21564
G1 X68.044 Y169.02 E.02598
G1 X68.044 Y174.29 E.17361
G1 X67.703 Y174.759 E.0191
G1 E-1.2 F2400
;WIPE_START
G1 F1800
G1 X68.044 Y174.29
G1 X68.044 Y172.87
;WIPE_END
G1 X64.356 Y171.889 Z.4 F9000
G1 X45.036 Y166.752 Z.4
G1 Z.2
G1 E1.2 F1800
;TYPE:Inner wall
;WIDTH:0.459999
G1 X45.036 Y158.346 E.27694
G1 X73.442 Y158.346 E.93587
G1 X73.442 Y166.752 E.27694
G1 X45.076 Y166.752 E.93455
G1 X44.619 Y167.169 F9000
;TYPE:Outer wall
G1 F1800
G1 X44.619 Y157.929 E.30442
G1 X73.859 Y157.929 E.96335
G1 X73.859 Y167.169 E.30442
G1 X44.659 Y167.169 E.96203
G1 E-1.2 F2400
;WIPE_START
G1 F1800
G1 X44.651 Y165.169
;WIPE_END
G1 X48.39 Y164.406 Z.4 F9000
G1 X73.317 Y159.324 Z.4
G1 Z.2
G1 E1.2 F1800
;TYPE:Bottom surface
;WIDTH:0.464803
G1 F4800
G1 X72.651 Y158.659 E.03137
G1 X72.055 Y158.659 E.01988
G1 X73.129 Y159.733 E.05064
G1 X73.129 Y160.33 E.01988
G1 X71.458 Y158.659 E.07876
G1 X70.862 Y158.659 E.01988
G1 X73.129 Y160.926 E.10688
G1 X73.129 Y161.523 E.01988
G1 X70.265 Y158.659 E.135
G1 X69.668 Y158.659 E.01988
G1 X73.129 Y162.12 E.16312
G1 X73.129 Y162.716 E.01988
G1 X69.072 Y158.659 E.19124
G1 X68.475 Y158.659 E.01988
G1 X73.129 Y163.313 E.21936
G1 X73.129 Y163.91 E.01988
G1 X67.878 Y158.659 E.24748
G1 X67.282 Y158.659 E.01988
G1 X73.129 Y164.506 E.2756
G1 X73.129 Y165.103 E.01988
G1 X66.685 Y158.659 E.30372
G1 X66.088 Y158.659 E.01988
G1 X73.129 Y165.699 E.33184
G1 X73.129 Y166.296 E.01988
G1 X65.492 Y158.659 E.35995
G1 X64.895 Y158.659 E.01988
G1 X72.675 Y166.439 E.36668
G1 X72.079 Y166.439 E.01988
G1 X64.299 Y158.659 E.36668
G1 X63.702 Y158.659 E.01988
G1 X71.482 Y166.439 E.36668
G1 X70.886 Y166.439 E.01988
G1 X63.105 Y158.659 E.36668
G1 X62.509 Y158.659 E.01988
G1 X70.289 Y166.439 E.36668
G1 X69.692 Y166.439 E.01988
G1 X61.912 Y158.659 E.36668
G1 X61.315 Y158.659 E.01988
G1 X69.096 Y166.439 E.36668
G1 X68.499 Y166.439 E.01988
G1 X60.719 Y158.659 E.36668
G1 X60.122 Y158.659 E.01988
G1 X67.902 Y166.439 E.36668
G1 X67.306 Y166.439 E.01988
G1 X59.526 Y158.659 E.36668
G1 X58.929 Y158.659 E.01988
G1 X66.709 Y166.439 E.36668
G1 X66.113 Y166.439 E.01988
G1 X58.332 Y158.659 E.36668
G1 X57.736 Y158.659 E.01988
G1 X65.516 Y166.439 E.36668
G1 X64.919 Y166.439 E.01988
G1 X57.139 Y158.659 E.36668
G1 X56.542 Y158.659 E.01988
G1 X64.323 Y166.439 E.36668
G1 X63.726 Y166.439 E.01988
G1 X55.946 Y158.659 E.36668
G1 X55.349 Y158.659 E.01988
G1 X63.129 Y166.439 E.36668
G1 X62.533 Y166.439 E.01988
G1 X54.752 Y158.659 E.36668
G1 X54.156 Y158.659 E.01988
G1 X61.936 Y166.439 E.36668
G1 X61.339 Y166.439 E.01988
G1 X53.559 Y158.659 E.36668
G1 X52.963 Y158.659 E.01988
G1 X60.743 Y166.439 E.36668
G1 X60.146 Y166.439 E.01988
G1 X52.366 Y158.659 E.36668
G1 X51.769 Y158.659 E.01988
G1 X59.55 Y166.439 E.36668
G1 X58.953 Y166.439 E.01988
G1 X51.173 Y158.659 E.36668
G1 X50.576 Y158.659 E.01988
G1 X58.356 Y166.439 E.36668
G1 X57.76 Y166.439 E.01988
G1 X49.979 Y158.659 E.36668
G1 X49.383 Y158.659 E.01988
G1 X57.163 Y166.439 E.36668
G1 X56.566 Y166.439 E.01988
G1 X48.786 Y158.659 E.36668
G1 X48.19 Y158.659 E.01988
G1 X55.97 Y166.439 E.36668
G1 X55.373 Y166.439 E.01988
G1 X47.593 Y158.659 E.36668
G1 X46.996 Y158.659 E.01988
G1 X54.776 Y166.439 E.36668
G1 X54.18 Y166.439 E.01988
G1 X46.4 Y158.659 E.36668
G1 X45.803 Y158.659 E.01988
G1 X53.583 Y166.439 E.36668
G1 X52.987 Y166.439 E.01988
G1 X45.349 Y158.801 E.35995
G1 X45.349 Y159.398 E.01988
G1 X52.39 Y166.439 E.33183
G1 X51.793 Y166.439 E.01988
G1 X45.349 Y159.995 E.30371
G1 X45.349 Y160.591 E.01988
G1 X51.197 Y166.439 E.27559
G1 X50.6 Y166.439 E.01988
G1 X45.349 Y161.188 E.24747
G1 X45.349 Y161.785 E.01988
G1 X50.003 Y166.439 E.21935
G1 X49.407 Y166.439 E.01988
G1 X45.349 Y162.381 E.19124
G1 X45.349 Y162.978 E.01988
G1 X48.81 Y166.439 E.16312
G1 X48.214 Y166.439 E.01988
G1 X45.349 Y163.574 E.135
G1 X45.349 Y164.171 E.01988
G1 X47.617 Y166.439 E.10688
G1 X47.02 Y166.439 E.01988
G1 X45.349 Y164.768 E.07876
G1 X45.349 Y165.364 E.01988
G1 X46.424 Y166.439 E.05064
G1 X45.827 Y166.439 E.01988
G1 X45.161 Y165.773 E.03137
; stop printing object ClaudeMonet.stl id:0 copy 0
;TIME_ELAPSED:41.400085

M106 S255
;LAYER_CHANGE
;:0.32
;HEIGHT:0.12
;BEFORE_LAYER_CHANGE
;0.32
G92 E0

G1 E-1.2 F2400
;WIPE_START
G1 F4800
G1 X45.827 Y166.439
G1 X46.424 Y166.439
G1 X46.097 Y166.112
;WIPE_END
;_SET_FAN_SPEED_CHANGING_LAYER
M204 P2500
; OBJECT_ID: 378
; printing object ClaudeMonet.stl id:0 copy 0
M204 T2500
G1 X49.824 Y166.93 Z.4 F9000
G1 X62.039 Y169.611 Z.4
G1 Z.32
G1 E1.2 F1800
;TYPE:Support
;WIDTH:0.38
G1 F3000
G1 X62.278 Y169.42 E.00513
G1 X62.7 Y169.193 E.00806
G1 X63.157 Y169.045 E.00806
G1 X63.652 Y168.981 E.00837
G1 X63.669 Y168.601 E.00638
G1 X64.114 Y168.621 E.00749
G1 X64.702 Y168.747 E.01009
G1 X65.202 Y168.961 E.00914
G1 X65.66 Y169.263 E.00921
G1 X66.057 Y169.642 E.00921
G1 X66.379 Y170.086 E.00921
G1 X66.617 Y170.58 E.00921
G1 X66.763 Y171.109 E.00921
G1 X66.812 Y171.655 E.00921
G1 X66.763 Y172.201 E.00921
G1 X66.617 Y172.73 E.00921
G1 X66.379 Y173.224 E.00921
G1 X66.056 Y173.668 E.00921
G1 X65.66 Y174.047 E.00921
G1 X65.202 Y174.349 E.00921
G1 X64.698 Y174.564 E.00921
G1 X64.208 Y174.676 E.00843
G1 X63.612 Y174.711 E.01003
G1 X63.072 Y174.638 E.00915
G1 X62.55 Y174.468 E.00921
G1 X62.068 Y174.208 E.00921
G1 X61.639 Y173.866 E.00921
G1 X61.278 Y173.453 E.00921
G1 X60.997 Y172.982 E.00921
G1 X60.804 Y172.469 E.00921
G1 X60.706 Y171.929 E.00921
G1 X60.706 Y171.381 E.00921
G1 X60.804 Y170.841 E.00921
G1 X60.997 Y170.328 E.00921
G1 X61.278 Y169.857 E.00921
G1 X61.639 Y169.444 E.00921
G1 X62.067 Y169.102 E.00921
G1 X62.55 Y168.842 E.00921
G1 X63.072 Y168.673 E.00921
G1 X63.616 Y168.599 E.00921
G1 X64.163 Y168.243 F9000
G1 F3000
G1 X64.817 Y168.383 E.01124
G1 X65.383 Y168.625 E.01034
G1 X65.898 Y168.965 E.01036
G1 X66.344 Y169.391 E.01036
G1 X66.706 Y169.89 E.01036
G1 X66.974 Y170.446 E.01036
G1 X67.138 Y171.041 E.01036
G1 X67.193 Y171.655 E.01036
G1 X67.138 Y172.27 E.01036
G1 X66.974 Y172.864 E.01036
G1 X66.706 Y173.42 E.01036
G1 X66.344 Y173.919 E.01036
G1 X65.898 Y174.345 E.01036
G1 X65.383 Y174.685 E.01036
G1 X64.816 Y174.927 E.01036
G1 X64.262 Y175.054 E.00954
G1 X63.597 Y175.092 E.01118
G1 X62.987 Y175.009 E.01034
G1 X62.401 Y174.819 E.01036
G1 X61.857 Y174.527 E.01036
G1 X61.375 Y174.142 E.01036
G1 X60.969 Y173.678 E.01036
G1 X60.653 Y173.148 E.01036
G1 X60.436 Y172.571 E.01036
G1 X60.326 Y171.964 E.01036
G1 X60.326 Y171.347 E.01036
G1 X60.436 Y170.74 E.01036
G1 X60.653 Y170.162 E.01036
G1 X60.969 Y169.633 E.01036
G1 X61.375 Y169.168 E.01036
G1 X61.857 Y168.784 E.01036
G1 X62.4 Y168.491 E.01036
G1 X62.987 Y168.301 E.01036
G1 X63.598 Y168.218 E.01036
G1 X64.11 Y168.241 E.00859
G1 E-1.2 F2400
;WIPE_START
G1 F3000
G1 X63.598 Y168.218
G1 X62.987 Y168.301
G1 X62.4 Y168.491
G1 X62.176 Y168.612
;WIPE_END
G1 X58.378 Y168.243 Z.52 F9000
G1 X44.859 Y166.929 Z.52
G1 Z.32
G1 E1.2 F1800
M204 P2000
M205 X10 Y10
;TYPE:Inner wall
;WIDTH:0.449999
G1 F5400
G1 X44.859 Y158.168 E.17617
G1 X73.62 Y158.168 E.57831
G1 X73.62 Y166.929 E.17617
G1 X44.899 Y166.929 E.57752
M205 X8 Y8
G1 X44.576 Y167.339 F9000
M204 P1000
M205 X10 Y10
;TYPE:Outer wall
;WIDTH:0.419999
G1 F1560
G1 X44.449 Y167.212 E.00336
G1 X44.449 Y166.432 E.01457
G1 X44.449 Y158.666 E.14511
G1 X44.449 Y157.886 E.01457
G1 X44.576 Y157.759 E.00336
G1 X45.356 Y157.759 E.01457
G1 X73.122 Y157.759 E.51882
G1 X73.902 Y157.759 E.01457
G1 X74.029 Y157.885 E.00334
G1 X74.029 Y158.665 E.01457
G1 X74.029 Y166.432 E.14513
G1 X74.029 Y167.212 E.01457
G1 X73.902 Y167.339 E.00336
G1 X73.122 Y167.339 E.01457
G1 X45.396 Y167.339 E.51808
G1 X44.616 Y167.339 E.01457
G1 E-1.2 F2400
;WIPE_START
G1 F1560
G1 X44.449 Y167.212
G1 X44.449 Y165.421
;WIPE_END
M205 X8 Y8
G1 X44.92 Y161.634 Z.52 F9000
G1 X45.304 Y158.543 Z.52
G1 Z.32
G1 E1.2 F1800
M204 P2500
M205 X10 Y10
;TYPE:Internal solid infill
;WIDTH:0.441106
G1 F10800
G1 X45.252 Y158.543 E.00102
G1 X45.226 Y158.588 E.00102
G1 X45.252 Y158.633 E.00102
G1 X45.31 Y158.622 E.00116
M205 X8 Y8
G1 X71.185 Y166.761 F9000
M205 X10 Y10
;WIDTH:0.421291
G1 F10800
G1 X73.274 Y164.672 E.05539
G1 X73.274 Y164.113 E.01049
G1 X70.803 Y166.584 E.06552
G1 X70.244 Y166.584 E.01049
G1 X73.274 Y163.553 E.08035
G1 X73.274 Y162.994 E.01049
G1 X69.684 Y166.584 E.09518
G1 X69.125 Y166.584 E.01049
G1 X73.274 Y162.435 E.11001
G1 X73.274 Y161.875 E.01049
G1 X68.566 Y166.584 E.12484
G1 X68.006 Y166.584 E.01049
G1 X73.274 Y161.316 E.13967
G1 X73.274 Y160.756 E.01049
G1 X67.447 Y166.584 E.1545
G1 X66.887 Y166.584 E.01049
G1 X73.274 Y160.197 E.16932
G1 X73.274 Y159.638 E.01049
G1 X66.328 Y166.584 E.18415
G1 X65.769 Y166.584 E.01049
G1 X73.274 Y159.078 E.19898
G1 X73.274 Y158.519 E.01049
G1 X65.209 Y166.584 E.21381
G1 X64.65 Y166.584 E.01049
G1 X72.72 Y158.514 E.21396
G1 X72.161 Y158.514 E.01049
G1 X64.091 Y166.584 E.21396
G1 X63.531 Y166.584 E.01049
G1 X71.601 Y158.514 E.21396
G1 X71.042 Y158.514 E.01049
G1 X62.972 Y166.584 E.21396
G1 X62.412 Y166.584 E.01049
G1 X70.483 Y158.514 E.21396
G1 X69.923 Y158.514 E.01049
G1 X61.853 Y166.584 E.21396
G1 X61.294 Y166.584 E.01049
G1 X69.364 Y158.514 E.21396
G1 X68.805 Y158.514 E.01049
G1 X60.734 Y166.584 E.21396
G1 X60.175 Y166.584 E.01049
G1 X68.245 Y158.514 E.21396
G1 X67.686 Y158.514 E.01049
G1 X59.616 Y166.584 E.21396
G1 X59.056 Y166.584 E.01049
G1 X67.126 Y158.514 E.21396
G1 X66.567 Y158.514 E.01049
G1 X58.497 Y166.584 E.21396
G1 X57.937 Y166.584 E.01049
G1 X66.008 Y158.514 E.21396
G1 X65.448 Y158.514 E.01049
G1 X57.378 Y166.584 E.21396
G1 X56.819 Y166.584 E.01049
G1 X64.889 Y158.514 E.21396
G1 X64.33 Y158.514 E.01049
G1 X56.259 Y166.584 E.21396
G1 X55.7 Y166.584 E.01049
G1 X63.77 Y158.514 E.21396
G1 X63.211 Y158.514 E.01049
G1 X55.141 Y166.584 E.21396
G1 X54.581 Y166.584 E.01049
G1 X62.651 Y158.514 E.21396
G1 X62.092 Y158.514 E.01049
G1 X54.022 Y166.584 E.21396
G1 X53.462 Y166.584 E.01049
G1 X61.533 Y158.514 E.21396
G1 X60.973 Y158.514 E.01049
G1 X52.903 Y166.584 E.21396
G1 X52.344 Y166.584 E.01049
G1 X60.414 Y158.514 E.21396
G1 X59.855 Y158.514 E.01049
G1 X51.784 Y166.584 E.21396
G1 X51.225 Y166.584 E.01049
G1 X59.295 Y158.514 E.21396
G1 X58.736 Y158.514 E.01049
G1 X50.666 Y166.584 E.21396
G1 X50.106 Y166.584 E.01049
G1 X58.176 Y158.514 E.21396
G1 X57.617 Y158.514 E.01049
G1 X49.547 Y166.584 E.21396
G1 X48.987 Y166.584 E.01049
G1 X57.058 Y158.514 E.21396
G1 X56.498 Y158.514 E.01049
G1 X48.428 Y166.584 E.21396
G1 X47.869 Y166.584 E.01049
G1 X55.939 Y158.514 E.21396
G1 X55.38 Y158.514 E.01049
G1 X47.309 Y166.584 E.21396
G1 X46.75 Y166.584 E.01049
G1 X54.82 Y158.514 E.21396
G1 X54.261 Y158.514 E.01049
G1 X46.19 Y166.584 E.21396
G1 X45.631 Y166.584 E.01049
G1 X53.701 Y158.514 E.21396
G1 X53.142 Y158.514 E.01049
G1 X45.204 Y166.451 E.21045
G1 X45.204 Y165.892 E.01049
G1 X52.583 Y158.514 E.19562
G1 X52.023 Y158.514 E.01049
G1 X45.204 Y165.333 E.18079
G1 X45.204 Y164.773 E.01049
G1 X51.464 Y158.514 E.16596
G1 X50.905 Y158.514 E.01049
G1 X45.204 Y164.214 E.15113
G1 X45.204 Y163.655 E.01049
G1 X50.345 Y158.514 E.1363
G1 X49.786 Y158.514 E.01049
G1 X45.204 Y163.095 E.12147
G1 X45.204 Y162.536 E.01049
G1 X49.226 Y158.514 E.10664
G1 X48.667 Y158.514 E.01049
G1 X45.204 Y161.976 E.09181
G1 X45.204 Y161.417 E.01049
G1 X48.108 Y158.514 E.07698
G1 X47.548 Y158.514 E.01049
G1 X45.204 Y160.858 E.06215
G1 X45.204 Y160.298 E.01049
G1 X46.989 Y158.514 E.04732
G1 X46.43 Y158.514 E.01049
G1 X45.204 Y159.739 E.03249
G1 X45.204 Y159.18 E.01049
G1 X46.048 Y158.336 E.02236
M205 X8 Y8
G1 X71.929 Y166.52 F9000
M205 X10 Y10
;WIDTH:0.419999
G1 F10800
G1 X73.211 Y166.52 E.02395
G1 X73.211 Y165.238 E.02395
G1 X71.957 Y166.492 E.03313
M205 X8 Y8
