;TIME:3250.33
;Filament used:1.82824m
;Layer height:0.200
; HEADER_BLOCK_START
; generated by Creality_Print V7.0.0.4127 on 2026-03-01 at 16:46:56
; total layer number: 477
; filament_density: 1.24,1.24,1.24,1.24
; filament_diameter: 1.75,1.75,1.75,1.75
; max_z_height: 30.20
; creality_uuid: f16ea009-24d0-45cb-8bbf-45e8877fdc93
; HEADER_BLOCK_END

; MINX = 47.26
; MINY = 69.20
; MINZ = 0.00
; MAXX = 177.13
; MAXY = 172.63
; MAXZ = 30.25

; multicolor_method = 0 
; THUMBNAIL_BLOCK_START

;
; THUMBNAIL_BLOCK_END

; THUMBNAIL_BLOCK_START

;
; THUMBNAIL_BLOCK_END

; external perimeters extrusion width = 0.42mm
; perimeters extrusion width = 0.45mm
; infill extrusion width = 0.45mm
; solid infill extrusion width = 0.42mm
; top infill extrusion width = 0.42mm
; support material extrusion width = 0.38mm
; first layer extrusion width = 0.46mm

; external perimeters extrusion width = 0.42mm
; perimeters extrusion width = 0.45mm
; infill extrusion width = 0.45mm
; solid infill extrusion width = 0.42mm
; top infill extrusion width = 0.42mm
; support material extrusion width = 0.38mm
; first layer extrusion width = 0.46mm

; EXECUTABLE_BLOCK_START
M73 P0 R54
M201 X5000 Y5000 Z500 E5000
M203 X500 Y500 Z30 E100
M204 P5000 R2500 T5000 ; sets acceleration (P, T) and retract acceleration (R), mm/sec^2
M205 X10.00 Y10.00 Z0.40 E5.00 ; sets the jerk limits, mm/sec
; max_print_temp = 60,190
;TYPE:Custom
M220 S100 ;Reset Feedrate 
M221 S100 ;Reset Flowrate 
 
M140 S60 ;Set final bed temp 
G28 ;Home 
 
G92 E0 ;Reset Extruder 
G1 Z2.0 F3000 ;Move Z Axis up 
M104 S190 ;Set final nozzle temp 
G1 X-2.1 Y20 Z0.28 F5000.0 ;Move to start position 
M190 S60 ;Wait for bed temp to stabilize 
M109 S190 ;Wait for nozzle temp to stabilize 
G1 X-2.1 Y145.0 Z0.28 F1500.0 E15 ;Draw the first line 
G1 X-2.4 Y145.0 Z0.28 F5000.0 ;Move to side a little 
G1 X-2.4 Y20 Z0.28 F1500.0 E30 ;Draw the second line 
G92 E0  ;Reset Extruder 
G1 E-1.0000 F1800 ;Retract a bit 
G1 Z2.0 F3000 ;Move Z Axis up 
G1 E0.0000 F1800
G90
G21
M83 ; use relative distances for extrusion
;filament start gcode
; MANUAL_TOOL_CHANGE T0
G1 E-1.2 F2400
M106 S0
;LAYER_CHANGE
;:0.2
;HEIGHT:0.2
;BEFORE_LAYER_CHANGE
;0.2
G92 E0

;_SET_FAN_SPEED_CHANGING_LAYER
M204 P500
M205 X8 Y8
; OBJECT_ID: 458
; printing object Michelangelo.stl id:0 copy 0
M204 T500
G1 X59.095 Y150.956 Z.2 F9000
G1 E1.2 F1800
;TYPE:Support
;WIDTH:0.46
M73 P0 R53
G1 X59.443 Y150.972 E.01146
G1 X60.39 Y151.188 E.032
G1 X61.283 Y151.569 E.032
G1 X61.408 Y151.652 E.00494
G1 X61.953 Y151.359 E.02039
G1 X62.877 Y151.059 E.032
G1 X63.839 Y150.928 E.032
G1 X64.81 Y150.972 E.032
G1 X65.757 Y151.188 E.032
G1 X66.65 Y151.57 E.032
G1 X67.46 Y152.105 E.032
G1 X68.162 Y152.776 E.032
G1 X68.733 Y153.562 E.032
G1 X69.155 Y154.437 E.032
G1 X69.413 Y155.373 E.032
G1 X69.5 Y156.341 E.032
G1 X69.413 Y157.308 E.032
G1 X69.154 Y158.244 E.032
G1 X68.733 Y159.12 E.032
G1 X68.162 Y159.905 E.032
G1 X67.889 Y160.166 E.01245
G1 X54.893 Y160.166 E.42817
G1 X54.333 Y159.525 E.02807
G1 X53.834 Y158.691 E.032
G1 X53.493 Y157.782 E.032
G1 X53.32 Y156.826 E.032
G1 X53.32 Y155.855 E.032
G1 X53.493 Y154.899 E.032
G1 X53.834 Y153.99 E.032
G1 X54.333 Y153.156 E.032
G1 X54.972 Y152.424 E.032
G1 X55.731 Y151.819 E.032
G1 X56.586 Y151.359 E.032
G1 X57.51 Y151.058 E.032
G1 X58.473 Y150.928 E.032
G1 X59.033 Y150.953 E.01848
G1 X68.408 Y153.752 F9000
G1 F1800
G1 X68.748 Y154.459 E.02584
G1 X68.748 Y158.223 E.12401
G1 X68.41 Y158.926 E.02573
G1 X68.285 Y159.098 E.00698
G1 X68.285 Y153.584 E.18167
G1 X67.879 Y153.024 E.02278
G1 X67.822 Y152.97 E.0026
G1 X67.822 Y159.712 E.22212
G1 X67.739 Y159.791 E.00378
G1 X67.358 Y159.791 E.01253
G1 X67.358 Y152.527 E.23933
G1 X67.225 Y152.4 E.00605
G1 X66.895 Y152.181 E.01305
G1 X66.895 Y159.791 E.25071
G1 X66.431 Y159.791 E.01527
G1 X66.431 Y151.885 E.26048
G1 X65.968 Y151.687 E.0166
G1 X65.968 Y159.791 E.26701
G1 X65.504 Y159.791 E.01527
G1 X65.504 Y151.516 E.27264
G1 X65.041 Y151.41 E.01566
G1 X65.041 Y159.791 E.27613
G1 X64.578 Y159.791 E.01527
G1 X64.578 Y151.337 E.27852
G1 X64.114 Y151.316 E.01528
G1 X64.114 Y159.791 E.2792
G1 X63.859 Y159.791 E.0084
G1 X60.678 Y151.719 F9000
G1 F1800
G1 X60.407 Y151.603 E.00973
G1 X60.407 Y159.791 E.26976
G1 X60.87 Y159.791 E.01527
G1 X60.87 Y151.801 E.26323
G1 X61.104 Y151.901 E.00839
G1 X61.334 Y152.053 E.00905
G1 X61.334 Y159.791 E.25494
G1 X61.797 Y159.791 E.01527
G1 X61.797 Y151.869 E.261
G1 X62.101 Y151.705 E.01137
G1 X62.26 Y151.654 E.00552
G1 X62.26 Y159.791 E.26809
G1 X62.724 Y159.791 E.01527
G1 X62.724 Y151.503 E.27305
G1 X62.961 Y151.426 E.0082
G1 X63.187 Y151.395 E.00754
G1 X63.187 Y159.791 E.2766
G1 X63.651 Y159.791 E.01527
G1 X63.651 Y151.333 E.27867
G1 X63.394 Y151.367 E.00854
G1 X57.371 Y159.791 F9000
G1 F1800
G1 X57.626 Y159.791 E.0084
G1 X57.626 Y151.421 E.27574
G1 X58.09 Y151.359 E.01541
G1 X58.09 Y159.791 E.27781
G1 X58.553 Y159.791 E.01527
G1 X58.553 Y151.307 E.2795
G1 X59.017 Y151.328 E.01528
G1 X59.017 Y159.791 E.27882
G1 X59.48 Y159.791 E.01527
G1 X59.48 Y151.365 E.2776
G1 X59.943 Y151.471 E.01566
G1 X59.943 Y159.791 E.27412
G1 X59.688 Y159.791 E.0084
G1 X54.709 Y159.385 F9000
G1 F1800
G1 X54.637 Y159.303 E.00356
G1 X54.382 Y158.876 E.01639
G1 X54.382 Y153.804 E.16709
G1 X54.637 Y153.377 E.01639
G1 X54.846 Y153.139 E.01043
G1 X54.846 Y159.542 E.21094
G1 X55.064 Y159.791 E.01091
G1 X55.309 Y159.791 E.00809
G1 X55.309 Y152.635 E.23575
G1 X55.773 Y152.266 E.01953
G1 X55.773 Y159.791 E.24793
G1 X56.236 Y159.791 E.01527
G1 X56.236 Y151.973 E.25756
G1 X56.699 Y151.724 E.01734
G1 X56.699 Y159.791 E.26578
G1 X57.163 Y159.791 E.01527
G1 X57.163 Y151.566 E.27098
G1 X56.895 Y151.653 E.00928
G1 X53.816 Y157.456 F9000
G1 F1800
G1 X53.856 Y157.681 E.00754
G1 X53.919 Y157.848 E.00586
G1 X53.919 Y154.833 E.09933
G1 X53.856 Y154.999 E.00586
G1 X53.816 Y155.225 E.00755
G1 E-1.2 F2400
;WIPE_START
G1 F1800
G1 X53.856 Y154.999
G1 X53.919 Y154.833
G1 X53.919 Y156.426
;WIPE_END
G1 X56.324 Y159.389 Z.4 F9000
G1 X65.787 Y171.051 Z.4
G1 Z.2
G1 E1.2 F1800
G1 X66.36 Y171.807 E.03127
G1 X66.784 Y172.657 E.03128
G1 X67.045 Y173.57 E.03128
G1 X67.133 Y174.515 E.03129
G1 X67.047 Y175.461 E.0313
G1 X66.788 Y176.375 E.0313
G1 X66.366 Y177.227 E.03131
G1 X65.794 Y177.986 E.03132
G1 X65.092 Y178.627 E.03132
G1 X64.284 Y179.129 E.03133
G1 X63.397 Y179.473 E.03133
G1 X62.462 Y179.648 E.03134
G1 X61.511 Y179.649 E.03134
G1 X60.576 Y179.474 E.03134
G1 X59.689 Y179.13 E.03134
G1 X58.881 Y178.629 E.03134
G1 X58.178 Y177.988 E.03134
G1 X57.605 Y177.229 E.03133
G1 X57.182 Y176.377 E.03133
G1 X56.923 Y175.462 E.03132
G1 X56.836 Y174.516 E.03132
G1 X56.925 Y173.57 E.03131
G1 X57.186 Y172.656 E.0313
G1 X57.611 Y171.806 E.03129
G1 X58.184 Y171.049 E.03129
G1 X58.539 Y170.726 E.01581
G1 X65.431 Y170.726 E.22705
G1 X65.741 Y171.008 E.01381
G1 X66.08 Y172.087 F9000
G1 F1800
G1 X66.431 Y172.791 E.02594
G1 X66.431 Y176.251 E.11397
G1 X66.045 Y177.029 E.02862
G1 X65.968 Y177.131 E.00423
G1 X65.968 Y171.912 E.17196
G1 X65.504 Y171.301 E.02526
G1 X65.504 Y177.742 E.21221
G1 X65.041 Y178.165 E.02068
G1 X65.041 Y171.102 E.23273
G1 X64.578 Y171.102 E.01527
G1 X64.578 Y178.505 E.2439
G1 X64.887 Y178.306 E.01212
G1 X64.369 Y171.102 F9000
G1 F1800
G1 X64.114 Y171.102 E.0084
G1 X64.114 Y178.792 E.25337
G1 X63.651 Y178.972 E.01638
G1 X63.651 Y171.102 E.2593
G1 X63.187 Y171.102 E.01527
G1 X63.187 Y179.13 E.26452
G1 X63.294 Y179.11 E.00357
G1 X63.456 Y179.047 E.00574
G1 X62.979 Y171.102 F9000
G1 F1800
G1 X62.724 Y171.102 E.0084
G1 X62.724 Y179.217 E.26738
G1 X62.428 Y179.273 E.00993
G1 X62.26 Y179.273 E.0055
G1 X62.26 Y171.102 E.26921
G1 X61.797 Y171.102 E.01527
G1 X61.797 Y179.273 E.26922
G1 X61.546 Y179.273 E.00827
G1 X61.334 Y179.234 E.00712
G1 X61.334 Y171.102 E.26792
G1 X60.87 Y171.102 E.01527
G1 X60.87 Y179.147 E.26506
G1 X60.679 Y179.111 E.0064
G1 X60.407 Y179.006 E.00963
G1 X60.407 Y171.102 E.26041
G1 X59.943 Y171.102 E.01527
G1 X59.943 Y178.826 E.25449
G1 X59.857 Y178.793 E.00304
G1 X59.48 Y178.559 E.01462
G1 X59.48 Y171.102 E.24569
G1 X59.017 Y171.102 E.01527
G1 X59.017 Y178.245 E.23535
G1 X58.553 Y177.822 E.02067
G1 X58.553 Y171.221 E.21748
G1 X58.462 Y171.304 E.00404
G1 X58.09 Y171.796 E.02035
G1 X58.09 Y177.247 E.17961
G1 X57.926 Y177.031 E.00895
G1 X57.626 Y176.427 E.0222
G1 X57.626 Y172.616 E.12557
G1 X57.964 Y171.962 E.02424
G1 E-1.2 F2400
;WIPE_START
G1 F1800
G1 X57.626 Y172.616
G1 X57.626 Y173.88
;WIPE_END
G1 X60.795 Y171.754 Z.4 F9000
G1 X76.463 Y161.243 Z.4
G1 Z.2
M73 P1 R53
G1 E1.2 F1800
;TYPE:Inner wall
;WIDTH:0.459999
G1 X76.463 Y169.649 E.27694
G1 X48.058 Y169.649 E.93587
G1 X48.058 Y161.243 E.27694
G1 X76.423 Y161.243 E.93455
G1 X76.88 Y160.826 F9000
;TYPE:Outer wall
G1 F1800
G1 X76.88 Y170.066 E.30442
G1 X47.64 Y170.066 E.96335
G1 X47.64 Y160.826 E.30442
G1 X76.84 Y160.826 E.96203
G1 E-1.2 F2400
;WIPE_START
G1 F1800
G1 X76.849 Y162.826
;WIPE_END
G1 X76.338 Y162.222 Z.4 F9000
G1 Z.2
G1 E1.2 F1800
;TYPE:Bottom surface
;WIDTH:0.464803
G1 F4800
G1 X75.673 Y161.556 E.03137
G1 X75.076 Y161.556 E.01988
G1 X76.151 Y162.631 E.05064
G1 X76.151 Y163.227 E.01988
G1 X74.479 Y161.556 E.07876
G1 X73.883 Y161.556 E.01988
G1 X76.151 Y163.824 E.10688
G1 X76.151 Y164.421 E.01988
G1 X73.286 Y161.556 E.135
G1 X72.689 Y161.556 E.01988
G1 X76.151 Y165.017 E.16312
G1 X76.151 Y165.614 E.01988
G1 X72.093 Y161.556 E.19124
G1 X71.496 Y161.556 E.01988
G1 X76.151 Y166.211 E.21936
G1 X76.151 Y166.807 E.01988
G1 X70.9 Y161.556 E.24748
G1 X70.303 Y161.556 E.01988
G1 X76.151 Y167.404 E.2756
G1 X76.151 Y168 E.01988
G1 X69.706 Y161.556 E.30372
G1 X69.11 Y161.556 E.01988
G1 X76.151 Y168.597 E.33184
G1 X76.151 Y169.194 E.01988
G1 X68.513 Y161.556 E.35995
G1 X67.916 Y161.556 E.01988
G1 X75.697 Y169.336 E.36668
G1 X75.1 Y169.336 E.01988
G1 X67.32 Y161.556 E.36668
G1 X66.723 Y161.556 E.01988
G1 X74.503 Y169.336 E.36668
G1 X73.907 Y169.336 E.01988
G1 X66.127 Y161.556 E.36668
G1 X65.53 Y161.556 E.01988
G1 X73.31 Y169.336 E.36668
G1 X72.713 Y169.336 E.01988
G1 X64.933 Y161.556 E.36668
G1 X64.337 Y161.556 E.01988
G1 X72.117 Y169.336 E.36668
G1 X71.52 Y169.336 E.01988
G1 X63.74 Y161.556 E.36668
G1 X63.143 Y161.556 E.01988
G1 X70.924 Y169.336 E.36668
G1 X70.327 Y169.336 E.01988
G1 X62.547 Y161.556 E.36668
G1 X61.95 Y161.556 E.01988
G1 X69.73 Y169.336 E.36668
G1 X69.134 Y169.336 E.01988
G1 X61.353 Y161.556 E.36668
G1 X60.757 Y161.556 E.01988
G1 X68.537 Y169.336 E.36668
G1 X67.94 Y169.336 E.01988
G1 X60.16 Y161.556 E.36668
G1 X59.564 Y161.556 E.01988
G1 X67.344 Y169.336 E.36668
G1 X66.747 Y169.336 E.01988
G1 X58.967 Y161.556 E.36668
G1 X58.37 Y161.556 E.01988
G1 X66.151 Y169.336 E.36668
G1 X65.554 Y169.336 E.01988
G1 X57.774 Y161.556 E.36668
G1 X57.177 Y161.556 E.01988
G1 X64.957 Y169.336 E.36668
G1 X64.361 Y169.336 E.01988
G1 X56.58 Y161.556 E.36668
G1 X55.984 Y161.556 E.01988
G1 X63.764 Y169.336 E.36668
G1 X63.167 Y169.336 E.01988
G1 X55.387 Y161.556 E.36668
G1 X54.79 Y161.556 E.01988
G1 X62.571 Y169.336 E.36668
G1 X61.974 Y169.336 E.01988
G1 X54.194 Y161.556 E.36668
G1 X53.597 Y161.556 E.01988
G1 X61.377 Y169.336 E.36668
G1 X60.781 Y169.336 E.01988
G1 X53.001 Y161.556 E.36668
G1 X52.404 Y161.556 E.01988
G1 X60.184 Y169.336 E.36668
G1 X59.588 Y169.336 E.01988
G1 X51.807 Y161.556 E.36668
G1 X51.211 Y161.556 E.01988
G1 X58.991 Y169.336 E.36668
G1 X58.394 Y169.336 E.01988
G1 X50.614 Y161.556 E.36668
G1 X50.017 Y161.556 E.01988
G1 X57.798 Y169.336 E.36668
G1 X57.201 Y169.336 E.01988
G1 X49.421 Y161.556 E.36668
G1 X48.824 Y161.556 E.01988
G1 X56.604 Y169.336 E.36668
G1 X56.008 Y169.336 E.01988
G1 X48.37 Y161.699 E.35995
G1 X48.37 Y162.296 E.01988
G1 X55.411 Y169.336 E.33183
G1 X54.815 Y169.336 E.01988
G1 X48.37 Y162.892 E.30371
G1 X48.37 Y163.489 E.01988
G1 X54.218 Y169.336 E.27559
G1 X53.621 Y169.336 E.01988
G1 X48.37 Y164.086 E.24747
G1 X48.37 Y164.682 E.01988
G1 X53.025 Y169.336 E.21935
G1 X52.428 Y169.336 E.01988
G1 X48.37 Y165.279 E.19124
G1 X48.37 Y165.875 E.01988
G1 X51.831 Y169.336 E.16312
G1 X51.235 Y169.336 E.01988
G1 X48.37 Y166.472 E.135
G1 X48.37 Y167.069 E.01988
G1 X50.638 Y169.336 E.10688
G1 X50.041 Y169.336 E.01988
G1 X48.37 Y167.665 E.07876
G1 X48.37 Y168.262 E.01988
G1 X49.445 Y169.336 E.05064
G1 X48.848 Y169.336 E.01988
G1 X48.183 Y168.671 E.03137
; stop printing object Michelangelo.stl id:0 copy 0
;TIME_ELAPSED:53.590645

M106 S255
;LAYER_CHANGE
;:0.32
;HEIGHT:0.12
;BEFORE_LAYER_CHANGE
;0.32
G92 E0

G1 E-1.2 F2400
;WIPE_START
G1 F4800
G1 X48.848 Y169.336
G1 X49.445 Y169.336
G1 X49.118 Y169.01
;WIPE_END
;_SET_FAN_SPEED_CHANGING_LAYER
M204 P2500
; OBJECT_ID: 458
; printing object Michelangelo.stl id:0 copy 0
M204 T2500
G1 X52.717 Y170.278 Z.4 F9000
G1 X60.196 Y172.915 Z.4
G1 Z.32
G1 E1.2 F1800
;TYPE:Support
;WIDTH:0.38
G1 F3000
G1 X60.537 Y172.599 E.0078
G1 X60.914 Y172.366 E.00744
G1 X61.298 Y172.226 E.00685
G1 X61.74 Y172.153 E.00753
G1 X61.741 Y171.773 E.00638
G1 X62.193 Y171.774 E.00758
G1 X62.7 Y171.864 E.00864
G1 X63.191 Y172.043 E.00878
G1 X63.646 Y172.309 E.00884
G1 X64.041 Y172.651 E.00877
G1 X64.356 Y173.054 E.0086
G1 X64.584 Y173.511 E.00856
G1 X64.725 Y174.005 E.00863
G1 X64.773 Y174.517 E.00863
G1 X64.726 Y175.029 E.00864
G1 X64.586 Y175.524 E.00864
G1 X64.358 Y175.985 E.00864
G1 X64.048 Y176.396 E.00864
G1 X63.668 Y176.743 E.00864
G1 X63.23 Y177.015 E.00865
G1 X62.75 Y177.201 E.00865
G1 X62.244 Y177.296 E.00865
G1 X61.729 Y177.297 E.00865
G1 X61.223 Y177.202 E.00865
G1 X60.742 Y177.016 E.00865
G1 X60.304 Y176.745 E.00865
G1 X59.924 Y176.397 E.00865
G1 X59.614 Y175.986 E.00865
G1 X59.385 Y175.525 E.00865
G1 X59.244 Y175.029 E.00864
G1 X59.198 Y174.517 E.00864
G1 X59.246 Y174.005 E.00864
G1 X59.387 Y173.51 E.00864
G1 X59.617 Y173.05 E.00863
G1 X59.927 Y172.64 E.00863
G1 X60.308 Y172.294 E.00863
G1 X60.744 Y172.025 E.00861
G1 X61.199 Y171.857 E.00814
G1 X61.688 Y171.772 E.00833
G1 X62.227 Y171.394 F9000
G1 F3000
G1 X62.799 Y171.496 E.00975
G1 X63.353 Y171.698 E.00991
G1 X63.867 Y171.999 E.01
G1 X64.318 Y172.387 E.00999
G1 X64.679 Y172.851 E.00986
G1 X64.939 Y173.372 E.00979
G1 X65.1 Y173.934 E.00981
G1 X65.155 Y174.516 E.00981
G1 X65.102 Y175.098 E.00982
G1 X64.942 Y175.661 E.00982
G1 X64.682 Y176.185 E.00982
G1 X64.33 Y176.653 E.00983
G1 X63.898 Y177.048 E.00983
G1 X63.401 Y177.356 E.00983
G1 X62.855 Y177.568 E.00983
G1 X62.28 Y177.676 E.00983
G1 X61.694 Y177.677 E.00983
G1 X61.118 Y177.569 E.00983
G1 X60.572 Y177.357 E.00983
G1 X60.074 Y177.049 E.00983
G1 X59.642 Y176.654 E.00983
G1 X59.289 Y176.187 E.00983
G1 X59.029 Y175.662 E.00983
G1 X58.869 Y175.099 E.00983
G1 X58.816 Y174.516 E.00982
G1 X58.871 Y173.934 E.00982
G1 X59.032 Y173.372 E.00982
G1 X59.293 Y172.849 E.00982
G1 X59.646 Y172.383 E.00981
G1 X60.078 Y171.99 E.00981
G1 X60.574 Y171.683 E.00979
G1 X61.101 Y171.489 E.00943
G1 X61.656 Y171.392 E.00946
G1 X62.174 Y171.394 E.00869
G1 E-1.2 F2400
;WIPE_START
G1 F3000
G1 X61.656 Y171.392
G1 X61.101 Y171.489
G1 X60.574 Y171.683
G1 X60.27 Y171.871
;WIPE_END
G1 X59.572 Y168.119 Z.52 F9000
G1 X57.002 Y154.296 Z.52
G1 Z.32
G1 E1.2 F1800
G1 F3000
G1 X57.241 Y154.106 E.00513
G1 X57.663 Y153.878 E.00806
G1 X58.12 Y153.73 E.00806
G1 X58.614 Y153.666 E.00837
G1 X58.631 Y153.287 E.00638
G1 X59.079 Y153.307 E.00752
G1 X59.664 Y153.432 E.01005
G1 X60.165 Y153.646 E.00915
G1 X60.623 Y153.949 E.00921
G1 X60.957 Y154.268 E.00777
G1 X61.765 Y154.292 E.01356
G1 X62.397 Y153.788 E.01358
G1 X62.88 Y153.528 E.00921
G1 X63.402 Y153.358 E.00921
G1 X63.945 Y153.285 E.00921
G1 X64.493 Y153.309 E.00921
G1 X65.028 Y153.431 E.00921
G1 X65.532 Y153.647 E.00921
G1 X65.99 Y153.949 E.00921
G1 X66.386 Y154.328 E.00921
G1 X66.708 Y154.772 E.00921
G1 X66.946 Y155.266 E.00921
G1 X67.092 Y155.795 E.00921
G1 X67.141 Y156.341 E.00921
G1 X67.092 Y156.887 E.00921
G1 X66.946 Y157.416 E.00921
G1 X66.708 Y157.91 E.00921
G1 X66.386 Y158.353 E.00921
G1 X65.99 Y158.732 E.00921
G1 X65.532 Y159.035 E.00921
G1 X65.028 Y159.25 E.00921
G1 X64.493 Y159.372 E.00921
G1 X63.945 Y159.397 E.00921
G1 X63.402 Y159.323 E.00921
G1 X62.88 Y159.154 E.00921
G1 X62.4 Y158.895 E.00915
G1 X61.694 Y158.318 E.01532
G1 X60.894 Y158.473 E.01368
