;FLAVOR:Marlin
;TIME:1896
;Filament used: 0.864637m
;Layer height: 0.2
;MINX:78.767
;MINY:78.7
;MINZ:0.2
;MAXX:142.818
;MAXY:137.421
;MAXZ:15.6
;TARGET_MACHINE.NAME:Creality Ender-3 Pro
;Generated with Cura_SteamEngine 5.11.0
; Ender 3 Custom Start G-code
G92 E0 ; Reset Extruder
G28 ; Home all axes
G1 Z5.0 F3000 ; Move Z Axis up a bit during heating to not damage bed
M104 S175 ; Start heating up the nozzle most of the way
M190 S60 ; Start heating the bed, wait until target temperature reached
M109 S200 ; Finish heating the nozzle
G1 Z2.0 F3000 ; Move Z Axis up little to prevent scratching of Heat Bed
G1 X0.1 Y20 Z0.3 F5000.0 ; Move to start position
G1 X0.1 Y200.0 Z0.3 F1500.0 E15 ; Draw the first line
G1 X0.4 Y200.0 Z0.3 F5000.0 ; Move to side a little
G1 X0.4 Y20 Z0.3 F1500.0 E30 ; Draw the second line
G92 E0 ; Reset Extruder
G1 Z2.0 F3000 ; Move Z Axis up little to prevent scratching of Heat Bed
G1 X5 Y20 Z0.3 F5000.0 ; Move over to prevent blob squish
M82 ;absolute extrusion mode
G92 E0
G92 E0
G1 F1500 E-6.5
;LAYER_COUNT:78
;LAYER:0
M107
G0 F6000 X88.976 Y82.729 Z0.2
;TYPE:SKIRT
G1 F1500 E0
G1 F1200 X89.482 Y82.187 E0.02466
G1 X90.178 Y81.507 E0.05703
G1 X90.903 Y80.912 E0.08822
G1 X91.738 Y80.344 E0.12181
G1 X92.59 Y79.87 E0.15424
G1 X93.48 Y79.474 E0.18664
G1 X94.402 Y79.158 E0.21905
G1 X95.388 Y78.917 E0.25281
G1 X96.348 Y78.771 E0.28511
G1 X97.205 Y78.713 E0.31368
G1 X97.812 Y78.7 E0.33387
G1 X121.804 Y78.7 E1.13185
G1 X122.678 Y78.713 E1.16092
G1 X123.504 Y78.758 E1.18844
G1 X124.468 Y78.89 E1.2208
G1 X125.417 Y79.106 E1.25317
G1 X126.343 Y79.405 E1.28553
G1 X127.176 Y79.756 E1.3156
G1 X128.1 Y80.246 E1.35038
G1 X128.915 Y80.778 E1.38276
G1 X129.653 Y81.358 E1.41397
G1 X130.37 Y82.031 E1.44668
G1 X131.31 Y83.13 E1.49478
G1 X131.609 Y83.552 E1.51198
G1 X132.047 Y84.199 E1.53797
G1 X133.537 Y86.335 E1.62459
G1 X135.028 Y88.346 E1.70786
G1 X136.589 Y90.335 E1.79195
G1 X138.788 Y92.957 E1.90577
G1 X139.352 Y93.674 E1.93611
G1 X139.567 Y93.973 E1.94836
G1 X140.083 Y94.762 E1.97971
G1 X140.556 Y95.642 E2.01294
G1 X141.019 Y96.634 E2.04935
G1 X141.452 Y97.807 E2.09094
G1 X141.819 Y99.036 E2.1336
G1 X142.04 Y99.886 E2.16281
G1 X142.153 Y100.435 E2.18146
G1 X142.285 Y101.196 E2.20715
G1 X142.399 Y101.941 E2.23221
G1 X142.458 Y102.406 E2.2478
G1 X142.556 Y103.351 E2.2794
G1 X142.626 Y104.276 E2.31026
G1 X142.735 Y106.119 E2.37166
G1 X142.767 Y106.913 E2.39809
G1 X142.806 Y108.391 E2.44727
G1 X142.818 Y109.359 E2.47946
G1 X142.817 Y110.838 E2.52866
G1 X142.803 Y111.809 E2.56096
G1 X142.763 Y113.275 E2.60973
G1 X142.732 Y113.977 E2.6331
G1 X142.63 Y115.752 E2.69224
G1 X142.498 Y117.301 E2.74394
G1 X142.356 Y118.421 E2.78149
G1 X142.264 Y118.99 E2.80067
G1 X142.106 Y119.855 E2.82991
G1 X142.004 Y120.312 E2.84549
G1 X141.784 Y121.149 E2.87427
G1 X141.523 Y122.041 E2.90518
G1 X141.097 Y123.21 E2.94656
G1 X140.815 Y123.866 E2.97031
G1 X140.615 Y124.302 E2.98627
G1 X140.153 Y125.169 E3.01894
G1 X139.62 Y125.998 E3.05172
G1 X139.043 Y126.782 E3.0841
G1 X138.448 Y127.461 E3.11413
G1 X137.967 Y127.935 E3.13659
G1 X137.123 Y128.701 E3.1745
G1 X136.356 Y129.308 E3.20703
G1 X135.435 Y129.908 E3.24359
G1 X135.081 Y130.105 E3.25706
G1 X134.366 Y130.47 E3.28376
G1 X132.513 Y131.376 E3.35237
G1 X130.32 Y132.527 E3.43474
G1 X128.097 Y133.774 E3.51952
G1 X126.102 Y134.957 E3.59666
G1 X125.643 Y135.192 E3.61381
G1 X125.512 Y135.274 E3.61895
G1 X124.99 Y135.518 E3.63812
G1 X124.355 Y135.784 E3.66102
G1 X123.958 Y135.936 E3.67515
G1 X122.708 Y136.331 E3.71876
G1 X121.878 Y136.539 E3.74722
G1 X121.274 Y136.674 E3.7678
G1 X120.684 Y136.782 E3.78775
G1 X119.748 Y136.925 E3.81924
G1 X118.739 Y137.049 E3.85305
G1 X117.905 Y137.129 E3.88092
G1 X115.882 Y137.271 E3.94837
G1 X114.122 Y137.351 E4.00697
G1 X112.917 Y137.385 E4.04706
G1 X110.528 Y137.421 E4.12653
G1 X108.172 Y137.407 E4.20489
G1 X105.951 Y137.351 E4.27879
G1 X104.021 Y137.259 E4.34305
G1 X102.2 Y137.13 E4.40377
G1 X101.183 Y137.03 E4.43776
G1 X100.327 Y136.925 E4.46644
G1 X99.444 Y136.792 E4.49614
G1 X98.803 Y136.674 E4.51782
G1 X98.253 Y136.555 E4.53654
G1 X97.519 Y136.377 E4.56166
G1 X96.453 Y136.053 E4.59872
G1 X94.465 Y135.336 E4.66901
G1 X92.017 Y134.531 E4.75472
G1 X89.675 Y133.833 E4.836
G1 X87.675 Y133.304 E4.90481
G1 X86.817 Y133.066 E4.93442
G1 X85.893 Y132.763 E4.96676
G1 X84.998 Y132.38 E4.99914
G1 X84.17 Y131.937 E5.03038
G1 X83.326 Y131.382 E5.06397
G1 X82.563 Y130.777 E5.09636
G1 X81.906 Y130.157 E5.12641
G1 X81.214 Y129.375 E5.16114
G1 X80.628 Y128.577 E5.19407
G1 X79.922 Y127.358 E5.24092
G1 X79.528 Y126.467 E5.27332
G1 X79.225 Y125.579 E5.30453
G1 X78.985 Y124.599 E5.33809
G1 X78.839 Y123.638 E5.37042
G1 X78.78 Y122.761 E5.39965
G1 X78.767 Y122.135 E5.42048
G1 X78.768 Y98.03 E6.22221
G1 X78.78 Y97.303 E6.2464
G1 X78.825 Y96.476 E6.27394
G1 X78.957 Y95.512 E6.3063
G1 X79.173 Y94.563 E6.33868
G1 X79.472 Y93.637 E6.37104
G1 X79.823 Y92.804 E6.4011
G1 X80.313 Y91.88 E6.43589
G1 X80.845 Y91.065 E6.46826
G1 X81.423 Y90.329 E6.49939
G1 X81.982 Y89.725 E6.52676
G1 X84.417 Y87.449 E6.63762
G1 X86.196 Y85.692 E6.72078
G1 X87.962 Y83.849 E6.80568
G1 X88.976 Y82.729 E6.85593
G0 F6000 X89.269 Y83.002
G1 F1200 X89.762 Y82.473 E6.87998
G1 X90.432 Y81.816 E6.91119
G1 X91.129 Y81.242 E6.94122
G1 X91.933 Y80.693 E6.9736
G1 X92.753 Y80.235 E7.00484
G1 X93.61 Y79.852 E7.03606
G1 X94.498 Y79.546 E7.0673
G1 X95.449 Y79.312 E7.09988
G1 X96.375 Y79.17 E7.13104
G1 X97.214 Y79.113 E7.159
G1 X97.821 Y79.1 E7.1792
G1 X121.798 Y79.1 E7.97668
G1 X122.657 Y79.112 E8.00525
G1 X123.45 Y79.154 E8.03166
G1 X124.38 Y79.28 E8.06288
G1 X125.295 Y79.487 E8.09408
G1 X126.188 Y79.774 E8.12528
G1 X127.021 Y80.125 E8.15534
G1 X127.882 Y80.581 E8.18775
G1 X128.668 Y81.093 E8.21895
G1 X129.379 Y81.65 E8.24899
G1 X130.096 Y82.323 E8.28169
G1 X130.984 Y83.362 E8.32715
G1 X131.278 Y83.776 E8.34404
G1 X131.719 Y84.428 E8.37022
G1 X133.209 Y86.564 E8.45684
G1 X134.713 Y88.593 E8.54085
G1 X136.274 Y90.582 E8.62494
G1 X138.474 Y93.205 E8.73881
G1 X139.028 Y93.908 E8.76858
G1 X139.233 Y94.192 E8.78023
G1 X139.731 Y94.951 E8.81042
G1 X140.194 Y95.812 E8.84293
G1 X140.644 Y96.773 E8.87823
G1 X141.069 Y97.922 E8.91897
G1 X141.432 Y99.137 E8.96115
G1 X141.648 Y99.967 E8.98967
G1 X141.759 Y100.504 E9.00791
G1 X141.89 Y101.256 E9.0333
G1 X142.002 Y101.991 E9.05803
G1 X142.06 Y102.447 E9.07332
G1 X142.157 Y103.381 E9.10455
G1 X142.227 Y104.299 E9.13517
G1 X142.335 Y106.135 E9.19634
G1 X142.367 Y106.924 E9.22261
G1 X142.406 Y108.396 E9.27158
G1 X142.418 Y109.359 E9.30362
G1 X142.417 Y110.832 E9.35261
G1 X142.403 Y111.798 E9.38474
G1 X142.363 Y113.258 E9.43332
G1 X142.333 Y113.954 E9.45649
G1 X142.231 Y115.718 E9.51526
G1 X142.101 Y117.251 E9.56643
G1 X141.961 Y118.358 E9.60354
G1 X141.871 Y118.918 E9.62241
G1 X141.715 Y119.768 E9.65115
G1 X141.617 Y120.21 E9.66621
G1 X141.4 Y121.037 E9.69464
G1 X141.147 Y121.904 E9.72468
G1 X140.721 Y123.073 E9.76607
G1 X140.451 Y123.699 E9.78874
G1 X140.251 Y124.135 E9.80469
G1 X139.816 Y124.953 E9.83551
G1 X139.297 Y125.761 E9.86745
G1 X138.742 Y126.518 E9.89867
G1 X138.147 Y127.197 E9.9287
G1 X137.698 Y127.639 E9.94965
G1 X136.874 Y128.388 E9.98669
G1 X136.138 Y128.973 E10.01796
G1 X135.24 Y129.558 E10.05361
G1 X134.886 Y129.755 E10.06708
G1 X134.19 Y130.111 E10.09308
G1 X132.337 Y131.017 E10.16168
G1 X130.124 Y132.178 E10.2448
G1 X127.901 Y133.425 E10.32958
G1 X125.92 Y134.601 E10.4062
G1 X125.434 Y134.85 E10.42437
G1 X125.342 Y134.912 E10.42806
G1 X124.836 Y135.149 E10.44664
G1 X124.212 Y135.41 E10.46914
G1 X123.815 Y135.562 E10.48328
G1 X122.611 Y135.943 E10.52528
G1 X121.79 Y136.149 E10.55343
G1 X121.202 Y136.281 E10.57347
G1 X120.624 Y136.387 E10.59302
G1 X119.699 Y136.528 E10.62414
G1 X118.701 Y136.651 E10.65759
G1 X117.877 Y136.73 E10.68512
G1 X115.864 Y136.871 E10.75223
G1 X114.11 Y136.951 E10.81063
G1 X112.908 Y136.986 E10.85063
G1 X110.53 Y137.021 E10.92973
G1 X108.182 Y137.007 E11.00783
G1 X105.97 Y136.951 E11.08142
G1 X104.049 Y136.86 E11.14539
G1 X102.239 Y136.732 E11.20574
G1 X101.232 Y136.633 E11.23939
G1 X100.386 Y136.529 E11.26774
G1 X99.517 Y136.399 E11.29697
G1 X98.888 Y136.283 E11.31824
G1 X98.347 Y136.166 E11.33665
G1 X97.635 Y135.994 E11.36101
G1 X96.589 Y135.677 E11.39736
G1 X94.59 Y134.956 E11.46804
G1 X92.142 Y134.151 E11.55375
G1 X89.777 Y133.446 E11.63583
G1 X87.782 Y132.919 E11.70446
G1 X86.941 Y132.686 E11.73349
G1 X86.05 Y132.395 E11.76466
G1 X85.187 Y132.027 E11.79587
G1 X84.359 Y131.584 E11.8271
G1 X83.574 Y131.068 E11.85835
G1 X82.838 Y130.486 E11.88956
G1 X82.181 Y129.866 E11.9196
G1 X81.536 Y129.138 E11.95195
G1 X80.974 Y128.376 E11.98344
G1 X80.288 Y127.196 E12.02884
G1 X79.907 Y126.338 E12.06006
G1 X79.604 Y125.45 E12.09127
G1 X79.38 Y124.538 E12.12251
G1 X79.238 Y123.611 E12.1537
G1 X79.18 Y122.753 E12.1823
G1 X79.167 Y122.135 E12.20286
G1 X79.168 Y98.036 E13.0044
G1 X79.179 Y97.324 E13.02808
G1 X79.221 Y96.53 E13.05452
G1 X79.347 Y95.6 E13.08574
G1 X79.554 Y94.685 E13.11694
G1 X79.841 Y93.792 E13.14814
G1 X80.192 Y92.959 E13.1782
G1 X80.648 Y92.098 E13.21061
G1 X81.16 Y91.312 E13.24181
G1 X81.717 Y90.601 E13.27185
G1 X82.276 Y89.997 E13.29922
G1 X84.698 Y87.734 E13.40947
G1 X86.477 Y85.977 E13.49263
G1 X88.251 Y84.126 E13.57791
G1 X89.269 Y83.002 E13.62834
G0 F6000 X89.562 Y83.274
G1 F1200 X90.042 Y82.758 E13.65178
G1 X90.686 Y82.125 E13.68182
G1 X91.383 Y81.551 E13.71185
G1 X92.129 Y81.042 E13.74189
G1 X92.917 Y80.6 E13.77194
G1 X93.741 Y80.23 E13.80198
G1 X94.594 Y79.934 E13.83201
G1 X95.51 Y79.707 E13.8634
G1 X96.402 Y79.569 E13.89342
G1 X97.223 Y79.513 E13.92079
G1 X97.83 Y79.5 E13.94098
G1 X121.793 Y79.5 E14.738
G1 X122.637 Y79.511 E14.76607
G1 X123.397 Y79.55 E14.79138
G1 X124.292 Y79.67 E14.82141
G1 X125.173 Y79.868 E14.85145
G1 X126.033 Y80.143 E14.88148
G1 X126.866 Y80.494 E14.91154
G1 X127.664 Y80.917 E14.94158
G1 X128.421 Y81.408 E14.97159
G1 X129.132 Y81.965 E15.00163
G1 X129.792 Y82.583 E15.03171
G1 X130.658 Y83.594 E15.07598
G1 X130.947 Y84 E15.09256
G1 X131.391 Y84.657 E15.11893
G1 X132.881 Y86.793 E15.20555
G1 X134.398 Y88.84 E15.29029
G1 X135.959 Y90.829 E15.37439
G1 X138.16 Y93.453 E15.4883
G1 X138.704 Y94.142 E15.5175
G1 X138.899 Y94.412 E15.52858
G1 X139.379 Y95.141 E15.55761
G1 X139.832 Y95.982 E15.58938
G1 X140.269 Y96.912 E15.62356
G1 X140.694 Y98.061 E15.6643
G1 X141.045 Y99.238 E15.70515
G1 X141.256 Y100.048 E15.73299
G1 X141.365 Y100.573 E15.75083
G1 X141.495 Y101.316 E15.77591
G1 X141.605 Y102.042 E15.80034
G1 X141.662 Y102.488 E15.81529
G1 X141.758 Y103.412 E15.84619
G1 X141.828 Y104.322 E15.87654
G1 X141.935 Y106.151 E15.93748
G1 X141.967 Y106.935 E15.96358
G1 X142.006 Y108.401 E16.01236
G1 X142.018 Y109.359 E16.04422
G1 X142.017 Y110.826 E16.09301
G1 X142.003 Y111.787 E16.12498
G1 X141.963 Y113.241 E16.17336
G1 X141.934 Y113.931 E16.19633
G1 X141.832 Y115.684 E16.25473
G1 X141.704 Y117.201 E16.30537
G1 X141.566 Y118.295 E16.34204
G1 X141.478 Y118.846 E16.3606
G1 X141.325 Y119.681 E16.38884
G1 X141.23 Y120.109 E16.40342
G1 X141.016 Y120.925 E16.43148
G1 X140.771 Y121.767 E16.46064
G1 X140.354 Y122.914 E16.50123
G1 X140.087 Y123.532 E16.52363
G1 X139.887 Y123.968 E16.53958
G1 X139.463 Y124.765 E16.56961
G1 X138.974 Y125.525 E16.59966
G1 X138.441 Y126.254 E16.6297
G1 X137.846 Y126.933 E16.65973
G1 X137.429 Y127.343 E16.67918
G1 X136.625 Y128.075 E16.71534
G1 X135.919 Y128.638 E16.74538
G1 X135.045 Y129.208 E16.78008
G1 X134.691 Y129.405 E16.79356
G1 X134.014 Y129.752 E16.81886
G1 X132.161 Y130.658 E16.88746
G1 X129.928 Y131.829 E16.97132
G1 X127.705 Y133.076 E17.0561
G1 X125.738 Y134.245 E17.1322
G1 X125.166 Y134.538 E17.15358
G1 X125.172 Y134.55 E17.15403
G1 X124.681 Y134.78 E17.17206
G1 X124.068 Y135.037 E17.19417
G1 X123.694 Y135.181 E17.2075
G1 X122.514 Y135.555 E17.24867
G1 X121.702 Y135.759 E17.27651
G1 X121.13 Y135.888 E17.29602
G1 X120.564 Y135.992 E17.31516
G1 X119.65 Y136.131 E17.34591
G1 X118.663 Y136.253 E17.37898
G1 X117.849 Y136.331 E17.40618
G1 X115.846 Y136.471 E17.47296
G1 X114.098 Y136.551 E17.53116
G1 X112.899 Y136.587 E17.57106
G1 X110.532 Y136.621 E17.6498
G1 X108.192 Y136.607 E17.72763
G1 X105.989 Y136.551 E17.80092
G1 X104.077 Y136.461 E17.86459
G1 X102.278 Y136.334 E17.92457
G1 X101.281 Y136.236 E17.95789
G1 X100.445 Y136.133 E17.98591
G1 X99.576 Y136.003 E18.01513
G1 X98.973 Y135.892 E18.03552
G1 X98.441 Y135.777 E18.05363
G1 X97.751 Y135.611 E18.07723
G1 X96.725 Y135.301 E18.11288
G1 X94.715 Y134.576 E18.18395
G1 X92.267 Y133.771 E18.26966
G1 X89.879 Y133.059 E18.35254
G1 X87.888 Y132.533 E18.42103
G1 X87.065 Y132.306 E18.44943
G1 X86.206 Y132.027 E18.47947
G1 X85.375 Y131.674 E18.5095
G1 X84.578 Y131.249 E18.53954
G1 X83.822 Y130.754 E18.56959
G1 X83.113 Y130.195 E18.59962
G1 X82.456 Y129.575 E18.62967
G1 X81.857 Y128.9 E18.65968
G1 X81.319 Y128.174 E18.68974
G1 X80.653 Y127.033 E18.73368
G1 X80.285 Y126.208 E18.76372
G1 X79.992 Y125.354 E18.79375
G1 X79.775 Y124.477 E18.8238
G1 X79.637 Y123.584 E18.85386
G1 X79.58 Y122.744 E18.88186
G1 X79.567 Y122.135 E18.90212
G1 X79.568 Y98.042 E19.70346
G1 X79.578 Y97.344 E19.72667
G1 X79.617 Y96.583 E19.75202
G1 X79.737 Y95.688 E19.78205
G1 X79.935 Y94.807 E19.81209
G1 X80.21 Y93.947 E19.84212
G1 X80.561 Y93.114 E19.87218
G1 X80.984 Y92.316 E19.90222
G1 X81.475 Y91.559 E19.93223
G1 X82.032 Y90.848 E19.96227
G1 X82.569 Y90.269 E19.98854
G1 X84.979 Y88.019 E20.0982
G1 X86.758 Y86.262 E20.18136
G1 X88.54 Y84.403 E20.26701
G1 X89.562 Y83.274 E20.31766
G1 F1500 E13.81766
;MESH:stapelbed_ladder.stl
G0 F6000 X90.191 Y96.816
G0 X90.962 Y98.73
;TYPE:WALL-INNER
G1 F1500 E20.31766
G1 F1057.3 X94.764 Y98.73 E20.46119
G0 F6000 X95.39 Y99.356
G1 F1052.6 X95.386 Y101.964 E20.56007
G0 F6000 X94.764 Y102.48
G1 F1066.7 X90.962 Y102.48 E20.70234
G0 F6000 X90.394 Y101.964
G1 F1050.3 X90.39 Y99.356 E20.80144
G1 F1151.1 X90.661 Y98.882 E20.82037
G1 F1145.6 X90.962 Y98.73 E20.83212
G1 X90.661 Y98.578 E20.84387
G1 F1137.4 X90.394 Y98.212 E20.85976
G1 X90.356 Y98.73 E20.87799
G1 F1151.1 X90.39 Y99.356 E20.89973
G0 F6000 X90.39 Y103.104
G1 F1050.3 X90.394 Y105.712 E20.99883
G0 F6000 X90.962 Y106.23
G1 F1057.3 X94.764 Y106.23 E21.14236
G0 F6000 X95.386 Y105.712
G1 F1052.6 X95.39 Y103.104 E21.24124
G1 F1151.1 X95.425 Y102.48 E21.26291
G1 F1140.1 X95.386 Y101.964 E21.28103
G1 X95.12 Y102.328 E21.29681
G1 F1212.1 X94.977 Y102.422 E21.30245
G1 F1121.5 X94.764 Y102.48 E21.3103
G1 X94.977 Y102.538 E21.31816
G1 F1212.1 X95.12 Y102.632 E21.32379
G1 F1151.1 X95.39 Y103.104 E21.34265
G0 F6000 X95.39 Y99.356
G1 F1151.1 X95.425 Y98.73 E21.36439
G1 F1140.1 X95.386 Y98.212 E21.38257
G1 X95.12 Y98.578 E21.39841
G1 F1212.1 X94.977 Y98.671 E21.40403
G1 F1113.7 X94.764 Y98.73 E21.41195
G1 X94.977 Y98.789 E21.41987
G1 F1212.1 X95.12 Y98.882 E21.42549
G1 F1151.1 X95.39 Y99.356 E21.4444
G0 F6000 X95.205 Y102.294
G0 X90.579 Y102.668
G0 X90.39 Y103.104
G1 F1153.8 X90.66 Y102.632 E21.46321
G1 X90.962 Y102.48 E21.4749
G1 X90.66 Y102.328 E21.4866
G1 F1137.4 X90.394 Y101.964 E21.50242
G1 X90.355 Y102.48 E21.52058
G1 F1153.8 X90.39 Y103.104 E21.54219
G0 F6000 X90.39 Y106.856
G1 F1050.3 X90.394 Y109.464 E21.6413
G0 F6000 X90.962 Y109.98
G1 F1066.7 X94.764 Y109.98 E21.78356
G0 F6000 X95.386 Y109.464
G1 F1052.6 X95.39 Y106.856 E21.88245
G1 F1151.1 X95.425 Y106.23 E21.90419
G1 F1140.1 X95.386 Y105.712 E21.92237
G1 X95.12 Y106.078 E21.93821
G1 F1212.1 X94.977 Y106.171 E21.94383
G1 F1113.7 X94.764 Y106.23 E21.95175
G1 X94.977 Y106.289 E21.95967
G1 F1212.1 X95.12 Y106.382 E21.96528
G1 F1151.1 X95.39 Y106.856 E21.9842
G0 F6000 X95.39 Y110.604
G1 F1052.6 X95.386 Y113.212 E22.08309
G0 F6000 X94.764 Y113.73
G1 F1057.3 X90.962 Y113.73 E22.22661
G0 F6000 X90.394 Y113.212
G1 F1050.3 X90.39 Y110.604 E22.32572
G1 F1153.8 X90.66 Y110.132 E22.34453
G1 X90.962 Y109.98 E22.35622
G1 X90.66 Y109.828 E22.36791
G1 F1137.4 X90.394 Y109.464 E22.38373
G1 X90.355 Y109.98 E22.40189
G1 F1153.8 X90.39 Y110.604 E22.42351
G0 F6000 X90.39 Y106.856
G1 F1151.1 X90.661 Y106.382 E22.44244
G1 F1145.6 X90.962 Y106.23 E22.45419
G1 X90.661 Y106.078 E22.46594
G1 F1137.4 X90.394 Y105.712 E22.48184
G1 X90.356 Y106.23 E22.50006
