;FLAVOR:Marlin
;TIME:2451
;Filament used: 1.02719m
;Layer height: 0.2
;MINX:86.5
;MINY:92.125
;MINZ:0.2
;MAXX:133.5
;MAXY:127.875
;MAXZ:25
;TARGET_MACHINE.NAME:Creality Ender-3 Pro
;Generated with Cura_SteamEngine 5.11.0
; Ender 3 Custom Start G-code
G92 E0 ; Reset Extruder
G28 ; Home all axes
G1 Z5.0 F3000 ; Move Z Axis up a bit during heating to not damage bed
M104 S175 ; Start heating up the nozzle most of the way
M190 S60 ; Start heating the bed, wait until target temperature reached
M109 S200 ; Finish heating the nozzle
G1 Z2.0 F3000 ; Move Z Axis up little to prevent scratching of Heat Bed
G1 X0.1 Y20 Z0.3 F5000.0 ; Move to start position
G1 X0.1 Y200.0 Z0.3 F1500.0 E15 ; Draw the first line
G1 X0.4 Y200.0 Z0.3 F5000.0 ; Move to side a little
G1 X0.4 Y20 Z0.3 F1500.0 E30 ; Draw the second line
G92 E0 ; Reset Extruder
G1 Z2.0 F3000 ; Move Z Axis up little to prevent scratching of Heat Bed
G1 X5 Y20 Z0.3 F5000.0 ; Move over to prevent blob squish
M82 ;absolute extrusion mode
G92 E0
G92 E0
G1 F1500 E-6.5
;LAYER_COUNT:125
;LAYER:0
M107
G0 F6000 X91.109 Y95.225 Z0.2
;TYPE:SKIRT
G1 F1500 E0
G1 F1200 X91.883 Y94.546 E0.03425
G1 X92.7 Y93.952 E0.06784
G1 X93.536 Y93.452 E0.10024
G1 X94.413 Y93.028 E0.13264
G1 X95.338 Y92.68 E0.16551
G1 X96.556 Y92.358 E0.20741
G1 X97.598 Y92.196 E0.24249
G1 X98.461 Y92.138 E0.27126
G1 X99.294 Y92.125 E0.29896
G1 X100.426 Y92.14 E0.33662
G1 X103.063 Y92.14 E0.42433
G1 X104.303 Y92.125 E0.46557
G1 X105.168 Y92.136 E0.49434
G1 X105.693 Y92.158 E0.51182
G1 X106.713 Y92.269 E0.54595
G1 X109.39 Y92.653 E0.63589
G1 X111.855 Y92.933 E0.71841
G1 X114.408 Y93.153 E0.80364
G1 X116.868 Y93.292 E0.88559
G1 X119.458 Y93.366 E0.97176
G1 X122.684 Y93.388 E1.07906
G1 X123.656 Y93.447 E1.11145
G1 X124.619 Y93.593 E1.14385
G1 X125.566 Y93.824 E1.17627
G1 X126.454 Y94.124 E1.20744
G1 X127.346 Y94.514 E1.23982
G1 X128.229 Y95.001 E1.27336
G1 X128.98 Y95.503 E1.30341
G1 X129.795 Y96.161 E1.33825
G1 X130.493 Y96.839 E1.37061
G1 X131.129 Y97.576 E1.40299
G1 X131.699 Y98.366 E1.43539
G1 X132.161 Y99.142 E1.46543
G1 X132.615 Y100.084 E1.50021
G1 X132.944 Y100.962 E1.53139
G1 X133.213 Y101.934 E1.56494
G1 X133.39 Y102.9 E1.5976
G1 X133.485 Y104.03 E1.63532
G1 X133.5 Y104.705 E1.65777
G1 X133.499 Y106.306 E1.71102
G1 X133.478 Y107.725 E1.75823
G1 X133.433 Y109.3 E1.81063
G1 X133.431 Y111.876 E1.89631
G1 X133.496 Y114.389 E1.97992
G1 X133.499 Y116.291 E2.04318
G1 X133.487 Y117.052 E2.0685
G1 X133.429 Y118.025 E2.10092
G1 X133.283 Y118.988 E2.13331
G1 X133.052 Y119.935 E2.16573
G1 X132.739 Y120.857 E2.19812
G1 X132.347 Y121.748 E2.23049
G1 X131.895 Y122.57 E2.26169
G1 X131.333 Y123.408 E2.29525
G1 X130.743 Y124.138 E2.32647
G1 X130.04 Y124.864 E2.36008
G1 X129.304 Y125.5 E2.39244
G1 X128.514 Y126.07 E2.42484
G1 X127.738 Y126.533 E2.45489
G1 X126.798 Y126.986 E2.4896
G1 X125.885 Y127.328 E2.52202
G1 X124.947 Y127.587 E2.55439
G1 X123.981 Y127.764 E2.58705
G1 X122.845 Y127.86 E2.62497
G1 X122.17 Y127.875 E2.64743
G1 X120.545 Y127.874 E2.70148
G1 X119.458 Y127.851 E2.73764
G1 X116.327 Y127.589 E2.84214
G1 X113.826 Y127.45 E2.92545
G1 X111.282 Y127.378 E3.0101
G1 X108.793 Y127.378 E3.09288
G1 X106.26 Y127.45 E3.17717
G1 X103.733 Y127.593 E3.26135
G1 X100.827 Y127.834 E3.35833
G1 X100.294 Y127.862 E3.37609
G1 X99.67 Y127.875 E3.39685
G1 X98.049 Y127.874 E3.45076
G1 X97.316 Y127.862 E3.47514
G1 X96.344 Y127.803 E3.50753
G1 X95.381 Y127.657 E3.53993
G1 X94.434 Y127.426 E3.57235
G1 X93.546 Y127.126 E3.60352
G1 X92.654 Y126.736 E3.6359
G1 X91.771 Y126.249 E3.66944
G1 X91.02 Y125.747 E3.69949
G1 X90.205 Y125.089 E3.73433
G1 X89.507 Y124.411 E3.76669
G1 X88.871 Y123.674 E3.79907
G1 X88.301 Y122.884 E3.83147
G1 X87.839 Y122.108 E3.86151
G1 X87.385 Y121.166 E3.89629
G1 X87.056 Y120.288 E3.92747
G1 X86.787 Y119.315 E3.96105
G1 X86.612 Y118.358 E3.99341
G1 X86.522 Y117.403 E4.02531
G1 X86.5 Y116.533 E4.05426
G1 X86.501 Y114.923 E4.1078
G1 X86.522 Y113.525 E4.15431
G1 X86.567 Y111.938 E4.20711
G1 X86.569 Y109.374 E4.29239
G1 X86.504 Y106.861 E4.376
G1 X86.501 Y104.884 E4.44176
G1 X86.513 Y104.189 E4.46488
G1 X86.558 Y103.37 E4.49216
G1 X86.69 Y102.406 E4.52452
G1 X86.906 Y101.457 E4.55689
G1 X87.205 Y100.531 E4.58926
G1 X87.556 Y99.698 E4.61932
G1 X88.046 Y98.774 E4.65411
G1 X88.578 Y97.959 E4.68648
G1 X89.135 Y97.248 E4.71652
G1 X89.513 Y96.827 E4.73534
G1 X90.477 Y95.844 E4.78113
G1 X91.109 Y95.225 E4.81055
G0 F6000 X91.373 Y95.526
G1 F1200 X92.147 Y94.847 E4.8448
G1 X92.906 Y94.295 E4.87601
G1 X93.711 Y93.812 E4.90724
G1 X94.555 Y93.402 E4.93845
G1 X95.44 Y93.067 E4.96992
G1 X96.658 Y92.745 E5.01182
G1 X97.625 Y92.595 E5.04437
G1 X98.467 Y92.538 E5.07244
G1 X99.289 Y92.525 E5.09978
G1 X100.421 Y92.54 E5.13743
G1 X103.068 Y92.54 E5.22547
G1 X104.298 Y92.525 E5.26639
G1 X105.152 Y92.536 E5.29479
G1 X105.65 Y92.556 E5.31137
G1 X106.656 Y92.665 E5.34503
G1 X109.333 Y93.049 E5.43497
G1 X111.821 Y93.332 E5.51826
G1 X114.374 Y93.551 E5.60348
G1 X116.857 Y93.692 E5.6862
G1 X119.447 Y93.766 E5.77238
G1 X122.66 Y93.787 E5.87925
G1 X123.597 Y93.843 E5.91047
G1 X124.525 Y93.982 E5.94168
G1 X125.438 Y94.203 E5.97292
G1 X126.294 Y94.491 E6.00296
G1 X127.186 Y94.881 E6.03534
G1 X128.007 Y95.334 E6.06653
G1 X128.758 Y95.836 E6.09657
G1 X129.517 Y96.448 E6.129
G1 X130.191 Y97.101 E6.16021
G1 X130.805 Y97.81 E6.19141
G1 X131.355 Y98.571 E6.22264
G1 X131.817 Y99.347 E6.25268
G1 X132.24 Y100.224 E6.28506
G1 X132.569 Y101.102 E6.31625
G1 X132.82 Y102.007 E6.34748
G1 X132.991 Y102.934 E6.37884
G1 X133.086 Y104.064 E6.41655
G1 X133.1 Y104.705 E6.43788
G1 X133.099 Y106.3 E6.49093
G1 X133.078 Y107.714 E6.53796
G1 X133.033 Y109.289 E6.59037
G1 X133.031 Y111.876 E6.67641
G1 X133.096 Y114.39 E6.76006
G1 X133.099 Y116.285 E6.82308
G1 X133.088 Y117.029 E6.84783
G1 X133.033 Y117.966 E6.87905
G1 X132.894 Y118.894 E6.91026
G1 X132.673 Y119.807 E6.9415
G1 X132.373 Y120.696 E6.97271
G1 X131.996 Y121.555 E7.00391
G1 X131.544 Y122.377 E7.03511
G1 X131.021 Y123.157 E7.06635
G1 X130.455 Y123.86 E7.09637
G1 X129.778 Y124.562 E7.1288
G1 X129.07 Y125.176 E7.15997
G1 X128.309 Y125.726 E7.1912
G1 X127.533 Y126.189 E7.22126
G1 X126.657 Y126.612 E7.25361
G1 X125.778 Y126.943 E7.28485
G1 X124.874 Y127.194 E7.31606
G1 X123.947 Y127.365 E7.34741
G1 X122.811 Y127.461 E7.38533
G1 X122.17 Y127.475 E7.40665
G1 X120.553 Y127.474 E7.46043
G1 X119.491 Y127.452 E7.49576
G1 X116.36 Y127.191 E7.60026
G1 X113.837 Y127.05 E7.68431
G1 X111.293 Y126.978 E7.76896
G1 X108.782 Y126.978 E7.85247
G1 X106.249 Y127.05 E7.93675
G1 X103.7 Y127.194 E8.02167
G1 X100.806 Y127.435 E8.11826
G1 X100.286 Y127.462 E8.13558
G1 X99.67 Y127.475 E8.15607
G1 X98.055 Y127.474 E8.20978
G1 X97.34 Y127.463 E8.23357
G1 X96.403 Y127.407 E8.26479
G1 X95.475 Y127.268 E8.296
G1 X94.562 Y127.047 E8.32724
G1 X93.706 Y126.759 E8.35728
G1 X92.814 Y126.369 E8.38966
G1 X91.993 Y125.916 E8.42085
G1 X91.242 Y125.414 E8.45089
G1 X90.483 Y124.802 E8.48332
G1 X89.809 Y124.149 E8.51453
G1 X89.195 Y123.44 E8.54573
G1 X88.645 Y122.679 E8.57696
G1 X88.183 Y121.903 E8.607
G1 X87.76 Y121.026 E8.63938
G1 X87.431 Y120.148 E8.67057
G1 X87.18 Y119.243 E8.7018
G1 X87.01 Y118.32 E8.73302
G1 X86.922 Y117.393 E8.76399
G1 X86.9 Y116.533 E8.7926
G1 X86.901 Y114.929 E8.84595
G1 X86.922 Y113.536 E8.89229
G1 X86.967 Y111.949 E8.94509
G1 X86.969 Y109.374 E9.03074
G1 X86.904 Y106.86 E9.11438
G1 X86.901 Y104.89 E9.1799
G1 X86.912 Y104.21 E9.20252
G1 X86.954 Y103.424 E9.2287
G1 X87.08 Y102.494 E9.25992
G1 X87.287 Y101.579 E9.29112
G1 X87.574 Y100.686 E9.32232
G1 X87.925 Y99.853 E9.35238
G1 X88.381 Y98.992 E9.38479
G1 X88.893 Y98.206 E9.41599
G1 X89.45 Y97.495 E9.44603
G1 X89.799 Y97.107 E9.46339
G1 X90.757 Y96.13 E9.5089
G1 X91.373 Y95.526 E9.53759
G0 F6000 X91.653 Y95.812
G1 F1200 X92.383 Y95.17 E9.56992
G1 X93.113 Y94.638 E9.59997
G1 X93.886 Y94.172 E9.62999
G1 X94.698 Y93.776 E9.66004
G1 X95.542 Y93.454 E9.69008
G1 X96.76 Y93.132 E9.73198
G1 X97.652 Y92.994 E9.762
G1 X98.473 Y92.938 E9.78937
G1 X99.284 Y92.925 E9.81635
G1 X100.416 Y92.94 E9.85401
G1 X103.073 Y92.94 E9.94238
G1 X104.293 Y92.925 E9.98296
G1 X105.137 Y92.936 E10.01103
G1 X105.607 Y92.954 E10.02668
G1 X106.599 Y93.061 E10.05986
G1 X109.276 Y93.445 E10.14981
G1 X111.787 Y93.731 E10.23387
G1 X114.34 Y93.949 E10.31909
G1 X116.846 Y94.092 E10.40257
G1 X119.436 Y94.166 E10.48875
G1 X122.637 Y94.186 E10.59522
G1 X123.539 Y94.239 E10.62527
G1 X124.432 Y94.371 E10.6553
G1 X125.31 Y94.582 E10.68533
G1 X126.166 Y94.87 E10.71537
G1 X126.993 Y95.232 E10.7454
G1 X127.785 Y95.667 E10.77545
G1 X128.536 Y96.169 E10.80549
G1 X129.239 Y96.736 E10.83553
G1 X129.889 Y97.363 E10.86557
G1 X130.481 Y98.045 E10.89561
G1 X131.011 Y98.776 E10.92564
G1 X131.473 Y99.552 E10.95568
G1 X131.866 Y100.365 E10.98571
G1 X132.184 Y101.21 E11.01574
G1 X132.427 Y102.08 E11.04578
G1 X132.592 Y102.968 E11.07583
G1 X132.687 Y104.098 E11.11354
G1 X132.7 Y104.705 E11.13374
G1 X132.699 Y106.294 E11.18659
G1 X132.678 Y107.703 E11.23345
G1 X132.633 Y109.278 E11.28586
G1 X132.631 Y111.876 E11.37227
G1 X132.696 Y114.391 E11.45595
G1 X132.699 Y116.279 E11.51874
G1 X132.689 Y117.006 E11.54293
G1 X132.637 Y117.908 E11.57298
G1 X132.505 Y118.801 E11.603
G1 X132.294 Y119.68 E11.63307
G1 X132.007 Y120.536 E11.66309
G1 X131.645 Y121.363 E11.69312
G1 X131.211 Y122.155 E11.72316
G1 X130.709 Y122.906 E11.7532
G1 X130.143 Y123.609 E11.78322
G1 X129.516 Y124.26 E11.81328
G1 X128.835 Y124.852 E11.84329
G1 X128.104 Y125.382 E11.87333
G1 X127.328 Y125.845 E11.90338
G1 X126.515 Y126.238 E11.93341
G1 X125.67 Y126.558 E11.96347
G1 X124.801 Y126.801 E11.99348
G1 X123.913 Y126.966 E12.02352
G1 X122.777 Y127.062 E12.06144
G1 X122.17 Y127.075 E12.08163
G1 X120.561 Y127.074 E12.13515
G1 X119.524 Y127.053 E12.16964
G1 X116.393 Y126.793 E12.27414
G1 X113.848 Y126.65 E12.35892
G1 X111.304 Y126.578 E12.44357
G1 X108.771 Y126.578 E12.52782
G1 X106.238 Y126.65 E12.6121
G1 X103.666 Y126.795 E12.69778
G1 X102.257 Y126.915 E12.74481
G1 X102.105 Y126.921 E12.74987
G1 X100.772 Y127.036 E12.79437
G1 X100.277 Y127.062 E12.81086
G1 X99.67 Y127.075 E12.83105
G1 X98.061 Y127.074 E12.88457
G1 X97.363 Y127.064 E12.90779
G1 X96.461 Y127.011 E12.93784
G1 X95.568 Y126.879 E12.96786
G1 X94.69 Y126.668 E12.9979
G1 X93.834 Y126.38 E13.02794
G1 X93.007 Y126.018 E13.05796
G1 X92.215 Y125.583 E13.08802
G1 X91.464 Y125.081 E13.11806
G1 X90.761 Y124.514 E13.1481
G1 X90.111 Y123.887 E13.17814
G1 X89.519 Y123.205 E13.20817
G1 X88.989 Y122.474 E13.23821
G1 X88.527 Y121.698 E13.26824
G1 X88.134 Y120.885 E13.29828
G1 X87.816 Y120.04 E13.32831
G1 X87.573 Y119.17 E13.35835
G1 X87.408 Y118.282 E13.38839
G1 X87.322 Y117.383 E13.41843
G1 X87.3 Y116.533 E13.44671
G1 X87.301 Y114.935 E13.49986
G1 X87.322 Y113.547 E13.54603
G1 X87.367 Y111.96 E13.59883
G1 X87.369 Y109.374 E13.68484
G1 X87.304 Y106.859 E13.76852
G1 X87.301 Y104.896 E13.83381
G1 X87.311 Y104.231 E13.85593
G1 X87.35 Y103.477 E13.88104
G1 X87.47 Y102.582 E13.91108
G1 X87.668 Y101.701 E13.94111
G1 X87.943 Y100.841 E13.97114
G1 X88.294 Y100.008 E14.00121
G1 X88.717 Y99.21 E14.03125
G1 X89.208 Y98.453 E14.06126
G1 X89.765 Y97.742 E14.0913
G1 X90.084 Y97.387 E14.10717
G1 X91.037 Y96.416 E14.15242
G1 X91.653 Y95.812 E14.18112
G1 F1500 E7.68112
;MESH:stapelbed_total.stl
G0 F6000 X99.174 Y102.46
G0 X99.374 Y103.75
;TYPE:WALL-INNER
G1 F1500 E14.18112
G1 F1052.6 X99.37 Y104.48 E14.2088
G0 F6000 X99.4 Y106.272
G1 F1200 X99.4 Y104.997 E14.2512
G1 F1116.3 X99.37 Y104.48 E14.26972
G1 X99.109 Y104.852 E14.28597
G1 F1200 X98.749 Y104.972 E14.29859
G1 X98.1 Y104.972 E14.32017
G1 X98.1 Y106.272 E14.36341
G1 X99.4 Y106.272 E14.40665
G0 F6000 X99.8 Y106.672
;TYPE:WALL-OUTER
G1 F1200 X99.8 Y103.324 E14.51801
G1 X98.948 Y103.324 E14.54634
G1 X98.946 Y104.407 E14.58236
G1 X98.869 Y104.532 E14.58725
G1 X98.749 Y104.572 E14.59145
G1 X97.7 Y104.572 E14.62634
G1 X97.7 Y106.672 E14.69619
G1 X99.8 Y106.672 E14.76604
G0 F6000 X99.52 Y106.395
G0 X99.3 Y105.867
G0 X98.995 Y105.867
;TYPE:SKIN
G1 F979.6 X98.505 Y105.867 E14.786
G1 X98.505 Y105.377 E14.80597
G1 X98.744 Y105.377 E14.8157
G1 X98.995 Y105.308 E14.82631
G1 X98.995 Y105.867 E14.84908
G1 F1500 E8.34908
G0 F6000 X99.3 Y105.867
G0 X99.57 Y103.748
G0 X100.665 Y103.748
G0 X103.085 Y103.748
G0 X104.428 Y103.748
;TYPE:WALL-INNER
G1 F1500 E14.84908
G1 F1071.4 X104.4 Y103.7 E14.85115
G1 X104.344 Y103.7 E14.85324
G1 X104.316 Y103.748 E14.85531
G1 X104.344 Y103.796 E14.85738
G1 X104.4 Y103.796 E14.85947
G1 X104.428 Y103.748 E14.86154
G0 F6000 X104.798 Y104.172
;TYPE:WALL-OUTER
G1 F1200 X104.798 Y103.324 E14.88974
G1 X103.948 Y103.324 E14.91801
G1 X103.948 Y104.172 E14.94622
G1 X104.798 Y104.172 E14.97449
G1 F1500 E8.47449
G0 F6000 X104.52 Y103.895
G0 X104.174 Y103.951
G0 X104.174 Y105.04
G0 X99.576 Y113.71
G0 X99.4 Y116.272
;TYPE:WALL-INNER
G1 F1500 E14.97449
G1 F1200 X99.4 Y114.972 E15.01773
G1 X98.1 Y114.972 E15.06096
G1 X98.1 Y116.272 E15.1042
G1 X99.4 Y116.272 E15.14744
G0 F6000 X99.8 Y116.672
;TYPE:WALL-OUTER
G1 F1200 X99.8 Y114.572 E15.21729
G1 X97.7 Y114.572 E15.28713
G1 X97.7 Y116.672 E15.35698
G1 X99.8 Y116.672 E15.42683
G0 F6000 X99.52 Y116.395
G0 X99.3 Y115.867
G0 X98.995 Y115.867
;TYPE:SKIN
G1 F979.6 X98.505 Y115.867 E15.44679
G1 X98.505 Y115.377 E15.46676
G1 X98.995 Y115.377 E15.48672
G1 X98.995 Y115.867 E15.50668
G1 F1500 E9.00668
G0 F6000 X99.3 Y115.867
G0 X99.57 Y116.272
G0 X100.665 Y116.272
G0 X119.335 Y116.272
G0 X120.6 Y116.272
;TYPE:WALL-INNER
G1 F1500 E15.50668
G1 F1200 X121.9 Y116.272 E15.54992
G1 X121.9 Y114.972 E15.59316
G1 X120.6 Y114.972 E15.6364
G1 X120.6 Y116.272 E15.67964
G0 F6000 X120.2 Y116.672
;TYPE:WALL-OUTER
G1 F1200 X122.3 Y116.672 E15.74948
G1 X122.3 Y114.572 E15.81933
G1 X120.2 Y114.572 E15.88918
G1 X120.2 Y116.672 E15.95902
G0 F6000 X120.48 Y116.395
G0 X120.7 Y115.867
G0 X121.005 Y115.867
;TYPE:SKIN
G1 F979.6 X121.005 Y115.377 E15.97899
G1 X121.495 Y115.377 E15.99895
G1 X121.495 Y115.867 E16.01892
G1 X121.005 Y115.867 E16.03888
G1 F1500 E9.53888
G0 F6000 X120.7 Y115.867
G0 X120.6 Y114.805
G0 X120.6 Y113.71
G0 X120.6 Y107.54
G0 X120.6 Y106.272
;TYPE:WALL-INNER
G1 F1500 E16.03888
G1 F1200 X121.9 Y106.272 E16.08212
G1 X121.9 Y104.972 E16.12536
G1 X120.6 Y104.972 E16.16859
G1 X120.6 Y106.272 E16.21183
G0 F6000 X120.2 Y106.672
;TYPE:WALL-OUTER
G1 F1200 X122.3 Y106.672 E16.28168
G1 X122.3 Y104.572 E16.35152
G1 X120.2 Y104.572 E16.42137
G1 X120.2 Y106.672 E16.49122
G0 F6000 X120.48 Y106.395
G0 X120.7 Y105.867
G0 X121.005 Y105.867
;TYPE:SKIN
G1 F979.6 X121.005 Y105.377 E16.51118
G1 X121.495 Y105.377 E16.53115
G1 X121.495 Y105.867 E16.55111
G1 X121.005 Y105.867 E16.57107
M104 S200
G1 F1500 E10.07107
;MESH:NONMESH
G0 F300 X121.005 Y105.867 Z0.4
G0 F6000 X120.7 Y105.867
G0 X120.424 Y104.799
G0 X119.335 Y104.799
G0 X91.653 Y95.812
;TIME_ELAPSED:36.808049
;LAYER:1
M106 S85
;TYPE:SKIRT
G1 F1500 E16.57107
G1 F1200 X92.383 Y95.17 E16.60341
G1 X93.113 Y94.638 E16.63345
G1 X93.886 Y94.172 E16.66347
G1 X94.698 Y93.776 E16.69352
G1 X95.542 Y93.454 E16.72357
G1 X96.76 Y93.132 E16.76547
G1 X97.652 Y92.994 E16.79549
G1 X98.473 Y92.938 E16.82286
G1 X99.284 Y92.925 E16.84984
G1 X100.416 Y92.94 E16.88749
G1 X103.073 Y92.94 E16.97586
G1 X104.293 Y92.925 E17.01644
G1 X105.137 Y92.936 E17.04452
G1 X105.607 Y92.954 E17.06016
G1 X106.599 Y93.061 E17.09335
G1 X109.276 Y93.445 E17.18329
G1 X111.787 Y93.731 E17.26735
G1 X114.34 Y93.949 E17.35257
G1 X116.846 Y94.092 E17.43606
G1 X119.436 Y94.166 E17.52224
G1 X122.637 Y94.186 E17.62871
G1 X123.539 Y94.239 E17.65876
G1 X124.432 Y94.371 E17.68878
G1 X125.31 Y94.582 E17.71882
G1 X126.166 Y94.87 E17.74885
G1 X126.993 Y95.232 E17.77888
G1 X127.785 Y95.667 E17.80893
G1 X128.536 Y96.169 E17.83898
G1 X129.239 Y96.736 E17.86902
G1 X129.889 Y97.363 E17.89906
G1 X130.481 Y98.045 E17.92909
G1 X131.011 Y98.776 E17.95912
G1 X131.473 Y99.552 E17.98916
G1 X131.866 Y100.365 E18.0192
G1 X132.184 Y101.21 E18.04923
G1 X132.427 Y102.08 E18.07927
G1 X132.592 Y102.968 E18.10931
G1 X132.687 Y104.098 E18.14703
G1 X132.7 Y104.705 E18.16722
G1 X132.699 Y106.294 E18.22007
G1 X132.678 Y107.703 E18.26694
G1 X132.633 Y109.278 E18.31934
G1 X132.631 Y111.876 E18.40575
