;FLAVOR:Marlin
;TIME:825
;Filament used: 0.398245m
;Layer height: 0.2
;MINX:88.253
;MINY:94.045
;MINZ:0.2
;MAXX:131.746
;MAXY:125.938
;MAXZ:10.6
;TARGET_MACHINE.NAME:Creality Ender-3 Pro
;Generated with Cura_SteamEngine 5.11.0
; Ender 3 Custom Start G-code
G92 E0 ; Reset Extruder
G28 ; Home all axes
G1 Z5.0 F3000 ; Move Z Axis up a bit during heating to not damage bed
M104 S175 ; Start heating up the nozzle most of the way
M190 S60 ; Start heating the bed, wait until target temperature reached
M109 S200 ; Finish heating the nozzle
G1 Z2.0 F3000 ; Move Z Axis up little to prevent scratching of Heat Bed
G1 X0.1 Y20 Z0.3 F5000.0 ; Move to start position
G1 X0.1 Y200.0 Z0.3 F1500.0 E15 ; Draw the first line
G1 X0.4 Y200.0 Z0.3 F5000.0 ; Move to side a little
G1 X0.4 Y20 Z0.3 F1500.0 E30 ; Draw the second line
G92 E0 ; Reset Extruder
G1 Z2.0 F3000 ; Move Z Axis up little to prevent scratching of Heat Bed
G1 X5 Y20 Z0.3 F5000.0 ; Move over to prevent blob squish
M82 ;absolute extrusion mode
G92 E0
G92 E0
G1 F1500 E-6.5
;LAYER_COUNT:53
;LAYER:0
M107
G0 F6000 X92.35 Y97.778 Z0.2
;TYPE:SKIRT
G1 F1500 E0
G1 F1200 X92.815 Y97.354 E0.02093
G1 X93.341 Y96.911 E0.0438
G1 X94.164 Y96.303 E0.07784
G1 X94.957 Y95.818 E0.10875
G1 X95.473 Y95.548 E0.12812
G1 X95.921 Y95.338 E0.14458
G1 X96.523 Y95.082 E0.16634
G1 X97.434 Y94.752 E0.19856
G1 X98.259 Y94.528 E0.227
G1 X99.254 Y94.325 E0.26077
G1 X100.187 Y94.193 E0.29211
G1 X100.924 Y94.125 E0.31673
G1 X101.459 Y94.092 E0.33456
G1 X102.242 Y94.062 E0.36062
G1 X103.401 Y94.046 E0.39917
G1 X116.723 Y94.045 E0.84226
G1 X117.794 Y94.061 E0.87789
G1 X118.661 Y94.098 E0.90675
G1 X119.766 Y94.185 E0.94362
G1 X120.516 Y94.285 E0.96878
G1 X121.058 Y94.384 E0.98711
G1 X121.645 Y94.507 E1.00706
G1 X122.205 Y94.645 E1.02624
G1 X122.75 Y94.81 E1.04518
G1 X123.429 Y95.06 E1.06924
G1 X124.275 Y95.429 E1.09994
G1 X125.175 Y95.893 E1.13362
G1 X125.95 Y96.4 E1.16442
G1 X126.091 Y96.478 E1.16978
G1 X126.677 Y96.923 E1.19426
G1 X127.174 Y97.34 E1.21583
G1 X127.883 Y98.007 E1.24821
G1 X128.486 Y98.679 E1.27824
G1 X129.218 Y99.675 E1.31935
G1 X129.695 Y100.431 E1.34908
G1 X130.147 Y101.285 E1.38122
G1 X130.456 Y101.999 E1.4071
G1 X130.675 Y102.571 E1.42747
G1 X130.986 Y103.583 E1.46268
G1 X131.058 Y103.864 E1.47233
G1 X131.208 Y104.537 E1.49526
G1 X131.361 Y105.35 E1.52278
G1 X131.461 Y105.989 E1.54429
G1 X131.529 Y106.577 E1.56398
G1 X131.649 Y107.996 E1.61134
G1 X131.707 Y109.097 E1.64801
G1 X131.734 Y110.024 E1.67886
G1 X131.746 Y110.919 E1.70863
G1 X131.746 Y112.73 E1.76886
G1 X131.728 Y113.605 E1.79797
G1 X131.689 Y114.419 E1.82507
G1 X131.628 Y115.142 E1.84921
G1 X131.565 Y115.686 E1.86742
G1 X131.407 Y116.645 E1.89975
G1 X131.185 Y117.521 E1.92981
G1 X130.844 Y118.495 E1.96413
G1 X130.603 Y119.05 E1.98425
G1 X130.382 Y119.506 E2.00111
G1 X129.906 Y120.356 E2.03351
G1 X129.357 Y121.159 E2.06586
G1 X128.785 Y121.858 E2.0959
G1 X128.153 Y122.521 E2.12637
G1 X127.464 Y123.158 E2.15758
G1 X126.664 Y123.776 E2.1912
G1 X125.844 Y124.299 E2.22355
G1 X124.979 Y124.748 E2.25596
G1 X124.104 Y125.109 E2.28745
G1 X122.763 Y125.501 E2.33391
G1 X122.012 Y125.662 E2.35946
G1 X121.336 Y125.769 E2.38222
G1 X120.816 Y125.826 E2.39962
G1 X120.218 Y125.873 E2.41957
G1 X119.595 Y125.903 E2.44032
G1 X118.721 Y125.926 E2.4694
G1 X103.184 Y125.938 E2.98616
G1 X101.108 Y125.924 E3.05521
G1 X100.376 Y125.901 E3.07957
G1 X99.406 Y125.844 E3.11189
G1 X98.779 Y125.781 E3.13285
G1 X98.03 Y125.671 E3.15803
G1 X97.394 Y125.542 E3.17961
G1 X97.301 Y125.511 E3.18287
G1 X96.834 Y125.403 E3.19881
G1 X96.31 Y125.244 E3.21703
G1 X95.358 Y124.878 E3.25095
G1 X94.776 Y124.602 E3.27237
G1 X94.041 Y124.201 E3.30022
G1 X93.197 Y123.662 E3.33353
G1 X92.454 Y123.088 E3.36476
G1 X91.714 Y122.404 E3.39827
G1 X91.052 Y121.67 E3.43115
G1 X90.256 Y120.576 E3.47615
G1 X90.067 Y120.276 E3.48794
G1 X89.585 Y119.431 E3.5203
G1 X89.191 Y118.579 E3.55152
G1 X88.852 Y117.628 E3.5851
G1 X88.609 Y116.692 E3.61726
G1 X88.456 Y115.821 E3.64667
G1 X88.367 Y115.092 E3.6711
G1 X88.281 Y114.01 E3.7072
G1 X88.265 Y113.515 E3.72367
G1 X88.253 Y112.311 E3.76372
G1 X88.257 Y110.881 E3.81128
G1 X88.272 Y109.793 E3.84747
G1 X88.306 Y108.827 E3.87962
G1 X88.377 Y107.657 E3.91861
G1 X88.515 Y106.172 E3.96821
G1 X88.614 Y105.451 E3.99242
G1 X88.725 Y104.817 E4.01383
G1 X88.82 Y104.347 E4.02977
G1 X89.006 Y103.587 E4.0558
G1 X89.267 Y102.736 E4.0854
G1 X89.496 Y102.109 E4.1076
G1 X89.909 Y101.172 E4.14166
G1 X90.339 Y100.386 E4.17146
G1 X90.573 Y99.999 E4.1865
G1 X91.115 Y99.189 E4.21892
G1 X91.725 Y98.43 E4.25131
G1 X92.35 Y97.778 E4.28135
G0 F6000 X92.639 Y98.055
G1 F1200 X93.073 Y97.66 E4.30086
G1 X93.599 Y97.217 E4.32374
G1 X94.373 Y96.644 E4.35577
G1 X95.143 Y96.172 E4.38581
G1 X95.643 Y95.91 E4.40458
G1 X96.078 Y95.706 E4.42056
G1 X96.66 Y95.458 E4.4416
G1 X97.539 Y95.138 E4.47271
G1 X98.339 Y94.92 E4.50029
G1 X99.31 Y94.721 E4.53326
G1 X100.224 Y94.591 E4.56397
G1 X100.948 Y94.524 E4.58815
G1 X101.475 Y94.492 E4.60571
G1 X102.248 Y94.462 E4.63144
G1 X103.401 Y94.446 E4.66979
G1 X116.717 Y94.445 E5.11268
G1 X117.777 Y94.461 E5.14794
G1 X118.63 Y94.497 E5.17634
G1 X119.735 Y94.584 E5.21321
G1 X120.444 Y94.679 E5.237
G1 X120.977 Y94.776 E5.25502
G1 X121.549 Y94.895 E5.27445
G1 X122.089 Y95.028 E5.29295
G1 X122.634 Y95.193 E5.31189
G1 X123.269 Y95.427 E5.33439
G1 X124.092 Y95.785 E5.36424
G1 X124.956 Y96.228 E5.39654
G1 X125.746 Y96.745 E5.42794
G1 X125.849 Y96.797 E5.43178
G1 X126.42 Y97.23 E5.45561
G1 X126.9 Y97.632 E5.47644
G1 X127.585 Y98.274 E5.50766
G1 X128.188 Y98.946 E5.53769
G1 X128.88 Y99.889 E5.5766
G1 X129.341 Y100.618 E5.60528
G1 X129.793 Y101.472 E5.63742
G1 X130.082 Y102.142 E5.66169
G1 X130.301 Y102.714 E5.68206
G1 X130.599 Y103.682 E5.71575
G1 X130.668 Y103.951 E5.72498
G1 X130.815 Y104.611 E5.74747
G1 X130.966 Y105.412 E5.77458
G1 X131.064 Y106.034 E5.79553
G1 X131.13 Y106.611 E5.81484
G1 X131.25 Y108.03 E5.86221
G1 X131.307 Y109.109 E5.89815
G1 X131.334 Y110.029 E5.92876
G1 X131.346 Y110.924 E5.95853
G1 X131.346 Y112.722 E6.01833
G1 X131.328 Y113.586 E6.04707
G1 X131.29 Y114.386 E6.07371
G1 X131.231 Y115.096 E6.09741
G1 X131.17 Y115.622 E6.11502
G1 X131.019 Y116.547 E6.14619
G1 X130.797 Y117.423 E6.17625
G1 X130.477 Y118.336 E6.20843
G1 X130.243 Y118.876 E6.228
G1 X130.033 Y119.311 E6.24407
G1 X129.575 Y120.131 E6.27531
G1 X129.047 Y120.906 E6.3065
G1 X128.475 Y121.605 E6.33654
G1 X127.881 Y122.227 E6.36514
G1 X127.192 Y122.864 E6.39635
G1 X126.449 Y123.439 E6.4276
G1 X125.659 Y123.944 E6.45879
G1 X124.826 Y124.378 E6.49003
G1 X123.951 Y124.739 E6.52151
G1 X122.651 Y125.117 E6.56654
G1 X121.949 Y125.267 E6.59041
G1 X121.292 Y125.371 E6.61254
G1 X120.785 Y125.427 E6.6295
G1 X120.199 Y125.473 E6.64905
G1 X119.584 Y125.503 E6.66953
G1 X118.721 Y125.526 E6.69825
G1 X103.187 Y125.538 E7.21491
G1 X101.12 Y125.524 E7.28366
G1 X100.399 Y125.502 E7.30765
G1 X99.446 Y125.446 E7.3394
G1 X98.837 Y125.385 E7.35976
G1 X98.11 Y125.279 E7.3842
G1 X97.474 Y125.15 E7.40578
G1 X97.427 Y125.129 E7.40749
G1 X96.95 Y125.02 E7.42377
G1 X96.426 Y124.861 E7.44198
G1 X95.529 Y124.516 E7.47394
G1 X94.968 Y124.251 E7.49458
G1 X94.233 Y123.85 E7.52243
G1 X93.442 Y123.345 E7.55364
G1 X92.699 Y122.771 E7.58487
G1 X92.01 Y122.135 E7.61606
G1 X91.375 Y121.434 E7.64752
G1 X90.594 Y120.362 E7.69163
G1 X90.414 Y120.077 E7.70284
G1 X89.948 Y119.263 E7.73404
G1 X89.568 Y118.444 E7.76407
G1 X89.239 Y117.527 E7.79647
G1 X89.003 Y116.622 E7.82758
G1 X88.853 Y115.772 E7.85628
G1 X88.766 Y115.06 E7.88014
G1 X88.681 Y113.997 E7.91561
G1 X88.665 Y113.511 E7.93178
G1 X88.653 Y112.312 E7.97166
G1 X88.657 Y110.887 E8.01906
G1 X88.672 Y109.807 E8.05498
G1 X88.705 Y108.851 E8.0868
G1 X88.775 Y107.694 E8.12535
G1 X88.911 Y106.226 E8.17439
G1 X89.008 Y105.52 E8.19809
G1 X89.117 Y104.896 E8.21916
G1 X89.208 Y104.442 E8.23456
G1 X89.389 Y103.704 E8.25983
G1 X89.643 Y102.873 E8.28873
G1 X89.872 Y102.246 E8.31094
G1 X90.26 Y101.364 E8.34298
G1 X90.681 Y100.593 E8.3722
G1 X90.906 Y100.221 E8.38666
G1 X91.427 Y99.439 E8.41791
G1 X92.014 Y98.707 E8.44912
G1 X92.639 Y98.055 E8.47916
G0 F6000 X92.928 Y98.332
G1 F1200 X93.331 Y97.966 E8.49727
G1 X93.857 Y97.523 E8.52014
G1 X94.582 Y96.985 E8.55017
G1 X95.352 Y96.513 E8.58021
G1 X95.813 Y96.272 E8.59751
G1 X96.235 Y96.074 E8.61301
G1 X96.797 Y95.834 E8.63334
G1 X97.645 Y95.524 E8.66337
G1 X98.42 Y95.312 E8.69009
G1 X99.367 Y95.117 E8.72225
G1 X100.261 Y94.989 E8.75229
G1 X100.972 Y94.923 E8.77604
G1 X101.491 Y94.892 E8.79333
G1 X102.254 Y94.862 E8.81873
G1 X103.401 Y94.846 E8.85688
G1 X116.711 Y94.845 E9.29957
G1 X117.76 Y94.861 E9.33447
G1 X118.603 Y94.896 E9.36253
G1 X119.124 Y94.931 E9.3799
G1 X119.682 Y94.981 E9.39853
G1 X120.373 Y95.073 E9.42172
G1 X120.896 Y95.168 E9.4394
G1 X121.454 Y95.284 E9.45835
G1 X121.973 Y95.411 E9.47612
G1 X122.518 Y95.576 E9.49506
G1 X123.109 Y95.794 E9.51601
G1 X123.932 Y96.152 E9.54586
G1 X124.737 Y96.563 E9.57593
G1 X125.599 Y97.127 E9.61019
G1 X125.607 Y97.116 E9.61064
G1 X126.178 Y97.549 E9.63448
G1 X126.627 Y97.924 E9.65393
G1 X127.287 Y98.541 E9.68398
G1 X127.89 Y99.213 E9.71401
G1 X128.542 Y100.103 E9.75071
G1 X129.003 Y100.832 E9.7794
G1 X129.426 Y101.63 E9.80944
G1 X129.709 Y102.286 E9.8332
G1 X129.919 Y102.832 E9.85266
G1 X130.212 Y103.781 E9.88569
G1 X130.278 Y104.038 E9.89451
G1 X130.422 Y104.685 E9.91656
G1 X130.571 Y105.475 E9.9433
G1 X130.667 Y106.079 E9.96364
G1 X130.731 Y106.645 E9.98259
G1 X130.851 Y108.064 E10.02995
G1 X130.907 Y109.121 E10.06516
G1 X130.934 Y110.034 E10.09554
G1 X130.946 Y110.929 E10.12531
G1 X130.946 Y112.714 E10.18467
G1 X130.928 Y113.567 E10.21305
G1 X130.891 Y114.353 E10.23922
G1 X130.834 Y115.05 E10.26248
G1 X130.775 Y115.558 E10.27949
G1 X130.631 Y116.449 E10.30951
G1 X130.409 Y117.325 E10.33957
G1 X130.11 Y118.177 E10.3696
G1 X129.882 Y118.703 E10.38867
G1 X129.683 Y119.117 E10.40395
G1 X129.244 Y119.906 E10.43398
G1 X128.737 Y120.653 E10.464
G1 X128.165 Y121.352 E10.49405
G1 X127.609 Y121.934 E10.52082
G1 X126.947 Y122.548 E10.55085
G1 X126.233 Y123.102 E10.58091
G1 X125.473 Y123.59 E10.61095
G1 X124.673 Y124.009 E10.64098
G1 X123.839 Y124.355 E10.67101
G1 X122.539 Y124.733 E10.71604
G1 X121.886 Y124.872 E10.73825
G1 X121.248 Y124.973 E10.75973
G1 X120.754 Y125.028 E10.77626
G1 X120.179 Y125.073 E10.79545
G1 X119.573 Y125.103 E10.81563
G1 X118.721 Y125.126 E10.84398
G1 X103.19 Y125.138 E11.36054
G1 X101.132 Y125.124 E11.42899
G1 X100.422 Y125.103 E11.45261
G1 X99.486 Y125.048 E11.4838
G1 X98.894 Y124.989 E11.50359
G1 X98.19 Y124.887 E11.52725
G1 X97.554 Y124.758 E11.54883
G1 X97.556 Y124.748 E11.54917
G1 X97.066 Y124.637 E11.56588
G1 X96.542 Y124.478 E11.58409
G1 X95.699 Y124.154 E11.61413
G1 X95.159 Y123.9 E11.63398
G1 X94.448 Y123.513 E11.6609
G1 X93.686 Y123.028 E11.69095
G1 X92.97 Y122.477 E11.721
G1 X92.306 Y121.866 E11.75101
G1 X91.698 Y121.198 E11.78105
G1 X90.932 Y120.147 E11.82431
G1 X90.761 Y119.878 E11.83491
G1 X90.311 Y119.095 E11.86495
G1 X89.931 Y118.276 E11.89497
G1 X89.626 Y117.426 E11.92501
G1 X89.397 Y116.552 E11.95506
G1 X89.25 Y115.723 E11.98306
G1 X89.165 Y115.028 E12.00635
G1 X89.081 Y113.984 E12.04119
G1 X89.065 Y113.507 E12.05706
G1 X89.053 Y112.313 E12.09678
G1 X89.057 Y110.893 E12.14401
G1 X89.072 Y109.821 E12.17966
G1 X89.104 Y108.875 E12.21115
G1 X89.173 Y107.731 E12.24927
G1 X89.307 Y106.28 E12.29773
G1 X89.402 Y105.589 E12.32093
G1 X89.509 Y104.975 E12.34166
G1 X89.597 Y104.537 E12.35652
G1 X89.772 Y103.821 E12.38103
G1 X90.019 Y103.01 E12.40923
G1 X90.248 Y102.383 E12.43143
G1 X90.611 Y101.556 E12.46147
G1 X91.024 Y100.799 E12.49015
G1 X91.239 Y100.442 E12.50401
G1 X91.739 Y99.689 E12.53408
G1 X92.303 Y98.984 E12.56411
G1 X92.928 Y98.332 E12.59415
G1 F1500 E6.09415
;MESH:zetel.stl
G0 F6000 X102.525 Y106.865
G0 X110 Y113.788
;TYPE:WALL-INNER
G1 F1500 E12.59415
G1 F1200 X117.505 Y113.788 E12.84376
G1 X118.361 Y113.776 E12.87224
G1 X119.025 Y113.727 E12.89438
G1 X119.329 Y113.678 E12.90462
G1 X119.478 Y113.565 E12.91084
G1 X119.532 Y113.163 E12.92433
G1 X119.551 Y112.04 E12.96169
G1 X119.528 Y110.572 E13.01052
G1 X119.476 Y109.882 E13.03354
G1 X119.484 Y109.874 E13.03391
G1 X119.407 Y109.337 E13.05196
G1 X119.32 Y109.029 E13.0626
G1 X119.084 Y108.532 E13.0809
G1 X118.79 Y108.316 E13.09303
G1 X118.228 Y108.172 E13.11233
G1 X117.39 Y108.124 E13.14025
G1 X116.267 Y108.109 E13.1776
G1 X103.689 Y108.108 E13.59595
G1 X102.61 Y108.124 E13.63184
G1 X101.768 Y108.172 E13.65989
G1 X101.206 Y108.315 E13.67918
G1 X100.913 Y108.531 E13.69128
G1 X100.676 Y109.032 E13.70972
G1 X100.589 Y109.338 E13.7203
G1 X100.512 Y109.878 E13.73844
G1 X100.52 Y109.886 E13.73882
G1 X100.468 Y110.572 E13.7617
G1 X100.445 Y112.104 E13.81266
G1 X100.467 Y113.186 E13.84866
G1 X100.518 Y113.558 E13.86114
G1 X100.669 Y113.678 E13.86756
G1 X100.971 Y113.727 E13.87773
G1 X101.635 Y113.776 E13.89988
G1 X102.518 Y113.788 E13.92925
G1 X110 Y113.788 E14.1781
G0 F6000 X110 Y114.188
;TYPE:WALL-OUTER
G1 F1200 X117.51 Y114.188 E14.42789
G1 X118.379 Y114.176 E14.45679
G1 X119.072 Y114.125 E14.4799
G1 X119.485 Y114.058 E14.49382
G1 X119.765 Y113.858 E14.50526
G1 X119.863 Y113.708 E14.51122
G1 X119.932 Y113.193 E14.52851
G1 X119.951 Y112.034 E14.56706
G1 X119.928 Y110.554 E14.61629
G1 X119.876 Y109.865 E14.63927
G1 X119.885 Y109.855 E14.63972
G1 X119.799 Y109.254 E14.65991
G1 X119.696 Y108.887 E14.67259
G1 X119.412 Y108.29 E14.69458
G1 X119.21 Y108.105 E14.70369
G1 X118.948 Y107.943 E14.71394
G1 X118.289 Y107.775 E14.73655
G1 X117.404 Y107.724 E14.76604
G1 X116.267 Y107.709 E14.80386
G1 X103.683 Y107.708 E15.2224
G1 X102.596 Y107.724 E15.25856
G1 X101.707 Y107.775 E15.28818
G1 X101.048 Y107.943 E15.3108
G1 X100.786 Y108.105 E15.32104
G1 X100.585 Y108.289 E15.33011
G1 X100.3 Y108.891 E15.35226
G1 X100.197 Y109.254 E15.36481
G1 X100.111 Y109.859 E15.38514
G1 X100.12 Y109.869 E15.38558
G1 X100.068 Y110.554 E15.40843
G1 X100.045 Y112.109 E15.46016
G1 X100.068 Y113.219 E15.49708
G1 X100.133 Y113.7 E15.51323
G1 X100.236 Y113.859 E15.51953
G1 X100.511 Y114.058 E15.53082
G1 X100.924 Y114.125 E15.54473
G1 X101.617 Y114.176 E15.56785
G1 X102.518 Y114.188 E15.59782
G1 X110 Y114.188 E15.84667
G0 F6000 X110 Y113.428
;TYPE:SKIN
G1 F1200 X102.533 Y113.428 E16.09502
G1 X101.658 Y113.416 E16.12413
G1 X100.853 Y113.353 E16.15098
G1 X100.824 Y113.163 E16.15738
G1 X100.805 Y112.126 E16.19187
G1 X100.828 Y110.598 E16.2427
G1 X100.88 Y109.9 E16.26598
G1 X100.874 Y109.885 E16.26652
G1 X100.941 Y109.421 E16.28211
G1 X101.013 Y109.154 E16.29131
G1 X101.203 Y108.756 E16.30598
G1 X101.351 Y108.649 E16.31205
G1 X101.823 Y108.527 E16.32826
G1 X102.627 Y108.484 E16.35504
G1 X103.675 Y108.468 E16.3899
G1 X116.245 Y108.469 E16.80798
G1 X117.369 Y108.484 E16.84537
G1 X118.173 Y108.527 E16.87215
G1 X118.637 Y108.648 E16.8881
G1 X118.793 Y108.761 E16.89451
G1 X118.98 Y109.155 E16.90901
G1 X119.055 Y109.418 E16.91811
G1 X119.122 Y109.896 E16.93416
G1 X119.116 Y109.911 E16.9347
G1 X119.168 Y110.597 E16.95758
G1 X119.187 Y112.056 E17.00611
G1 X119.172 Y113.128 E17.04177
G1 X119.14 Y113.353 E17.04933
G1 X118.334 Y113.416 E17.07622
G1 X117.51 Y113.428 E17.10363
G1 X110 Y113.428 E17.35341
G0 F6000 X110 Y113.688
G0 X101.642 Y113.615
G0 X100.769 Y113.549
G0 X100.561 Y112.91
G0 X101.022 Y112.901
G1 F1200 X101.308 Y113.187 E17.36686
G0 F6000 X101.905 Y113.218
G1 F1200 X101.009 Y112.322 E17.40901
G0 F6000 X101.01 Y111.758
G1 F1200 X102.479 Y113.227 E17.47811
G0 F6000 X103.045 Y113.228
G1 F1200 X101.019 Y111.202 E17.5734
G0 F6000 X101.028 Y110.645
G1 F1200 X103.611 Y113.228 E17.6949
G0 F6000 X104.177 Y113.228
G1 F1200 X101.06 Y110.111 E17.84151
G0 F6000 X101.116 Y109.602
G1 F1200 X104.742 Y113.228 E18.01207
G0 F6000 X105.308 Y113.228
G1 F1200 X101.234 Y109.153 E18.20372
G0 F6000 X101.471 Y108.825
G1 F1200 X105.874 Y113.228 E18.41083
G0 F6000 X106.439 Y113.228
G1 F1200 X101.934 Y108.722 E18.62275
G0 F6000 X102.47 Y108.693
G1 F1200 X107.005 Y113.228 E18.83606
G0 F6000 X107.571 Y113.228
G1 F1200 X103.021 Y108.678 E19.05008
G0 F6000 X103.578 Y108.67
G1 F1200 X108.136 Y113.228 E19.26448
G0 F6000 X108.702 Y113.228
