;TIME:2431.60
;Filament used:3.04689m
;Layer height:0.200
; HEADER_BLOCK_START
; generated by Creality_Print V7.0.0.4127 on 2026-02-04 at 02:12:11
; total layer number: 148
; filament_density: 1.24,1.24,1.24,1.24
; filament_diameter: 1.75,1.75,1.75,1.75
; max_z_height: 29.80
; creality_uuid: 0c144b5c-fe67-4bef-b2d2-a60c0a65ad04
; HEADER_BLOCK_END

; MINX = 97.84
; MINY = 82.95
; MINZ = 0.00
; MAXX = 127.56
; MAXY = 152.95
; MAXZ = 29.72

; multicolor_method = 0 
; THUMBNAIL_BLOCK_START

;
; THUMBNAIL_BLOCK_END

; THUMBNAIL_BLOCK_START

;
; THUMBNAIL_BLOCK_END

; external perimeters extrusion width = 0.42mm
; perimeters extrusion width = 0.45mm
; infill extrusion width = 0.45mm
; solid infill extrusion width = 0.42mm
; top infill extrusion width = 0.42mm
; first layer extrusion width = 0.50mm

; EXECUTABLE_BLOCK_START
M73 P0 R40
M201 X5000 Y5000 Z500 E5000
M203 X500 Y500 Z30 E100
M204 P5000 R2500 T5000 ; sets acceleration (P, T) and retract acceleration (R), mm/sec^2
M205 X10.00 Y10.00 Z0.40 E5.00 ; sets the jerk limits, mm/sec
; max_print_temp = 50,190
;TYPE:Custom
M220 S100 ;Reset Feedrate 
M221 S100 ;Reset Flowrate 
 
M140 S50 ;Set final bed temp 
G28 ;Home 
 
G92 E0 ;Reset Extruder 
G1 Z2.0 F3000 ;Move Z Axis up 
M104 S190 ;Set final nozzle temp 
G1 X-2.1 Y20 Z0.28 F5000.0 ;Move to start position 
M190 S50 ;Wait for bed temp to stabilize 
M109 S190 ;Wait for nozzle temp to stabilize 
G1 X-2.1 Y145.0 Z0.28 F1500.0 E15 ;Draw the first line 
G1 X-2.4 Y145.0 Z0.28 F5000.0 ;Move to side a little 
G1 X-2.4 Y20 Z0.28 F1500.0 E30 ;Draw the second line 
G92 E0  ;Reset Extruder 
G1 E-1.0000 F1800 ;Retract a bit 
G1 Z2.0 F3000 ;Move Z Axis up 
G1 E0.0000 F1800
G90
G21
M83 ; use relative distances for extrusion
;filament start gcode
; MANUAL_TOOL_CHANGE T0
G1 E-1.2 F2400
M106 S0
;LAYER_CHANGE
;:0.2
;HEIGHT:0.2
;BEFORE_LAYER_CHANGE
;0.2
G92 E0

;_SET_FAN_SPEED_CHANGING_LAYER
M204 P500
M205 X10 Y10
; OBJECT_ID: 139
; printing object IShitSoIAm.stl id:0 copy 0
M204 T500
G1 X99.227 Y83.913 Z.2 F9000
G1 E1.2 F1800
;TYPE:Inner wall
;WIDTH:0.499999
G1 X99.721 Y83.946 E.01788
G1 X99.957 Y83.886 E.00879
G1 X100.038 Y83.909 E.00304
G1 X100.443 Y83.884 E.01465
G2 X100.91 Y83.926 I.312 J-.836 E.01712
G3 X102.24 Y83.914 I.775 J11.987 E.04803
G2 X103.703 Y83.822 I-.438 J-18.744 E.05296
G1 X104.011 Y83.918 E.01165
G1 X104.445 Y83.883 E.0157
G1 X104.634 Y83.93 E.00704
G2 X105.326 Y83.865 I.101 J-2.674 E.02517
G1 X105.672 Y83.942 E.01279
G1 X106.135 Y83.944 E.01673
G1 X106.411 Y83.892 E.01013
G1 X106.502 Y83.911 E.00334
G1 X106.842 Y83.881 E.01233
G1 X107.171 Y83.949 E.01213
G3 X108.49 Y83.921 I.737 J3.711 E.04788
G2 X109.295 Y83.88 I-6.535 J-135.201 E.02912
G1 X109.626 Y83.919 E.01202
G1 X109.941 Y83.847 E.01168
G2 X111.219 Y83.833 I.59 J-4.318 E.04628
G1 X111.497 Y83.913 E.01045
G1 X111.802 Y83.884 E.01107
G2 X112.424 Y83.952 I.474 J-1.454 E.02273
G2 X113.359 Y83.864 I-.773 J-13.191 E.03394
G1 X113.517 Y83.9 E.00584
G2 X114.218 Y83.86 I.147 J-3.618 E.02539
G2 X114.712 Y84.002 I5.212 J-17.25 E.01857
G3 X116.152 Y83.928 I.922 J3.893 E.05234
G1 X116.459 Y83.826 E.01169
G1 X116.659 Y83.877 E.00744
G3 X117.413 Y83.906 I.268 J2.879 E.02731
G3 X118.194 Y83.902 I.408 J3.552 E.02826
G1 X118.695 Y83.846 E.01819
G1 X119.017 Y83.932 E.01206
G3 X119.628 Y83.932 I.305 J1.13 E.02231
G2 X120.695 Y83.863 I-.93 J-22.583 E.0386
G2 X121.766 Y83.875 I.565 J-2.534 E.03898
G1 X121.873 Y83.894 E.00392
G2 X123.214 Y83.893 I.663 J-13.617 E.04844
G2 X123.804 Y83.901 I.31 J-1.073 E.02156
G3 X124.935 Y83.919 I.382 J11.543 E.04085
G1 X125.181 Y83.869 E.00907
G1 X125.316 Y83.898 E.00497
G1 X125.711 Y83.872 E.01432
G1 X126.069 Y83.942 E.01317
G1 X126.608 Y83.922 E.01947
G1 X126.573 Y84.358 E.01579
G3 X126.63 Y85.279 I-3.981 J.709 E.03338
G1 X126.59 Y85.348 E.00291
G1 X126.556 Y85.565 E.00791
G1 X126.636 Y85.921 E.01319
G2 X126.649 Y86.425 I1.144 J.222 E.01836
G1 X126.578 Y86.87 E.01625
G3 X126.535 Y88.178 I-4.842 J.493 E.04741
G1 X126.652 Y88.675 E.01845
G2 X126.531 Y89.636 I3.348 J.913 E.03508
G1 X126.632 Y89.94 E.01155
G3 X126.549 Y90.372 I-1.146 J.005 E.016
G1 X126.621 Y90.733 E.01328
G2 X126.629 Y91.198 I1.138 J.214 E.01693
G1 X126.557 Y91.69 E.01792
G1 X126.631 Y92.161 E.01723
G2 X126.673 Y92.63 I1.073 J.141 E.01715
G2 X126.628 Y93.668 I4.307 J.709 E.03759
G1 X126.585 Y93.747 E.00325
G1 X126.545 Y93.978 E.00845
G1 X126.636 Y94.352 E.01391
G2 X126.687 Y94.899 I1.254 J.159 E.01999
G3 X126.575 Y95.634 I-3.856 J-.211 E.02691
G1 X126.596 Y95.952 E.0115
G1 X126.567 Y96.059 E.00398
G2 X126.639 Y96.9 I3.427 J.13 E.03056
G2 X126.637 Y97.333 I1.068 J.221 E.01573
G1 X126.599 Y97.422 E.0035
G2 X126.634 Y98.112 I2.979 J.197 E.025
G1 X126.572 Y98.728 E.02237
G1 X126.642 Y99.106 E.01388
G2 X126.662 Y99.644 I1.209 J.225 E.01958
G2 X126.616 Y100.808 I4.138 J.746 E.04221
G1 X126.549 Y101.33 E.01899
G1 X126.63 Y101.714 E.01418
G2 X126.622 Y102.13 I.963 J.226 E.01514
G1 X126.579 Y102.253 E.00469
G3 X126.583 Y102.787 I-4.425 J.299 E.0193
G1 X126.631 Y103.072 E.01042
G1 X126.566 Y103.527 E.01661
G1 X126.626 Y103.969 E.0161
G2 X126.634 Y104.395 I1.116 J.194 E.01548
G1 X126.57 Y104.871 E.01736
G3 X126.642 Y105.804 I-7.834 J1.073 E.03378
G2 X126.537 Y106.183 I.661 J.389 E.01436
G1 X126.646 Y106.681 E.01841
G2 X126.524 Y107.67 I8.935 J1.603 E.036
G1 X126.685 Y108.149 E.01824
G1 X126.623 Y108.556 E.01486
G1 X126.624 Y109.195 E.02307
G1 X126.549 Y109.697 E.01834
G1 X126.629 Y110.164 E.0171
G2 X126.671 Y110.635 I1.047 J.145 E.01724
G1 X126.606 Y111.149 E.01869
G3 X126.588 Y111.723 I-1.143 J.252 E.02096
G2 X126.473 Y112.461 I3.329 J.896 E.02704
G1 X126.687 Y112.908 E.01787
G2 X126.568 Y113.642 I15.721 J2.913 E.02686
G3 X126.566 Y114.515 I-3.845 J.428 E.0316
G1 X126.636 Y114.906 E.01434
G2 X126.631 Y115.33 I1.061 J.223 E.01539
G1 X126.584 Y115.474 E.00548
G3 X126.63 Y116.224 I-26.749 J2.03 E.02713
G1 X126.564 Y116.727 E.01833
G1 X126.638 Y117.115 E.01425
G2 X126.655 Y117.635 I1.203 J.22 E.01894
G2 X126.61 Y118.816 I4.044 J.745 E.04282
G1 X126.54 Y119.33 E.01872
G1 X126.626 Y119.717 E.01432
G2 X126.539 Y120.803 I12.81 J1.577 E.03935
G1 X126.624 Y121.106 E.01137
G1 X126.557 Y121.561 E.0166
G1 X126.623 Y121.926 E.01341
G2 X126.635 Y122.412 I1.222 J.213 E.01765
G1 X126.563 Y122.855 E.0162
G2 X126.647 Y123.75 I18.677 J-1.311 E.03246
G2 X126.529 Y124.174 I1.022 J.514 E.01602
G1 X126.639 Y124.68 E.01868
G3 X126.549 Y125.187 I-5.961 J-.799 E.01861
G1 X126.64 Y125.549 E.01346
G2 X126.688 Y126.098 I1.285 J.163 E.02008
G1 X126.614 Y126.549 E.0165
G3 X126.549 Y127.598 I-3.436 J.315 E.03811
G1 X126.64 Y128.103 E.01851
G1 X126.619 Y128.319 E.00786
G1 X126.674 Y128.661 E.0125
G2 X126.612 Y129.633 I6.386 J.893 E.03519
G2 X126.467 Y130.466 I3.013 J.954 E.03064
G1 X126.687 Y130.92 E.0182
G2 X126.587 Y131.468 I1.163 J.495 E.0203
G3 X126.556 Y132.507 I-3.63 J.413 E.03766
G1 X126.633 Y132.911 E.01482
G2 X126.601 Y133.779 I4.038 J.581 E.03142
G3 X126.573 Y134.762 I-5.713 J.329 E.03557
G1 X126.631 Y135.118 E.01302
G2 X126.652 Y135.649 I1.262 J.218 E.01934
G2 X126.582 Y136.298 I2.268 J.571 E.02363
G1 X126.636 Y136.957 E.02389
G3 X126.542 Y137.371 I-2.11 J-.258 E.01532
G1 X126.648 Y137.88 E.01879
G2 X126.53 Y138.809 I3.332 J.893 E.03391
G1 X126.619 Y139.098 E.01092
G3 X126.599 Y140.16 I-5.944 J.422 E.0384
G1 X126.631 Y140.409 E.00904
G1 X126.55 Y140.916 E.01857
G1 X126.632 Y141.369 E.0166
G2 X126.674 Y141.833 I1.059 J.137 E.01696
G2 X126.624 Y142.874 I3.351 J.685 E.03779
G1 X126.48 Y143.365 E.01848
G1 X126.477 Y143.682 E.01145
G1 X126.688 Y144.107 E.01713
G2 X126.576 Y144.849 I10.086 J1.908 E.02709
G3 X126.572 Y145.721 I-3.983 J.42 E.03157
G1 X126.638 Y146.102 E.01394
G2 X126.65 Y146.6 I1.099 J.224 E.01815
G2 X126.633 Y147.687 I11.006 J.719 E.03925
G1 X126.562 Y147.88 E.00742
G1 X126.556 Y148.382 E.01813
G1 X126.665 Y148.899 E.01909
G1 X126.155 Y148.837 E.01856
G1 X125.594 Y148.94 E.02059
G1 X124.974 Y148.828 E.02275
G1 X124.546 Y148.897 E.01566
G1 X124.398 Y148.857 E.00553
G1 X124.141 Y148.897 E.00941
G1 X123.696 Y148.834 E.01621
G1 X123.197 Y148.911 E.01825
G1 X122.804 Y148.828 E.01447
G1 X122.283 Y148.867 E.01886
G3 X121.869 Y148.755 I.697 J-3.397 E.01553
G3 X121.188 Y148.83 I-.557 J-1.937 E.02486
G3 X120.128 Y148.93 I-1.58 J-11.076 E.03845
G2 X119.567 Y148.863 I-.404 J.994 E.02064
G2 X119.055 Y148.892 I-.192 J1.121 E.01867
G1 X118.712 Y148.816 E.01269
G1 X118.174 Y148.905 E.01969
G1 X117.66 Y148.817 E.01884
G3 X116.913 Y148.837 I-.442 J-2.612 E.02709
G1 X116.597 Y148.884 E.01152
G1 X116.42 Y148.847 E.00652
G1 X115.929 Y148.874 E.01777
G1 X115.282 Y148.814 E.02345
G1 X114.785 Y148.885 E.01815
G1 X114.587 Y148.779 E.00808
G1 X114.324 Y148.737 E.00962
G1 X114.032 Y148.816 E.01091
G1 X113.619 Y148.798 E.01495
G1 X113.33 Y148.862 E.01069
G2 X112.615 Y148.905 I-.19 J2.827 E.02592
G2 X112.172 Y148.83 I-.41 J1.086 E.01631
G1 X111.672 Y148.924 E.01838
G1 X111.399 Y148.864 E.01009
G3 X110.391 Y148.837 I2.634 J-114.714 E.0364
G1 X110.125 Y148.899 E.00987
G2 X109.76 Y148.851 I-.302 J.878 E.0134
G1 X109.26 Y148.912 E.01815
G1 X108.778 Y148.826 E.01768
G1 X108.515 Y148.878 E.00969
G2 X107.436 Y148.843 I-31.588 J964.407 E.03896
G1 X106.933 Y148.875 E.01822
G2 X106.215 Y148.83 I-.408 J.755 E.0268
G2 X105.271 Y148.923 I-.163 J3.174 E.03439
G1 X104.731 Y148.796 E.02003
G1 X104.191 Y148.883 E.01976
G2 X103.709 Y148.905 I-.191 J1.096 E.01755
G2 X103.256 Y148.837 I-.377 J.97 E.01667
G1 X102.744 Y148.935 E.01881
G1 X102.144 Y148.817 E.02211
G1 X101.692 Y148.891 E.01652
G1 X101.578 Y148.856 E.00434
G3 X100.899 Y148.855 I-.336 J-2.385 E.02459
G1 X100.394 Y148.898 E.0183
G1 X100.19 Y148.845 E.00759
G2 X99.035 Y148.905 I-.387 J3.693 E.04193
G1 X98.816 Y148.819 E.00851
G1 X98.763 Y148.382 E.0159
G1 X98.819 Y147.757 E.02265
G1 X98.897 Y147.465 E.01091
G1 X98.788 Y146.962 E.01858
G1 X98.825 Y146.812 E.00557
G1 X98.732 Y146.362 E.01661
G1 X98.78 Y146.124 E.00874
G1 X98.779 Y145.664 E.01663
G1 X98.827 Y145.547 E.00457
G1 X98.84 Y145.29 E.00928
G1 X98.779 Y144.891 E.01457
G1 X98.846 Y144.632 E.00965
G3 X98.833 Y143.956 I2.05 J-.379 E.02454
G1 X98.758 Y143.686 E.01011
G3 X98.897 Y142.567 I79.685 J9.294 E.04071
G1 X98.752 Y142.084 E.0182
G2 X98.742 Y141.504 I-2.943 J-.242 E.02098
G1 X98.827 Y140.956 E.02001
G1 X98.743 Y140.583 E.01381
G1 X98.779 Y140.473 E.00417
G1 X98.756 Y140.246 E.00825
G2 X98.734 Y139.213 I-2.013 J-.473 E.03769
G2 X98.814 Y138.472 I-5.292 J-.945 E.02694
G1 X98.786 Y138.18 E.0106
G1 X98.849 Y138.054 E.00507
G1 X98.882 Y137.817 E.00865
G1 X98.77 Y137.427 E.01464
G1 X98.828 Y137.025 E.01467
G1 X98.756 Y136.677 E.01284
G1 X98.834 Y136.204 E.01729
G1 X98.774 Y135.871 E.01224
G2 X98.76 Y135.388 I-.815 J-.218 E.01768
G1 X98.811 Y135.107 E.01034
G2 X98.762 Y134.322 I-2.887 J-.213 E.02846
G2 X98.85 Y133.563 I-5.55 J-1.032 E.02762
G1 X98.734 Y133.138 E.01592
G2 X98.843 Y132.096 I-10.52 J-1.62 E.03782
G1 X98.797 Y131.772 E.01182
G1 X98.85 Y131.42 E.01284
G1 X98.766 Y131.023 E.01465
G1 X98.823 Y130.769 E.00941
G1 X98.752 Y130.494 E.01025
G1 X98.814 Y130.081 E.0151
G1 X98.799 Y129.785 E.01069
G2 X98.815 Y129.113 I-.7 J-.353 E.02511
G1 X98.823 Y128.828 E.01027
G1 X98.727 Y128.337 E.01807
G2 X98.833 Y127.271 I-3.989 J-.935 E.0388
G1 X98.773 Y126.894 E.01379
G1 X98.848 Y126.622 E.01017
G3 X98.837 Y125.982 I1.726 J-.348 E.02326
G1 X98.77 Y125.706 E.01023
G2 X98.822 Y125.044 I-3.164 J-.585 E.02402
G2 X98.894 Y124.572 I-1.854 J-.525 E.01732
G1 X98.761 Y124.126 E.0168
G2 X98.744 Y123.505 I-15.765 J.126 E.02241
G1 X98.829 Y122.952 E.0202
G2 X98.756 Y122.213 I-5.748 J.196 E.02686
G1 X98.814 Y121.757 E.01659
G1 X98.728 Y121.263 E.01811
G2 X98.843 Y120.358 I-5.555 J-1.166 E.03298
G1 X98.732 Y119.948 E.01531
G1 X98.764 Y119.748 E.00734
G1 X98.774 Y119.238 E.01838
G1 X98.828 Y119.033 E.00767
G1 X98.758 Y118.673 E.01325
G1 X98.836 Y118.196 E.01743
G1 X98.76 Y117.819 E.0139
G1 X98.813 Y117.606 E.00791
G1 X98.763 Y117.361 E.00902
G1 X98.82 Y116.92 E.01606
G1 X98.763 Y116.397 E.01901
G2 X98.851 Y115.56 I-13.7 J-1.867 E.03038
G1 X98.728 Y115.114 E.01671
G2 X98.805 Y113.812 I-3.953 J-.887 E.04727
G1 X98.851 Y113.423 E.01416
G1 X98.768 Y113.027 E.0146
G1 X98.828 Y112.765 E.0097
G1 X98.754 Y112.485 E.01045
G2 X98.805 Y111.798 I-1.87 J-.484 E.02502
G2 X98.887 Y111.366 I-.849 J-.385 E.01602
G1 X98.774 Y110.876 E.01816
G1 X98.737 Y110.303 E.02072
G2 X98.839 Y109.397 I-4.167 J-.929 E.03298
G1 X98.768 Y108.896 E.01829
G2 X98.801 Y108.113 I-40.59 J-2.115 E.02827
G3 X98.806 Y107.406 I1.648 J-.341 E.02573
G1 X98.735 Y106.91 E.01812
G2 X98.837 Y106.679 I-.156 J-.207 E.0095
G1 X98.766 Y106.18 E.01821
G1 X98.82 Y105.843 E.01233
G1 X98.751 Y105.478 E.01339
G1 X98.829 Y105.017 E.0169
G3 X98.801 Y104.414 I1.16 J-.356 E.02202
G1 X98.757 Y104.182 E.00852
G2 X98.757 Y103.121 I-2.978 J-.531 E.03851
G2 X98.844 Y102.362 I-5.442 J-1.007 E.0276
G1 X98.731 Y101.935 E.01593
G2 X98.771 Y101.248 I-2.292 J-.478 E.02497
G1 X98.84 Y100.891 E.01309
G1 X98.795 Y100.573 E.01162
G1 X98.844 Y100.221 E.01282
G1 X98.761 Y99.822 E.0147
G1 X98.817 Y99.604 E.00813
G1 X98.764 Y99.346 E.00952
G1 X98.818 Y99.09 E.00944
G1 X98.776 Y98.574 E.0187
G2 X98.884 Y98.229 I-.38 J-.308 E.01334
G1 X98.811 Y97.927 E.01124
G1 X98.852 Y97.571 E.01295
G1 X98.728 Y97.104 E.01744
G2 X98.831 Y96.069 I-4.125 J-.935 E.03765
G1 X98.772 Y95.695 E.01367
G1 X98.843 Y95.422 E.01019
G3 X98.832 Y94.762 I1.891 J-.362 E.02395
G1 X98.759 Y94.489 E.0102
G1 X98.823 Y94.027 E.01684
G1 X98.779 Y93.749 E.01015
G1 X98.85 Y93.582 E.00655
G1 X98.852 Y93.312 E.00975
G1 X98.722 Y92.826 E.01818
G1 X98.752 Y92.719 E.00402
G1 X98.737 Y92.311 E.01473
G2 X98.875 Y91.009 I-9.698 J-1.686 E.04729
G1 X98.788 Y90.795 E.00836
G1 X98.804 Y90.693 E.00374
G1 X98.769 Y90.2 E.01784
G1 X98.803 Y90.093 E.00406
G1 X98.778 Y89.736 E.01292
G1 X98.836 Y89.14 E.02162
G1 X98.727 Y88.741 E.01494
G2 X98.822 Y87.798 I-11.273 J-1.612 E.03423
G1 X98.753 Y87.474 E.01194
G1 X98.832 Y86.985 E.01792
G1 X98.756 Y86.616 E.01358
G1 X98.807 Y86.417 E.00743
G1 X98.758 Y86.161 E.0094
G1 X98.812 Y85.719 E.0161
G1 X98.761 Y85.2 E.0188
G2 X98.843 Y84.321 I-12.783 J-1.643 E.0319
G1 X98.729 Y83.921 E.01501
G1 X99.02 Y83.899 E.01056
G1 X99.187 Y83.91 E.00605
G1 X98.318 Y83.508 F9000
;TYPE:Outer wall
G1 F1800
G1 X98.489 Y83.416 E.00701
G1 X98.698 Y83.467 E.00776
G1 X98.863 Y83.39 E.00656
G1 X99.364 Y83.487 E.01842
G1 X99.491 Y83.436 E.00494
G1 X99.732 Y83.487 E.00892
G1 X99.903 Y83.385 E.00717
G1 X100.073 Y83.453 E.00662
G1 X100.484 Y83.421 E.01489
G1 X100.753 Y83.486 E.00999
G1 X100.912 Y83.422 E.00619
G2 X101.257 Y83.412 I.161 J-.4 E.01281
G1 X101.416 Y83.439 E.00586
G3 X102.135 Y83.466 I.254 J2.822 E.02602
G1 X102.293 Y83.392 E.00629
G1 X102.532 Y83.445 E.00886
G2 X103.757 Y83.357 I-.085 J-9.777 E.04436
G1 X104.05 Y83.458 E.01119
G1 X104.461 Y83.417 E.01493
G1 X104.784 Y83.49 E.01195
G1 X104.954 Y83.418 E.00665
G1 X105.126 Y83.451 E.00633
G1 X105.304 Y83.393 E.00677
G1 X105.799 Y83.5 E.01826
G1 X105.969 Y83.439 E.00652
G1 X106.165 Y83.487 E.00728
G1 X106.359 Y83.401 E.00767
G1 X106.469 Y83.442 E.00424
G1 X106.866 Y83.418 E.01434
G1 X107.218 Y83.493 E.01301
G3 X107.534 Y83.421 I.237 J.309 E.01207
G1 X107.729 Y83.367 E.00733
G1 X107.865 Y83.413 E.00517
G3 X108.619 Y83.471 I.05 J4.334 E.02734
G1 X108.788 Y83.37 E.00711
G1 X108.912 Y83.419 E.0048
G3 X109.629 Y83.462 I.138 J3.69 E.02598
G1 X109.801 Y83.391 E.00671
G1 X110.094 Y83.361 E.01066
G1 X110.24 Y83.412 E.00556
G2 X111.198 Y83.37 I.29 J-4.379 E.0347
G1 X111.553 Y83.458 E.01322
G1 X111.775 Y83.412 E.00818
G1 X112.273 Y83.51 E.01834
G1 X112.443 Y83.44 E.00664
G1 X112.627 Y83.484 E.00681
G1 X112.81 Y83.403 E.00724
G1 X112.954 Y83.444 E.0054
G1 X113.375 Y83.398 E.01529
G1 X113.659 Y83.46 E.01047
G1 X113.832 Y83.391 E.00673
G2 X114.131 Y83.404 I.167 J-.38 E.01105
G1 X114.473 Y83.42 E.01235
G2 X114.788 Y83.541 I.315 J-.35 E.01248
G1 X114.927 Y83.443 E.00613
G1 X115.068 Y83.472 E.00522
G1 X115.221 Y83.404 E.00602
G2 X116.093 Y83.473 I4.269 J-48.774 E.0316
G1 X116.264 Y83.399 E.00673
G1 X116.581 Y83.353 E.01154
G1 X116.677 Y83.409 E.004
G3 X117.478 Y83.452 I.147 J4.685 E.02901
G1 X117.647 Y83.381 E.00664
