;TIME:1919.65
;Filament used:1.19306m
;Layer height:0.200
; HEADER_BLOCK_START
; generated by Creality_Print V7.0.0.4127 on 2026-02-04 at 02:16:34
; total layer number: 250
; filament_density: 1.24,1.24,1.24,1.24
; filament_diameter: 1.75,1.75,1.75,1.75
; max_z_height: 50.00
; creality_uuid: cf205062-1dde-417b-9f4e-3c3fb59ed710
; HEADER_BLOCK_END

; MINX = 98.37
; MINY = 100.17
; MINZ = 0.00
; MAXX = 121.63
; MAXY = 119.83
; MAXZ = 50.00

; multicolor_method = 0 
; THUMBNAIL_BLOCK_START

;
; THUMBNAIL_BLOCK_END

; THUMBNAIL_BLOCK_START

;
; THUMBNAIL_BLOCK_END

; external perimeters extrusion width = 0.42mm
; perimeters extrusion width = 0.45mm
; infill extrusion width = 0.45mm
; solid infill extrusion width = 0.42mm
; top infill extrusion width = 0.42mm
; support material extrusion width = 0.40mm
; first layer extrusion width = 0.50mm

; EXECUTABLE_BLOCK_START
M73 P0 R32
M201 X5000 Y5000 Z500 E5000
M203 X500 Y500 Z30 E100
M204 P5000 R2500 T5000 ; sets acceleration (P, T) and retract acceleration (R), mm/sec^2
M205 X10.00 Y10.00 Z0.40 E5.00 ; sets the jerk limits, mm/sec
; max_print_temp = 50,190
;TYPE:Custom
M220 S100 ;Reset Feedrate 
M221 S100 ;Reset Flowrate 
 
M140 S50 ;Set final bed temp 
G28 ;Home 
 
G92 E0 ;Reset Extruder 
G1 Z2.0 F3000 ;Move Z Axis up 
M104 S190 ;Set final nozzle temp 
G1 X-2.1 Y20 Z0.28 F5000.0 ;Move to start position 
M190 S50 ;Wait for bed temp to stabilize 
M109 S190 ;Wait for nozzle temp to stabilize 
G1 X-2.1 Y145.0 Z0.28 F1500.0 E15 ;Draw the first line 
M73 P0 R31
G1 X-2.4 Y145.0 Z0.28 F5000.0 ;Move to side a little 
G1 X-2.4 Y20 Z0.28 F1500.0 E30 ;Draw the second line 
G92 E0  ;Reset Extruder 
G1 E-1.0000 F1800 ;Retract a bit 
G1 Z2.0 F3000 ;Move Z Axis up 
G1 E0.0000 F1800
G90
G21
M83 ; use relative distances for extrusion
;filament start gcode
; MANUAL_TOOL_CHANGE T0
G1 E-1.2 F2400
M106 S0
;LAYER_CHANGE
;:0.2
;HEIGHT:0.2
;BEFORE_LAYER_CHANGE
;0.2
G92 E0

;_SET_FAN_SPEED_CHANGING_LAYER
M204 P500
M205 X10 Y10
; OBJECT_ID: 495
; printing object Messi_Footballing.stl id:0 copy 0
M204 T500
G1 X110.254 Y100.521 Z.2 F9000
G1 E1.2 F1800
;TYPE:Support
;WIDTH:0.5
G3 X113.195 Y102.219 I-.532 J4.32 E.12597
G3 X115.333 Y100.974 I4.998 J6.128 E.08966
G3 X117.104 Y100.854 I2.742 J27.325 E.06412
G1 X117.512 Y101.053 E.01638
G3 X120.25 Y102.435 I-.218 J3.836 E.11392
G3 X121.989 Y105.27 I-1.375 J2.794 E.12667
G3 X121.378 Y108.024 I-2.36 J.921 E.108
G3 X120.569 Y110.293 I-2.476 J.396 E.09074
G2 X119.839 Y111.025 I.37 J1.1 E.03871
G3 X118.022 Y111.728 I-10.697 J-24.937 E.07035
G1 X117.234 Y111.727 E.02844
G3 X117.395 Y112.813 I-82.237 J12.695 E.03966
G3 X114.113 Y115.766 I1.585 J5.062 E1.03893
G3 X112.401 Y115.268 I.255 J-4.067 E.06487
G3 X106.316 Y116.005 I-3.012 J.625 E.36761
G2 X105.235 Y115.521 I-1.096 J1 E.04398
G3 X101.522 Y110.865 I-5.263 J.388 E.96876
G3 X103.077 Y108.19 I4.172 J.636 E.1144
G2 X103.376 Y106.866 I-1.175 J-.96 E.05079
G3 X105.721 Y104.105 I3.362 J.479 E.13796
G3 X110.186 Y100.514 I4.057 J.473 E.22929
G1 E-1.2 F2400
;WIPE_START
G1 F1800
G1 X108.864 Y100.571
G1 X108.225 Y100.794
;WIPE_END
G1 X108.95 Y104.54 Z.4 F9000
G1 X110.569 Y112.904 Z.4
G1 Z.2
G1 E1.2 F1800
G1 X110.864 Y112.851 E.01082
G1 X111.197 Y113.206 E.01756
G2 X111.267 Y114.66 I2.001 J.633 E.05369
G1 X110.614 Y114.996 E.0265
G3 X109.859 Y113.329 I1.286 J-1.587 E.06849
G3 X110.504 Y112.925 I2.014 J2.5 E.02752
G1 X111.759 Y112.182 F9000
G1 F1800
G3 X112.554 Y112.319 I.324 J.494 E.03204
G1 X112.691 Y112.947 E.02322
G1 X112.121 Y113.276 E.02375
G3 X111.565 Y112.526 I.44 J-.907 E.03504
G1 X111.725 Y112.242 E.01179
G1 E-1.2 F2400
;WIPE_START
G1 F1800
G1 X111.565 Y112.526
G1 X111.633 Y112.858
G1 X112.121 Y113.276
G1 X112.691 Y112.947
G1 X112.683 Y112.913
;WIPE_END
G1 X111.089 Y109.446 Z.4 F9000
G1 X110.693 Y108.585 Z.4
G1 Z.2
G1 E1.2 F1800
G1 X111.478 Y108.31 E.03003
G1 X111.956 Y108.903 E.0275
G2 X111.388 Y109.4 I.542 J1.191 E.02761
G3 X110.599 Y111.572 I-.895 J.905 E.10472
G2 X108.86 Y112.367 I11.05 J26.476 E.06903
G3 X107.365 Y109.773 I1.597 J-2.649 E.11286
G3 X108.678 Y109.372 I.975 J.844 E.05228
G2 X109.21 Y109.261 I-.311 J-2.818 E.01967
G1 X109.115 Y108.613 E.02364
G2 X110.625 Y108.592 I.71 J-3.312 E.05498
G1 X116.51 Y104.766 F9000
G1 F1800
G3 X115.754 Y105.055 I.173 J1.588 E.33276
G3 X116.443 Y104.779 I1.051 J1.627 E.02696
G1 E-1.2 F2400
;WIPE_START
G1 F1800
G1 X115.754 Y105.055
G1 X115.143 Y105.782
G1 X115.143 Y106.09
;WIPE_END
G1 X117.661 Y108.957 Z.4 F9000
G1 X122.831 Y114.843 Z.4
G1 Z.2
G1 E1.2 F1800
G3 X123.205 Y115.359 I-1.236 J1.287 E.02313
G1 X123.205 Y120.384 E.18143
G3 X122.697 Y121.085 I-2.186 J-1.049 E.03143
G1 X122.697 Y114.658 E.23206
G2 X122.189 Y114.167 I-1.606 J1.154 E.02564
G1 X122.189 Y121.576 E.26751
G3 X121.681 Y121.953 I-1.293 J-1.211 E.02296
G1 X121.681 Y113.79 E.29473
G2 X121.173 Y113.488 I-1.088 J1.248 E.02146
M73 P1 R31
G1 X121.173 Y122.256 E.31659
G1 X120.665 Y122.473 E.01994
G1 X120.665 Y113.27 E.33227
G2 X120.157 Y113.122 I-.662 J1.325 E.0192
G1 X120.157 Y122.621 E.34297
G1 X119.649 Y122.737 E.01881
G1 X119.649 Y113.006 E.35134
G2 X119.142 Y112.983 I-2.861 J56.02 E.01836
G1 X119.142 Y122.761 E.35304
G3 X118.634 Y122.76 I-.251 J-1.4 E.01844
G1 X118.634 Y112.984 E.35298
G1 X118.126 Y113.053 E.0185
G1 X118.126 Y122.691 E.34801
G3 X117.618 Y122.57 I.079 J-1.46 E.01895
G1 X117.618 Y113.173 E.33928
G1 X117.11 Y113.338 E.01928
G1 X117.11 Y122.405 E.32736
G3 X116.602 Y122.143 I.467 J-1.53 E.02074
G1 X116.602 Y108.403 E.49611
G2 X117.11 Y108.317 I.078 J-1.074 E.01878
G1 X117.11 Y111.315 E.10827
G1 X117.618 Y111.316 E.01834
G1 X117.618 Y108.176 E.11337
G2 X118.126 Y107.777 I-1.884 J-2.918 E.02337
G1 X118.126 Y111.22 E.12432
G3 X118.634 Y111.07 I.404 J.433 E.01982
G2 X118.634 Y101.745 I-534.993 J-4.662 E.33669
G3 X119.142 Y102.071 I-10.938 J17.613 E.02179
G1 X119.142 Y110.902 E.31885
G2 X119.649 Y110.602 I-.053 J-.67 E.02205
G1 X119.649 Y102.396 E.29627
G2 X119.951 Y102.748 I.508 J-.13 E.01732
G1 X121.732 Y106.513 F9000
G1 F1800
G2 X121.681 Y105.764 I-.792 J-.322 E.02809
G3 X121.173 Y107.623 I-1.78 J.513 E.07321
G1 X121.173 Y103.926 E.13352
G1 X120.858 Y103.391 E.0224
G1 X119.792 Y110.423 F9000
G1 F1800
G3 X120.157 Y110.032 I.576 J.172 E.02004
G1 X120.157 Y102.846 E.25945
G3 X120.665 Y103.292 I-.196 J.735 E.0253
G1 X120.665 Y109.516 E.22473
G1 X120.347 Y109.913 E.01835
G1 X117.322 Y104.516 F9000
G1 F1800
G1 X117.618 Y104.636 E.01154
G1 X117.618 Y101.507 E.113
G3 X118.126 Y101.504 I.257 J.522 E.01898
G1 X118.126 Y105.053 E.12815
G2 X117.82 Y104.739 I-.787 J.459 E.01598
G1 X117.401 Y101.457 F9000
G1 F1800
G1 X117.11 Y101.315 E.01169
G1 X117.11 Y104.43 E.11248
G2 X116.602 Y104.354 I-.399 J.935 E.01874
G1 X116.602 Y101.268 E.11145
G2 X116.094 Y101.312 I-.187 J.774 E.01874
G1 X116.094 Y104.472 E.11409
G1 X115.587 Y104.678 E.01979
G1 X115.587 Y101.387 E.11884
G2 X115.079 Y101.554 I-.083 J.603 E.01998
G1 X115.079 Y105.177 E.13081
G3 X115.397 Y104.805 I.909 J.457 E.01785
G1 E-1.2 F2400
;WIPE_START
G1 F1800
G1 X115.079 Y105.177
G1 X115.079 Y103.666
;WIPE_END
G1 X115.225 Y107.48 Z.4 F9000
G1 X115.764 Y121.559 Z.4
G1 Z.2
G1 E1.2 F1800
G1 X116.094 Y121.822 E.01525
G1 X116.094 Y108.291 E.48855
G3 X115.587 Y108.122 I.154 J-1.311 E.01946
G1 X115.587 Y121.415 E.47996
G1 X115.079 Y120.834 E.02787
G1 X115.079 Y107.609 E.47749
G2 X115.401 Y107.988 I.896 J-.437 E.01817
G1 X114.947 Y120.648 F9000
G1 F1800
G1 X114.571 Y120.018 E.02648
G1 X114.571 Y115.716 E.15536
G1 X114.698 Y115.378 E.01303
G1 X114.571 Y115.373 E.00458
G1 X114.571 Y101.852 E.48819
G3 X114.063 Y102.141 I-.546 J-.367 E.02188
G1 X114.063 Y115.352 E.47699
G3 X113.555 Y115.266 I-.083 J-1.057 E.01879
G1 X113.555 Y102.427 E.46357
G1 X113.231 Y102.835 E.01882
G1 X113.047 Y102.652 E.00937
G1 X113.047 Y112.651 E.36104
G1 X113.157 Y113.154 E.01856
G1 X113.047 Y113.217 E.00456
G1 X113.047 Y115.08 E.06726
G1 X112.539 Y114.88 E.0197
G1 X112.539 Y113.51 E.04949
G1 X112.031 Y113.751 E.02031
G1 X112.031 Y114.681 E.03356
G1 X111.894 Y114.627 E.00535
G3 X111.524 Y117.491 I-2.964 J1.073 E.10832
G1 X111.524 Y114.991 E.09027
G1 X111.016 Y115.252 E.02061
G1 X111.016 Y118.009 E.09955
G2 X111.371 Y117.661 I-.458 J-.823 E.01816
G1 X111.717 Y111.438 F9000
G1 F1800
G2 X112.031 Y111.153 I-20.373 J-22.821 E.01532
G1 X112.031 Y111.642 E.01766
G1 X112.539 Y111.748 E.01873
G1 X112.539 Y102.145 E.34671
G2 X112.031 Y101.656 I-1.327 J.869 E.02567
G1 X112.031 Y108.342 E.24139
G1 X111.524 Y107.858 E.02532
G1 X111.524 Y101.337 E.23543
G2 X111.016 Y101.12 I-.731 J1.005 E.02012
G1 X111.016 Y108.036 E.24971
G3 X110.508 Y108.192 I-.595 J-1.033 E.01934
G1 X110.508 Y100.964 E.26097
G1 X110 Y100.907 E.01845
G1 X110 Y108.249 E.2651
G3 X109.492 Y108.242 I-.239 J-1.114 E.01849
G1 X109.492 Y100.914 E.26459
G1 X108.984 Y100.971 E.01845
G1 X108.984 Y108.184 E.26045
G1 X109.265 Y108.216 E.0102
G1 E-1.2 F2400
;WIPE_START
G1 F1800
G1 X108.984 Y108.184
G1 X108.984 Y106.467
;WIPE_END
G1 X111.404 Y109.418 Z.4 F9000
G1 X112.174 Y110.358 Z.4
G1 Z.2
G1 E1.2 F1800
G3 X112.031 Y109.356 I4.194 J-1.106 E.03662
G1 X112.354 Y109.122 E.01439
G1 E-1.2 F2400
;WIPE_START
G1 F1800
G1 X112.031 Y109.356
G1 X112.174 Y110.358
;WIPE_END
G1 X111.799 Y114.155 Z.4 F9000
G1 X111.727 Y114.886 Z.4
G1 Z.2
G1 E1.2 F1800
G1 X111.753 Y114.873 E.00107
G3 X111.587 Y113.346 I2.166 J-1.009 E.05648
G1 X111.863 Y113.597 E.01349
G1 X111.144 Y112.525 F9000
G1 F1800
G1 X111.524 Y111.838 E.02835
G1 X111.524 Y111.559 E.01005
G3 X111.016 Y111.82 I-3.862 J-6.897 E.02062
G1 X111.016 Y112.412 E.02139
G1 X110.508 Y112.497 E.01859
G1 X110.508 Y112.051 E.0161
G1 X110 Y112.281 E.02013
G1 X110 Y112.727 E.0161
G2 X109.492 Y113.143 I.387 J.99 E.02411
G1 X109.492 Y112.562 E.02099
G3 X109.797 Y112.385 I2.974 J4.775 E.01272
G1 X110.143 Y115.067 F9000
G1 F1800
G1 X110.508 Y115.512 E.0208
G1 X110.508 Y118.317 E.10125
G3 X110 Y118.476 I-.54 J-.833 E.01946
G1 X110 Y114.888 E.12953
G1 X109.821 Y114.666 E.01032
G1 X106.089 Y115.269 F9000
G1 F1800
G2 X106.445 Y115.581 I1.018 J-.803 E.01719
G1 X106.445 Y102.983 E.45488
G3 X106.953 Y102.208 I8.639 J5.107 E.03347
G1 X106.953 Y116.967 E.53291
G2 X107.461 Y117.738 I1.958 J-.738 E.0336
G1 X107.461 Y111.345 E.23083
G2 X107.969 Y112.199 I4.957 J-2.37 E.03593
G1 X107.969 Y118.143 E.21462
G2 X108.476 Y118.384 I.752 J-.93 E.02048
G1 X108.476 Y112.691 E.20556
G2 X108.984 Y112.76 I.303 J-.325 E.01973
G1 X108.984 Y118.532 E.2084
G1 X109.492 Y118.552 E.01835
G1 X109.492 Y114.049 E.16262
G3 X109.39 Y113.347 I.875 J-.486 E.02615
G1 E-1.2 F2400
;WIPE_START
G1 F1800
G1 X109.492 Y114.049
G1 X109.492 Y115.34
;WIPE_END
M73 P2 R31
G1 X108.047 Y111.808 Z.4 F9000
G1 X107.085 Y109.456 Z.4
G1 Z.2
G1 E1.2 F1800
G1 X107.461 Y109.078 E.01925
G1 X107.461 Y101.701 E.26636
G3 X107.969 Y101.377 I.965 J.952 E.02194
G1 X107.969 Y108.954 E.27359
G3 X108.476 Y108.93 I.352 J2.06 E.0184
G1 X108.476 Y101.142 E.28121
G2 X108.162 Y101.255 I.092 J.746 E.01217
G1 X104.779 Y116.827 F9000
G1 F1800
G2 X104.78 Y115.055 I-7.165 J-.888 E.06415
G1 X104.921 Y115.071 E.00515
G1 X104.921 Y104.927 E.36626
G3 X105.429 Y104.642 I.727 J.699 E.02134
G1 X105.429 Y115.129 E.37866
G2 X105.937 Y115.102 I.195 J-1.127 E.01852
G1 X105.937 Y104.465 E.38406
G1 X105.645 Y104.567 E.01116
G1 X103.978 Y106.096 F9000
G1 F1800
G3 X104.413 Y105.391 I1.781 J.612 E.03017
G1 X104.413 Y117.946 E.45333
G3 X103.906 Y118.82 I-2.661 J-.963 E.03667
G1 X103.906 Y106.312 E.45158
G2 X103.81 Y106.737 I1.297 J.516 E.01576
G1 X103.051 Y108.769 F9000
G1 F1800
G3 X103.398 Y108.453 I8.029 J8.47 E.01692
G1 X103.398 Y119.414 E.39573
G3 X102.89 Y119.863 I-1.493 J-1.175 E.02462
G1 X102.89 Y108.931 E.39473
G2 X102.382 Y109.613 I1.243 J1.455 E.03097
G1 X102.382 Y120.199 E.38222
G3 X101.874 Y120.441 I-.92 J-1.279 E.02042
G1 X101.874 Y111.367 E.3276
G1 X101.366 Y111.251 E.01881
G1 X101.366 Y120.638 E.33891
G1 X100.858 Y120.754 E.01881
G1 X100.858 Y111.135 E.34729
G2 X100.351 Y111.067 I-.443 J1.364 E.0186
G1 X100.351 Y120.822 E.35224
G1 X99.843 Y120.845 E.01836
G1 X99.843 Y111.043 E.35391
G2 X99.335 Y111.092 I-.121 J1.423 E.01852
G1 X99.335 Y120.797 E.35041
G3 X98.827 Y120.722 I-.049 J-1.436 E.01863
G1 X98.827 Y111.166 E.34503
G1 X98.319 Y111.331 E.01928
G1 X98.319 Y120.558 E.33313
G3 X97.811 Y120.348 I.323 J-1.504 E.01994
G1 X97.811 Y111.541 E.31801
G1 X97.303 Y111.814 E.02082
G1 X97.303 Y120.075 E.29829
G3 X96.795 Y119.686 I.819 J-1.594 E.02324
G1 X96.795 Y112.203 E.27016
G2 X96.288 Y112.701 I1.118 J1.648 E.02582
G1 X96.288 Y119.188 E.2342
G3 X95.78 Y118.502 I1.633 J-1.741 E.03096
G1 X95.78 Y113.386 E.18472
G3 X96.137 Y112.873 I1.592 J.728 E.0227
G1 E-1.2 F2400
;WIPE_START
G1 F9000
G1 X95.78 Y113.386
G1 X95.78 Y114.761
;WIPE_END
G1 X99.342 Y113.392 Z.4
G1 X116.805 Y106.681 Z.4
G1 Z.2
G1 E1.2 F1800
;TYPE:Inner wall
;WIDTH:0.686342
G1 X116.654 Y106.718 E.00786
G1 X116.45 Y106.667 E.0107
G1 X116.339 Y106.489 E.01067
G1 X116.324 Y106.278 E.01076
G1 X116.458 Y106.118 E.01062
G1 X116.654 Y106.038 E.01075
G1 X116.85 Y106.118 E.01075
G1 X116.985 Y106.278 E.01062
G1 X116.969 Y106.489 E.01076
G1 X116.859 Y106.667 E.01067
G1 X116.843 Y106.671 E.0008
G1 E-1.2 F2400
;WIPE_START
G1 F9000
G1 X116.654 Y106.718
G1 X116.45 Y106.667
G1 X116.339 Y106.489
G1 X116.324 Y106.278
G1 X116.458 Y106.118
G1 X116.654 Y106.038
G1 X116.85 Y106.118
G1 X116.985 Y106.278
G1 X116.969 Y106.489
G1 X116.906 Y106.591
;WIPE_END
G1 X117.183 Y105.659 Z.4
G1 Z.2
G1 E1.2 F1800
;TYPE:Outer wall
;WIDTH:0.499999
G1 X117.514 Y106.052 E.01853
G1 X117.542 Y106.202 E.00551
G1 X117.508 Y106.664 E.01673
G1 X117.265 Y107.057 E.01669
G1 X117.154 Y107.161 E.00549
G1 X116.654 Y107.284 E.01858
G1 X116.205 Y107.174 E.01672
G1 X116.071 Y107.101 E.00548
G1 X115.8 Y106.664 E.01856
G1 X115.767 Y106.204 E.01664
G1 X115.795 Y106.051 E.00563
G1 X116.125 Y105.659 E.01849
G1 X116.554 Y105.485 E.01671
G1 X116.706 Y105.466 E.00555
G1 X117.146 Y105.644 E.01715
G1 E-1.2 F2400
;WIPE_START
G1 F9000
G1 X117.514 Y106.052
G1 X117.542 Y106.202
G1 X117.508 Y106.664
G1 X117.265 Y107.057
G1 X117.154 Y107.161
G1 X116.939 Y107.214
;WIPE_END
G1 X113.511 Y108.89 Z.4
G1 X110.185 Y110.515 Z.4
G1 Z.2
G1 E1.2 F1800
;TYPE:Inner wall
;WIDTH:0.448274
G1 X110.115 Y110.549 E.00251
;WIDTH:0.465946
G1 X109.545 Y110.787 E.02064
;WIDTH:0.507199
G1 X109.061 Y111.004 E.01944
G1 X108.809 Y110.522 E.01998
G2 X109.389 Y110.386 I-.291 J-2.568 E.02191
;WIDTH:0.477737
G1 X109.673 Y110.303 E.01014
;WIDTH:0.448274
G1 X110.34 Y110.206 E.0216
G1 X110.545 Y110.244 E.00667
G1 X110.587 Y110.317 E.00269
G1 X110.221 Y110.497 E.01307
G1 X111.068 Y110.503 F9000
;TYPE:Outer wall
;WIDTH:0.499999
G1 F1800
G3 X109.969 Y111.083 I-3.007 J-4.37 E.04494
G2 X108.908 Y111.591 I11.12 J24.593 E.04247
G3 X108.135 Y110.065 I4.356 J-3.167 E.062
G2 X109.579 Y109.881 I.215 J-4.055 E.05282
G1 X110.314 Y109.775 E.02685
G3 X110.949 Y109.945 I-.045 J1.43 E.02394
G1 X111.059 Y110.464 E.01915
G1 E-1.2 F2400
;WIPE_START
G1 F9000
G1 X110.593 Y110.794
G1 X109.969 Y111.083
G1 X109.3 Y111.403
;WIPE_END
G1 X110.491 Y113.626 Z.4
G1 Z.2
G1 E1.2 F1800
;WIDTH:0.38292
G1 X110.427 Y113.663 E.00198
G1 X110.491 Y113.7 E.00198
G1 X110.512 Y113.663 E.00114
; stop printing object Messi_Footballing.stl id:0 copy 0
;TIME_ELAPSED:50.116257

M106 S255
;LAYER_CHANGE
;:0.4
;HEIGHT:0.2
;BEFORE_LAYER_CHANGE
;0.4
G92 E0

G1 E-1.2 F2400
;WIPE_START
G1 F9000
G1 X110.491 Y113.7
G1 X110.427 Y113.663
G1 X110.491 Y113.626
;WIPE_END
;_SET_FAN_SPEED_CHANGING_LAYER
M204 P2500
; OBJECT_ID: 495
; printing object Messi_Footballing.stl id:0 copy 0
M204 T2500
G1 X113.253 Y112.043 Z.4
G1 E1.2 F1800
;TYPE:Support
;WIDTH:0.4
G1 F2924
G3 X113.793 Y110.692 I.462 J-.599 E.05524
G1 X113.897 Y110.306 E.01128
G3 X114.849 Y111.459 I-.346 J1.255 E.04492
G3 X115.023 Y113.576 I-1.151 J1.161 E.06522
G3 X113.131 Y112.717 I-.737 J-.891 E.07285
G3 X112.721 Y110.828 I1.384 J-1.289 E.05722
G3 X113.845 Y110.291 I.978 J.601 E.03716
G1 E-1.2 F2400
;WIPE_START
G1 F9000
G1 X113.209 Y110.39
G1 X112.721 Y110.828
G1 X112.62 Y111.521
;WIPE_END
G1 X113.533 Y107.816 Z.6
G1 X113.712 Y107.088 Z.6
G1 Z.4
G1 E1.2 F1800
G1 F2924
G3 X114.025 Y107.267 I.009 J.347 E.01068
