;TIME:671.97
;Filament used:0.44485m
;Layer height:0.200
; HEADER_BLOCK_START
; generated by Creality_Print V7.0.0.4127 on 2026-02-04 at 02:13:40
; total layer number: 134
; filament_density: 1.24,1.24,1.24,1.24
; filament_diameter: 1.75,1.75,1.75,1.75
; max_z_height: 22.00
; creality_uuid: 89c7b2fb-4fea-4c00-a53d-52e1403a27e0
; HEADER_BLOCK_END

; MINX = 100.44
; MINY = 101.06
; MINZ = 0.00
; MAXX = 119.56
; MAXY = 118.94
; MAXZ = 21.97

; multicolor_method = 0 
; THUMBNAIL_BLOCK_START

;
; THUMBNAIL_BLOCK_END

; THUMBNAIL_BLOCK_START

;
; THUMBNAIL_BLOCK_END

; external perimeters extrusion width = 0.42mm
; perimeters extrusion width = 0.45mm
; infill extrusion width = 0.45mm
; solid infill extrusion width = 0.42mm
; top infill extrusion width = 0.42mm
; support material extrusion width = 0.40mm
; first layer extrusion width = 0.50mm

; EXECUTABLE_BLOCK_START
M73 P0 R11
M201 X5000 Y5000 Z500 E5000
M203 X500 Y500 Z30 E100
M204 P5000 R2500 T5000 ; sets acceleration (P, T) and retract acceleration (R), mm/sec^2
M205 X10.00 Y10.00 Z0.40 E5.00 ; sets the jerk limits, mm/sec
; max_print_temp = 50,190
;TYPE:Custom
M220 S100 ;Reset Feedrate 
M221 S100 ;Reset Flowrate 
 
M140 S50 ;Set final bed temp 
G28 ;Home 
 
G92 E0 ;Reset Extruder 
G1 Z2.0 F3000 ;Move Z Axis up 
M104 S190 ;Set final nozzle temp 
G1 X-2.1 Y20 Z0.28 F5000.0 ;Move to start position 
M190 S50 ;Wait for bed temp to stabilize 
M109 S190 ;Wait for nozzle temp to stabilize 
G1 X-2.1 Y145.0 Z0.28 F1500.0 E15 ;Draw the first line 
G1 X-2.4 Y145.0 Z0.28 F5000.0 ;Move to side a little 
G1 X-2.4 Y20 Z0.28 F1500.0 E30 ;Draw the second line 
G92 E0  ;Reset Extruder 
G1 E-1.0000 F1800 ;Retract a bit 
M73 P1 R11
G1 Z2.0 F3000 ;Move Z Axis up 
G1 E0.0000 F1800
G90
G21
M83 ; use relative distances for extrusion
;filament start gcode
; MANUAL_TOOL_CHANGE T0
G1 E-1.2 F2400
M106 S0
;LAYER_CHANGE
;:0.2
;HEIGHT:0.2
;BEFORE_LAYER_CHANGE
;0.2
G92 E0

;_SET_FAN_SPEED_CHANGING_LAYER
M204 P500
M205 X10 Y10
; OBJECT_ID: 384
; printing object micman.stl id:247932 copy 0
M204 T500
G1 X106.214 Y105.214 Z.2 F9000
G1 E1.2 F1800
;TYPE:Support
;WIDTH:0.5
G1 X114.786 Y105.214 E.30947
G1 X114.786 Y110.929 E.20632
G1 X123.357 Y110.929 E.30947
G1 X123.357 Y120.5 E.34557
G1 X120.5 Y120.5 E.10316
M73 P1 R10
G1 X120.5 Y123.357 E.10316
G1 X110.929 Y123.357 E.34557
G1 X110.929 Y119 E.15731
G1 X116.143 Y119 E.18826
M73 P2 R10
G1 X116.143 Y112.428 E.23727
G1 X114.143 Y112.428 E.07221
G1 X114.143 Y111.928 E.01805
G1 X108.072 Y111.928 E.21921
G2 X106.922 Y107.586 I-2.375 J-1.694 E.18509
G2 X103.882 Y111.486 I-.07 J3.08 E.20724
G1 X103.931 Y111.874 E.01413
G2 X104.076 Y112.428 I2.347 J-.316 E.02072
G1 X103.857 Y112.428 E.00788
G1 X103.857 Y117.643 E.18826
G1 X99.5 Y117.643 E.15731
G1 X99.5 Y106.214 E.41263
G1 X96.643 Y106.214 E.10316
G1 X96.643 Y99.5 E.24241
G1 X106.214 Y99.5 E.34557
G1 X106.214 Y105.146 E.20384
G1 E-1.2 F2400
;WIPE_START
G1 F1800
G1 X106.214 Y103.146
;WIPE_END
G1 X107.192 Y106.835 Z.4 F9000
G1 X111.34 Y122.485 Z.4
G1 Z.2
G1 E1.2 F1800
G1 X111.34 Y122.945 E.01664
G1 X111.524 Y122.945 E.00663
G1 X111.524 Y119.411 E.1276
G1 X112.031 Y119.411 E.01834
G1 X112.031 Y122.945 E.1276
G1 X112.539 Y122.945 E.01834
G1 X112.539 Y119.411 E.1276
G1 X113.047 Y119.411 E.01834
G1 X113.047 Y122.945 E.1276
G1 X113.555 Y122.945 E.01834
G1 X113.555 Y119.411 E.1276
G1 X114.063 Y119.411 E.01834
G1 X114.063 Y122.945 E.1276
G1 X114.571 Y122.945 E.01834
G1 X114.571 Y119.411 E.1276
G1 X115.079 Y119.411 E.01834
G1 X115.079 Y122.945 E.1276
G1 X115.587 Y122.945 E.01834
G1 X115.587 Y119.411 E.1276
G1 X116.094 Y119.411 E.01834
G1 X116.094 Y122.945 E.1276
G1 X116.602 Y122.945 E.01834
G1 X116.602 Y111.34 E.41902
G1 X117.11 Y111.34 E.01834
G1 X117.11 Y122.945 E.41902
G1 X117.618 Y122.945 E.01834
G1 X117.618 Y111.34 E.41902
G1 X118.126 Y111.34 E.01834
G1 X118.126 Y122.945 E.41902
G1 X118.634 Y122.945 E.01834
M73 P3 R10
G1 X118.634 Y111.34 E.41902
G1 X119.142 Y111.34 E.01834
G1 X119.142 Y122.945 E.41902
G1 X119.649 Y122.945 E.01834
G1 X119.649 Y111.34 E.41902
G1 X120.157 Y111.34 E.01834
G1 X120.157 Y120.088 E.31587
G1 X120.665 Y120.088 E.01834
G1 X120.665 Y111.34 E.31587
G1 X121.173 Y111.34 E.01834
G1 X121.173 Y120.088 E.31587
G1 X121.681 Y120.088 E.01834
G1 X121.681 Y111.34 E.31587
G1 X122.189 Y111.34 E.01834
G1 X122.189 Y120.088 E.31587
G1 X122.697 Y120.088 E.01834
G1 X122.697 Y111.34 E.31587
G1 X122.945 Y111.34 E.00898
G1 X122.945 Y111.849 E.01838
G1 X114.291 Y111.517 F9000
G1 F1800
G1 X114.554 Y111.517 E.00949
G1 X114.571 Y112.017 E.01806
G1 X114.571 Y111.34 E.02445
G1 X115.079 Y111.34 E.01834
G1 X115.079 Y112.017 E.02445
G1 X115.587 Y112.017 E.01834
G1 X115.587 Y111.34 E.02445
G1 X116.094 Y111.34 E.01834
G1 X116.094 Y112.017 E.02445
G1 X115.815 Y112.017 E.01009
G1 X112.768 Y111.517 F9000
G1 F1800
G1 X113.047 Y111.517 E.01009
G1 X113.047 Y105.626 E.21271
G1 X113.555 Y105.626 E.01834
G1 X113.555 Y111.517 E.21271
G1 X114.063 Y111.517 E.01834
G1 X114.063 Y105.626 E.21271
G1 X114.374 Y105.626 E.01124
G1 X114.374 Y106.211 E.02112
G1 X112.819 Y105.626 F9000
G1 F1800
G1 X112.539 Y105.626 E.01009
G1 X112.539 Y111.517 E.21271
G1 X112.031 Y111.517 E.01834
G1 X112.031 Y105.626 E.21271
G1 X111.524 Y105.626 E.01834
G1 X111.524 Y111.517 E.21271
G1 X111.016 Y111.517 E.01834
G1 X111.016 Y105.626 E.21271
G1 X110.508 Y105.626 E.01834
G1 X110.508 Y111.517 E.21271
G1 X110 Y111.517 E.01834
G1 X110 Y105.626 E.21271
G1 X109.492 Y105.626 E.01834
G1 X109.492 Y111.517 E.21271
G1 X108.984 Y111.517 E.01834
M73 P4 R10
G1 X108.984 Y105.626 E.21271
G1 X108.476 Y105.626 E.01834
G1 X108.476 Y108.31 E.09691
G2 X107.969 Y107.672 I-3.429 J2.209 E.02949
G1 X107.969 Y105.626 E.07388
G1 X107.461 Y105.626 E.01834
G1 X107.461 Y107.324 E.06131
G2 X106.953 Y107.176 I-.847 J1.962 E.01915
G1 X106.953 Y105.626 E.05597
G1 X106.445 Y105.626 E.01834
G1 X106.445 Y107.157 E.0553
G2 X105.937 Y107.213 I-.066 J1.754 E.01851
G1 X105.937 Y105.626 E.0573
G1 X105.803 Y105.626 E.00484
G1 X105.803 Y99.912 E.20632
G1 X105.658 Y99.912 E.00524
G1 X105.118 Y107.578 F9000
G1 F1800
G2 X105.429 Y107.433 I-.153 J-.734 E.01249
G1 X105.429 Y99.912 E.27156
G1 X104.921 Y99.912 E.01834
G1 X104.921 Y107.692 E.28093
G3 X104.413 Y108.11 I-15.005 J-17.747 E.02373
G1 X104.413 Y99.912 E.29599
G1 X104.134 Y99.912 E.01009
G1 X99.912 Y105.962 F9000
G1 F1800
G1 X99.912 Y117.231 E.40687
G1 X100.351 Y117.231 E.01585
G1 X100.351 Y99.912 E.62534
G1 X100.858 Y99.912 E.01834
G1 X100.858 Y117.231 E.62534
G1 X101.366 Y117.231 E.01834
G1 X101.366 Y99.912 E.62534
G1 X101.874 Y99.912 E.01834
G1 X101.874 Y117.231 E.62534
G1 X102.382 Y117.231 E.01834
G1 X102.382 Y99.912 E.62534
G1 X102.89 Y99.912 E.01834
G1 X102.89 Y117.231 E.62534
G1 X103.398 Y117.231 E.01834
M73 P5 R10
G1 X103.398 Y99.912 E.62534
G1 X103.906 Y99.912 E.01834
G1 X103.906 Y108.751 E.31916
G3 X104.259 Y108.278 I1.921 J1.066 E.0214
G1 X100.122 Y99.912 F9000
G1 F1800
G1 X99.843 Y99.912 E.01009
G1 X99.843 Y105.803 E.21271
G1 X99.335 Y105.803 E.01834
G1 X99.335 Y99.912 E.21271
G1 X98.827 Y99.912 E.01834
G1 X98.827 Y105.803 E.21271
G1 X98.319 Y105.803 E.01834
G1 X98.319 Y99.912 E.21271
G1 X97.811 Y99.912 E.01834
G1 X97.811 Y105.803 E.21271
G1 X97.303 Y105.803 E.01834
G1 X97.303 Y99.912 E.21271
G1 X97.055 Y99.912 E.00898
G1 X97.055 Y100.421 E.01838
G1 E-1.2 F2400
;WIPE_START
G1 F1800
G1 X97.055 Y99.912
G1 X97.303 Y99.912
G1 X97.303 Y101.154
;WIPE_END
G1 X99.545 Y104.242 Z.4 F9000
G1 X106.298 Y113.544 Z.4
G1 Z.2
G1 E1.2 F1800
G3 X104.567 Y113.007 I-.669 J-.9 E.07615
G2 X105.699 Y112.764 I.385 J-.961 E.04434
G3 X106.019 Y112.692 I.676 J2.274 E.01188
G1 X106.277 Y113.479 E.02988
G1 E-1.2 F2400
;WIPE_START
G1 F1800
G1 X106.019 Y112.692
G1 X105.699 Y112.764
G1 X105.145 Y113.139
G1 X104.975 Y113.1
;WIPE_END
G1 X105.034 Y116.916 Z.4 F9000
G1 X105.06 Y118.571 Z.4
G1 Z.2
G1 E1.2 F1800
;TYPE:Support interface
;WIDTH:0.4
G1 X104.286 Y118.571 E.02183
G1 X104.286 Y117.619 E.02686
G1 X105.238 Y118.571 E.03799
G1 X106.45 Y118.571 E.03419
G1 X104.286 Y116.407 E.08634
G1 X104.286 Y115.195 E.03419
G1 X107.662 Y118.571 E.13469
G1 X108.875 Y118.571 E.03419
G1 X104.286 Y113.983 E.18304
G1 X104.286 Y113.388 E.01676
G1 X104.378 Y113.529 E.00475
G2 X105.073 Y114.141 I4.515 J-4.428 E.02612
G2 X105.686 Y114.171 I.415 J-2.164 E.01739
G1 X110.087 Y118.571 E.17552
G1 X111.299 Y118.571 E.03419
G1 X106.607 Y113.88 E.18715
G2 X107.324 Y113.384 I-.726 J-1.817 E.02478
G1 X112.511 Y118.571 E.20691
G1 X113.723 Y118.571 E.03419
G1 X108.009 Y112.857 E.22794
G1 X109.221 Y112.857 E.03419
G1 X114.935 Y118.571 E.22794
G1 X115.714 Y118.571 E.02198
G1 X115.714 Y118.138 E.01221
G1 X110.433 Y112.857 E.21067
G1 X111.645 Y112.857 E.03419
G1 X115.714 Y116.926 E.16232
G1 X115.714 Y115.714 E.03419
M73 P6 R10
G1 X112.857 Y112.857 E.11397
G1 X114.069 Y112.857 E.03419
G1 X115.714 Y114.502 E.06562
G1 X115.714 Y113.29 E.03419
G1 X115.281 Y112.857 E.01727
G1 X114.248 Y112.857 E.02915
G1 E-1.2 F2400
;WIPE_START
G1 F9000
G1 X115.281 Y112.857
G1 X115.714 Y113.29
G1 X115.714 Y113.644
;WIPE_END
G1 X112.008 Y112.733 Z.4
G1 X106.3 Y111.328 Z.4
G1 Z.2
G1 E1.2 F1800
;TYPE:Inner wall
;WIDTH:0.499999
G1 X105.965 Y111.396 E.01233
G2 X105.211 Y111.554 I9.048 J45.01 E.02782
G3 X105.29 Y109.8 I4.869 J-.66 E.06372
G1 X105.494 Y109.479 E.01374
G1 X105.863 Y109.14 E.01808
G2 X106.432 Y108.877 I-.093 J-.951 E.02308
G3 X106.782 Y108.934 I.1 J.489 E.01306
G1 X106.994 Y109.231 E.01319
G1 X107.201 Y109.741 E.01987
G1 X107.239 Y110.313 E.02071
G1 X107.169 Y110.736 E.01546
G1 X106.893 Y111.219 E.02011
G1 X106.339 Y111.321 E.02031
G1 X107.172 Y111.601 F9000
;TYPE:Outer wall
G1 F1800
G1 X106.854 Y111.701 E.01205
G2 X105.372 Y111.967 I5.184 J33.164 E.05436
G1 X105.022 Y112.221 E.01558
G1 X104.896 Y112.149 E.00525
G1 X104.801 Y111.914 E.00917
G3 X104.862 Y109.625 I5.213 J-1.004 E.08331
G3 X105.258 Y109.05 I3.061 J1.68 E.02526
G1 X105.7 Y108.708 E.02017
G1 X106.004 Y108.64 E.01125
G1 X106.172 Y108.474 E.00853
G3 X106.904 Y108.463 I.386 J1.389 E.02672
G1 X107.019 Y108.543 E.00505
G1 X107.344 Y108.886 E.01707
G3 X107.696 Y109.806 I-10.936 J4.715 E.03559
G1 X107.697 Y110.482 E.0244
G1 X107.6 Y110.9 E.01548
G3 X107.201 Y111.577 I-8.581 J-4.599 E.02838
G1 E-1.2 F2400
;WIPE_START
G1 F9000
G1 X106.854 Y111.701
G1 X105.372 Y111.967
G1 X105.27 Y112.041
;WIPE_END
G1 X107.057 Y109.736 Z.4
G1 Z.2
G1 E1.2 F1800
;TYPE:Bottom surface
;WIDTH:0.580509
G1 F4800
G1 X106.553 Y109.231 E.03031
G3 X106.037 Y109.441 I-.608 J-.755 E.02395
G1 X106.018 Y109.457 E.00107
G1 X106.897 Y110.336 E.05276
G3 X106.692 Y110.892 I-1.078 J-.081 E.02548
G1 X105.655 Y109.855 E.06228
G2 X105.578 Y110.061 I.312 J.235 E.00951
G1 X105.528 Y110.487 E.0182
G1 X106.243 Y111.203 E.04299
; stop printing object micman.stl id:247932 copy 0
;TIME_ELAPSED:42.638458

M106 S255
;LAYER_CHANGE
;:0.4
;HEIGHT:0.2
;BEFORE_LAYER_CHANGE
;0.4
G92 E0

G1 E-1.2 F2400
;WIPE_START
G1 F9000
G1 X105.528 Y110.487
G1 X105.578 Y110.061
G1 X105.61 Y109.931
G1 X105.655 Y109.855
G1 X105.893 Y110.092
;WIPE_END
;_SET_FAN_SPEED_CHANGING_LAYER
M204 P2500
; OBJECT_ID: 384
; printing object micman.stl id:247932 copy 0
M204 T2500
G1 X106.849 Y112.326 Z.4
G1 E1.2 F1800
M204 P500
;TYPE:Overhang wall
;WIDTH:0.449999
G1 F1200
G1 X106.553 Y112.751 E.01665
G1 X106.345 Y112.927 E.00876
G1 X106.01 Y113.051 E.01149
G1 X105.456 Y113.191 E.01837
G1 X105.159 Y112.887 E.01367
M204 P2000
;TYPE:Inner wall
G1 F720
G1 X105.111 Y112.839 E.00218
G1 X105.045 Y112.681 E.00551
M106 S255
G1 F1200
G1 X104.924 Y112.391 E.0101
G1 X104.722 Y111.638 E.02507
G1 X104.672 Y111.046 E.0191
G1 X104.721 Y110.367 E.02189
G1 X105 Y109.484 E.02978
G1 X105.178 Y109.259 E.00923
G1 X105.567 Y108.875 E.01758
G1 X106.061 Y108.581 E.01849
G1 X106.543 Y108.524 E.01561
G1 X106.942 Y108.572 E.01292
G1 X107.152 Y108.748 E.00881
G1 X107.455 Y109.172 E.01676
G1 X107.568 Y109.756 E.01913
G1 X107.591 Y110.34 E.01879
G1 X107.515 Y111.202 E.02783
G1 X107.21 Y111.846 E.02291
G1 X107.035 Y112.078 E.00934
G1 X106.872 Y112.293 E.00868
G1 X107.493 Y112.121 F9000
M204 P500
;TYPE:Overhang wall
;WIDTH:0.419999
G1 F1200
G1 X106.893 Y112.941 E.03027
G1 X106.551 Y113.266 E.01405
G1 X106.096 Y113.434 E.01445
G1 X105.475 Y113.598 E.01913
G1 X105.215 Y113.547 E.00789
G1 X105.153 Y113.448 E.00348
G1 X104.852 Y113.176 E.01208
G1 X104.639 Y112.782 E.01334
M204 P1000
;TYPE:Outer wall
G1 X104.438 Y112.166 E.0193
G1 X104.308 Y111.587 E.01768
G1 X104.279 Y111.043 E.01623
G1 X104.3 Y110.759 E.00848
G1 X104.311 Y110.603 E.00466
G1 X104.325 Y110.408 E.00582
M106 S255
G1 X104.333 Y110.293 E.00343
G1 X104.648 Y109.298 E.03109
G1 X105.051 Y108.82 E.01862
G1 X105.474 Y108.461 E.01653
G1 X105.94 Y108.204 E.01585
G1 X106.391 Y108.138 E.01358
G1 X106.9 Y108.159 E.01517
G1 X107.224 Y108.267 E.01017
G1 X107.544 Y108.585 E.01344
G1 X107.819 Y109.013 E.01515
G1 X107.954 Y109.651 E.01942
G1 X107.99 Y110.252 E.01793
G1 X107.953 Y110.766 E.01535
G1 X107.909 Y111.191 E.01273
G1 X107.895 Y111.317 E.00378
G1 X107.548 Y112.05 E.02416
G1 X107.518 Y112.089 E.00147
G1 X106.739 Y112.322 F9000
M204 P500
;TYPE:Bridge
;WIDTH:0.401146
G1 F1200
G1 X105.47 Y112.849 E.03888
G1 X105.364 Y112.757 E.00397
G1 X105.25 Y112.552 E.00664
G1 X105.999 Y112.241 E.02295
G1 X106.859 Y111.884 E.02635
G1 X106.985 Y111.712 E.00603
G1 X107.143 Y111.379 E.01043
G1 X106.925 Y111.469 E.00667
G1 X105.572 Y112.031 E.04146
G1 X105.139 Y112.21 E.01326
G1 X105.039 Y111.864 E.01019
G1 X106.625 Y111.206 E.04859
G1 X107.204 Y110.246 F9000
M204 P2500
;TYPE:Internal solid infill
;WIDTH:0.419999
G1 F1200
M106 S255
G1 X107.171 Y109.697 E.01639
G1 X107.092 Y109.332 E.01115
G1 X106.856 Y109.007 E.01196
G1 X106.793 Y108.944 E.00265
G1 X106.342 Y108.947 E.01341
G1 X106.084 Y109.005 E.00787
G1 X105.632 Y109.361 E.01715
G1 X105.352 Y109.671 E.01244
G1 X105.108 Y110.441 E.02406
G1 X105.065 Y111.047 E.0181
G1 X105.083 Y111.273 E.00674
G3 X106.311 Y111.041 I1.619 J5.21 E.03731
G1 X107.151 Y110.873 E.02553
G1 X107.201 Y110.286 E.01753
G1 X106.815 Y110.057 F9000
G1 F1200
G2 X106.717 Y109.446 I-1.429 J-.084 E.01856
G1 X106.599 Y109.304 E.00549
G1 X106.229 Y109.354 E.01112
G1 X105.8 Y109.713 E.01668
G1 X105.66 Y109.948 E.00814
G1 X105.481 Y110.513 E.01764
G1 X105.462 Y110.788 E.00821
G2 X106.799 Y110.566 I-2.348 J-18.315 E.04038
G1 X106.814 Y110.097 E.01399
G1 X106.442 Y110.256 F9000
;WIDTH:0.428256
G1 F1200
G1 X106.405 Y109.704 E.01684
G1 X106.033 Y110.032 E.0151
G1 X105.941 Y110.325 E.00933
G1 X106.403 Y110.261 E.01419
; stop printing object micman.stl id:247932 copy 0
;TIME_ELAPSED:45.465790

;LAYER_CHANGE
;:0.525
;HEIGHT:0.125
;BEFORE_LAYER_CHANGE
;0.525
G92 E0

G1 E-1.2 F2400
;WIPE_START
G1 F9000
G1 X105.941 Y110.325
G1 X106.033 Y110.032
G1 X106.405 Y109.704
G1 X106.442 Y110.256
;WIPE_END
;_SET_FAN_SPEED_CHANGING_LAYER
; OBJECT_ID: 384
; printing object micman.stl id:247932 copy 0
G1 X106.734 Y107.349 Z.6
G1 Z.525
G1 E1.2 F1800
;TYPE:Support
;WIDTH:0.4
;HEIGHT:0.325
G1 F2631
G1 X107.143 Y107.403 E.01749
G1 X107.143 Y107.143 E.01102
G1 X101.429 Y107.143 E.24224
G1 X101.429 Y110 E.12112
G1 X103.543 Y110 E.08963
G2 X103.79 Y112.857 I5.69 J.947 E.12286
G1 X101.429 Y112.857 E.1001
G1 X101.429 Y115.714 E.12112
G1 X104.286 Y115.714 E.12112
G1 E-1.2 F2400
;WIPE_START
G1 F9000
G1 X102.286 Y115.714
;WIPE_END
G1 X105.844 Y114.334 Z.725
G1 X108.917 Y113.143 Z.725
G1 Z.525
G1 E1.2 F1800
G1 F2631
G3 X108.219 Y113.392 I-.728 J-.936 E.03196
G3 X108.125 Y112.857 I-.04 J-.269 E.03561
G1 X109.867 Y112.857 E.07382
G1 E-1.2 F2400
;WIPE_START
G1 F9000
G1 X108.125 Y112.857
G1 X108.014 Y113.091
;WIPE_END
G1 X110 Y110 Z.725
G1 Z.525
G1 E1.2 F1800
G1 F2631
G1 X112.857 Y110 E.12112
G1 X112.857 Y107.143 E.12112
G1 X110 Y107.143 E.12112
G1 E-1.2 F2400
;WIPE_START
G1 F9000
G1 X112 Y107.143
;WIPE_END
G1 X113.527 Y110.64 Z.725
M73 P7 R10
G1 X114.495 Y112.857 Z.725
G1 Z.525
G1 E1.2 F1800
G1 F2631
G1 X121.428 Y112.857 E.29392
G1 X121.428 Y115.714 E.12112
G1 X114.716 Y115.714 E.28455
G3 X114.349 Y116.139 I-4.073 J-3.149 E.02384
G3 X112.857 Y117.399 I-1.714 J-.516 E.08755
G1 X112.857 Y118.571 E.04968
G1 X121.428 Y118.571 E.36336
G1 E-1.2 F2400
;WIPE_START
G1 F9000
