;TIME:1900.96
;Filament used:2.17375m
;Layer height:0.200
; HEADER_BLOCK_START
; generated by Creality_Print V7.0.0.4127 on 2026-02-04 at 02:14:56
; total layer number: 150
; filament_density: 1.24,1.24,1.24,1.24
; filament_diameter: 1.75,1.75,1.75,1.75
; max_z_height: 30.20
; creality_uuid: 7ae71549-e699-444c-bea2-fd434fa1c667
; HEADER_BLOCK_END

; MINX = 100.00
; MINY = 81.86
; MINZ = 0.00
; MAXX = 120.00
; MAXY = 138.14
; MAXZ = 30.29

; multicolor_method = 0 
; THUMBNAIL_BLOCK_START

;
; THUMBNAIL_BLOCK_END

; THUMBNAIL_BLOCK_START

;
; THUMBNAIL_BLOCK_END

; external perimeters extrusion width = 0.42mm
; perimeters extrusion width = 0.45mm
; infill extrusion width = 0.45mm
; solid infill extrusion width = 0.42mm
; top infill extrusion width = 0.42mm
; support material extrusion width = 0.40mm
; first layer extrusion width = 0.50mm

; EXECUTABLE_BLOCK_START
M73 P0 R31
M201 X5000 Y5000 Z500 E5000
M203 X500 Y500 Z30 E100
M204 P5000 R2500 T5000 ; sets acceleration (P, T) and retract acceleration (R), mm/sec^2
M205 X10.00 Y10.00 Z0.40 E5.00 ; sets the jerk limits, mm/sec
; max_print_temp = 50,190
;TYPE:Custom
M220 S100 ;Reset Feedrate 
M221 S100 ;Reset Flowrate 
 
M140 S50 ;Set final bed temp 
G28 ;Home 
 
G92 E0 ;Reset Extruder 
G1 Z2.0 F3000 ;Move Z Axis up 
M104 S190 ;Set final nozzle temp 
G1 X-2.1 Y20 Z0.28 F5000.0 ;Move to start position 
M190 S50 ;Wait for bed temp to stabilize 
M109 S190 ;Wait for nozzle temp to stabilize 
G1 X-2.1 Y145.0 Z0.28 F1500.0 E15 ;Draw the first line 
G1 X-2.4 Y145.0 Z0.28 F5000.0 ;Move to side a little 
G1 X-2.4 Y20 Z0.28 F1500.0 E30 ;Draw the second line 
G92 E0  ;Reset Extruder 
G1 E-1.0000 F1800 ;Retract a bit 
G1 Z2.0 F3000 ;Move Z Axis up 
G1 E0.0000 F1800
G90
G21
M83 ; use relative distances for extrusion
;filament start gcode
; MANUAL_TOOL_CHANGE T0
G1 E-1.2 F2400
M106 S0
;LAYER_CHANGE
;:0.2
;HEIGHT:0.2
;BEFORE_LAYER_CHANGE
;0.2
G92 E0

;_SET_FAN_SPEED_CHANGING_LAYER
M204 P500
M205 X10 Y10
; OBJECT_ID: 458
; printing object newyork.stl id:47851484786327721 copy 0
M204 T500
G1 X104.713 Y84.286 Z.2 F9000
G1 E1.2 F1800
;TYPE:Support interface
;WIDTH:0.4
G1 X104.286 Y84.286 E.01206
G1 X104.286 Y83.68 E.0171
G1 X104.892 Y84.286 E.02418
G1 X106.104 Y84.286 E.03419
G1 X104.286 Y82.468 E.07253
G1 X104.286 Y81.429 E.02931
G1 X104.459 Y81.429 E.00488
G1 X110 Y86.97 E.22104
G1 X110 Y85.758 E.03419
G1 X107.348 Y83.106 E.10579
G1 X106.839 Y82.871 E.01581
G1 X106.882 Y82.64 E.0066
G1 X105.671 Y81.429 E.04832
G1 X106.883 Y81.429 E.03419
G1 X107.697 Y82.243 E.03245
G1 X107.996 Y82.223 E.00846
G1 X108.038 Y81.995 E.00655
G1 X108.622 Y81.956 E.0165
G1 X108.095 Y81.429 E.02101
G1 X109.307 Y81.429 E.03419
G1 X110 Y82.122 E.02763
G1 X110 Y83.334 E.03419
G1 X109.476 Y82.81 E.0209
G1 X109.252 Y83.114 E.01064
G1 X109.575 Y83.47 E.01354
G1 X109.299 Y83.845 E.01313
G1 X110 Y84.546 E.02798
G1 X110 Y85.58 E.02915
G1 E-1.2 F2400
;WIPE_START
G1 F1800
G1 X110 Y84.546
G1 X109.317 Y83.863
;WIPE_END
G1 X107.928 Y87.143 Z.4 F9000
G1 Z.2
G1 E1.2 F1800
G1 X108.961 Y87.143 E.02915
G1 X107.143 Y85.325 E.07253
G1 X107.143 Y86.537 E.03419
G1 X107.749 Y87.143 E.02418
G1 X107.143 Y87.143 E.0171
G1 X107.143 Y86.716 E.01206
G1 E-1.2 F2400
;WIPE_START
G1 F1800
G1 X107.143 Y87.143
G1 X107.749 Y87.143
G1 X107.143 Y86.537
G1 X107.143 Y86.428
;WIPE_END
G1 X108.435 Y90.019 Z.4 F9000
G1 X114.594 Y107.143 Z.4
G1 Z.2
G1 E1.2 F1800
G1 X115.714 Y107.143 E.0316
G1 X115.714 Y108.442 E.03663
G1 X114.415 Y107.143 E.05181
G1 X113.492 Y107.143 E.02606
G1 X113.491 Y107.431 E.00813
G1 X115.714 Y109.654 E.08866
G1 X115.714 Y110 E.00977
G1 X116.06 Y110 E.00977
G1 X118.571 Y112.511 E.10016
G1 X118.571 Y113.723 E.03419
G1 X113.491 Y108.642 E.20267
G1 X113.49 Y109.853 E.03416
G1 X118.571 Y114.935 E.2027
G1 X118.571 Y115.714 E.02198
G1 X118.138 Y115.714 E.01221
G3 X115.701 Y112.665 I5.87 J-7.191 E.11093
G2 X114.993 Y112.569 I-.443 J.608 E.021
G1 X113.489 Y111.065 E.06
G1 X113.488 Y112.276 E.03416
G1 X113.771 Y112.559 E.0113
G1 X114.814 Y112.567 E.02942
G1 E-1.2 F2400
;WIPE_START
G1 F1800
G1 X113.771 Y112.559
G1 X113.488 Y112.276
G1 X113.488 Y111.72
;WIPE_END
G1 X116.239 Y110 Z.4 F9000
G1 Z.2
G1 E1.2 F1800
G1 X117.273 Y110 E.02915
G1 X118.571 Y111.299 E.05181
G1 X118.571 Y110 E.03663
G1 X117.451 Y110 E.0316
G1 E-1.2 F2400
;WIPE_START
G1 F1800
G1 X118.571 Y110
G1 X118.571 Y110.88
;WIPE_END
G1 X118.68 Y114.694 Z.4 F9000
G1 X118.904 Y122.506 Z.4
G1 Z.2
G1 E1.2 F1800
;TYPE:Support
;WIDTH:0.5
G1 X117.221 Y122.858 E.06209
G1 X116.143 Y121 E.07756
G1 X114.143 Y121 E.07221
G1 X114.143 Y119.544 E.05254
G1 X117.033 Y119.5 E.10435
G1 X118.868 Y122.448 E.12539
G1 X116.554 Y120.939 F9000
G1 F1800
G1 X116.554 Y120.588 E.01266
G1 X116.094 Y120.588 E.0166
G1 X116.094 Y119.911 E.02445
G1 X116.602 Y119.911 E.01834
G2 X117.11 Y121.97 I1.907 J.621 E.08065
G1 X117.11 Y120.403 E.05657
G3 X117.618 Y122.355 I-1.314 J1.384 E.07672
G1 X118.126 Y122.249 E.01873
G2 X117.739 Y121.413 I-.865 J-.107 E.03505
G1 X115.866 Y119.911 F9000
G1 F1800
G1 X115.587 Y119.911 E.01009
G1 X115.587 Y120.588 E.02445
G1 X115.079 Y120.588 E.01834
G1 X115.079 Y119.911 E.02445
G1 X114.554 Y119.911 E.01894
G1 X114.554 Y120.588 E.02445
G1 X114.85 Y120.588 E.01068
G1 E-1.2 F2400
;WIPE_START
G1 F1800
G1 X114.554 Y120.588
G1 X114.554 Y119.911
G1 X115.079 Y119.911
G1 X115.079 Y120.414
;WIPE_END
G1 X117.065 Y123.257 Z.4 F9000
G1 Z.2
G1 E1.2 F1800
;TYPE:Support interface
;WIDTH:0.4
G3 X115.368 Y121.428 I27.839 J-27.535 E.07039
G1 X114.156 Y121.428 E.03419
G1 X118.571 Y125.844 E.17614
G1 X118.571 Y124.632 E.03419
G1 X117.233 Y123.293 E.0534
G1 X118.235 Y123.084 E.02889
G1 X118.571 Y123.42 E.0134
M73 P1 R31
G1 X118.571 Y124.453 E.02915
G1 E-1.2 F2400
;WIPE_START
G1 F1800
G1 X118.571 Y123.42
G1 X118.235 Y123.084
G1 X117.754 Y123.184
;WIPE_END
G1 X118.571 Y126.022 Z.4 F9000
G1 Z.2
G1 E1.2 F1800
G1 X118.571 Y127.056 E.02915
G1 X113.397 Y121.882 E.20638
G1 X112.789 Y122.486 E.02418
G1 X118.316 Y128.013 E.22048
G1 X117.299 Y128.208 E.02921
G1 X112.58 Y123.489 E.18823
G1 X112.58 Y124.701 E.03419
G1 X115.893 Y128.014 E.13214
G2 X117.122 Y128.233 I.752 J-.663 E.03802
G1 E-1.2 F2400
;WIPE_START
G1 F1800
G1 X116.434 Y128.331
G1 X115.893 Y128.014
G1 X115.414 Y127.535
;WIPE_END
G1 X118.61 Y125.449 Z.4 F9000
G1 X120.5 Y124.216 Z.4
G1 Z.2
G1 E1.2 F1800
;TYPE:Support
;WIDTH:0.5
G1 X119 Y124.53 E.05532
G1 X119.009 Y122.675 E.06697
G2 X120.24 Y121.611 I.463 J-.708 E.07896
G1 X120.5 Y121.497 E.01024
G1 X120.5 Y124.148 E.0957
G1 X119.873 Y123.08 F9000
G1 F1800
G1 X119.885 Y123.078 E.00045
G2 X120.088 Y123.018 I-.56 J-2.262 E.00765
G1 X120.088 Y123.882 E.03121
G1 X119.649 Y123.974 E.01619
G1 X119.649 Y123.127 E.03056
G1 X119.411 Y123.177 E.00879
G1 X119.426 Y124.02 E.03046
G1 E-1.2 F2400
;WIPE_START
G1 F9000
G1 X119.411 Y123.177
G1 X119.649 Y123.127
G1 X119.649 Y123.974
G1 X119.715 Y123.96
;WIPE_END
G1 X119.515 Y127.771 Z.4
G1 X119.471 Y128.596 Z.4
G1 Z.2
G1 E1.2 F1800
;TYPE:Outer wall
;WIDTH:0.491815
G1 X118.925 Y129.91 E.05047
G1 X118.887 Y128.667 E.04409
G1 X119.432 Y128.601 E.01944
G1 E-1.2 F2400
;WIPE_START
G1 F9000
G1 X118.925 Y129.91
G1 X118.907 Y129.314
;WIPE_END
G1 X117.732 Y125.683 Z.4
G1 X114.915 Y116.976 Z.4
G1 Z.2
G1 E1.2 F1800
;TYPE:Inner wall
;WIDTH:0.499999
G1 X114.732 Y117.132 E.00869
G2 X114.363 Y117.486 I4.647 J5.228 E.01845
G1 X110.055 Y121.759 E.21907
G1 X109.914 Y121.961 E.00892
G1 X109.853 Y122.245 E.01049
G1 X109.853 Y127.826 E.20148
G1 X109.987 Y128.143 E.01242
G1 X110.192 Y128.327 E.00995
G1 X111.493 Y129.09 E.05447
G1 X113.219 Y131.796 E.11588
;WIDTH:0.501504
G1 X113.674 Y132.482 E.02982
G1 X113.937 Y132.646 E.01123
;WIDTH:0.499364
G1 X115.405 Y133.167 E.05615
;WIDTH:0.510962
G1 X115.916 Y133.333 E.01989
G1 X116.292 Y133.316 E.01391
G1 X115.938 Y133.838 E.02335
G2 X115.238 Y133.592 I-12.243 J33.645 E.02743
;WIDTH:0.499364
G1 X113.58 Y132.997 E.06352
;WIDTH:0.499999
G1 X113.3 Y132.964 E.0102
G1 X112.97 Y133.089 E.01272
G1 X112.808 Y133.253 E.00831
G1 X109.998 Y137.264 E.17684
G1 X109.789 Y137.286 E.00757
G1 X100.947 Y137.286 E.31926
G1 X100.947 Y98.037 E1.41712
G1 X104.513 Y92.308 E.24365
G1 X104.716 Y91.787 E.0202
G1 X108.594 Y91.756 E.14005
G3 X109.934 Y91.835 I.187 J8.317 E.0485
G1 X110.666 Y91.81 E.02644
G1 X112.979 Y92.983 E.09367
G2 X113.837 Y94.698 I10.023 J-3.939 E.06932
G2 X113.589 Y95.05 I.263 J.448 E.016
G2 X112.713 Y95.608 I3.249 J6.07 E.03755
G1 X110.465 Y97.295 E.10147
G1 X110.283 Y97.501 E.00993
G1 X110.192 Y97.806 E.01151
G1 X110.134 Y98.877 E.03872
G1 X110.134 Y103.308 E.16
G1 X110.157 Y104.363 E.03811
G1 X110.155 Y115.303 E.39497
G1 X110.278 Y115.608 E.01188
G1 X110.51 Y115.817 E.01127
G1 X110.835 Y115.902 E.01216
G1 X115.411 Y115.938 E.16522
G1 X115.761 Y116.399 E.0209
G1 X115.621 Y116.461 E.00553
G2 X115.157 Y116.784 I3.758 J5.899 E.02043
G1 X114.946 Y116.951 E.00971
G1 E-1.2 F2400
;WIPE_START
G1 F9000
G1 X114.732 Y117.132
G1 X114.363 Y117.486
G1 X113.505 Y118.337
;WIPE_END
G1 X116.075 Y116.784 Z.4
G1 Z.2
G1 E1.2 F1800
;TYPE:Outer wall
G1 X115.873 Y116.842 E.0076
G2 X114.687 Y117.808 I3.441 J5.436 E.05534
G1 X110.377 Y122.083 E.21919
G1 X110.31 Y122.245 E.00635
G1 X110.31 Y127.794 E.20033
G1 X110.423 Y127.933 E.00646
G1 X111.819 Y128.751 E.05845
G1 X113.972 Y132.125 E.14449
G1 X114.088 Y132.218 E.00538
G2 X116.074 Y132.898 I10.641 J-27.829 E.07579
G1 X116.313 Y132.852 E.00881
G1 X117.087 Y132.467 E.03119
G1 X117.661 Y132.272 E.0219
G1 X117.326 Y132.792 E.02233
G1 X116.748 Y133.467 E.03209
G1 X116.228 Y134.235 E.0335
G1 X116.179 Y134.419 E.00686
G2 X113.372 Y133.404 I-201.559 J552.991 E.10777
G1 X113.183 Y133.515 E.00792
G1 X110.253 Y137.696 E.18433
G1 X109.814 Y137.743 E.01595
G1 X100.49 Y137.743 E.33665
G1 X100.49 Y97.907 E1.43834
G1 X104.125 Y92.067 E.24837
G1 X104.254 Y91.763 E.01194
G1 X104.312 Y91.333 E.01565
G1 X108.591 Y91.299 E.1545
G3 X109.918 Y91.378 I.212 J7.684 E.04808
G1 X110.768 Y91.349 E.03069
G1 X113.336 Y92.652 E.10398
G2 X114.483 Y94.95 I14.811 J-5.953 E.09285
;WIDTH:0.454884
G1 X114.581 Y94.994 E.00349
;WIDTH:0.418902
G1 X114.679 Y95.038 E.00319
;WIDTH:0.432236
G1 X114.524 Y95.018 E.00479
;WIDTH:0.481552
G1 X114.37 Y94.999 E.00539
;WIDTH:0.499999
G1 X114.15 Y95.009 E.00793
G1 X114.05 Y95.113 E.0052
G1 X114.016 Y95.35 E.00866
G2 X112.99 Y95.972 I3.872 J7.549 E.04335
G2 X110.704 Y97.693 I155.144 J208.342 E.1033
G1 X110.649 Y97.831 E.00536
G1 X110.591 Y98.889 E.03827
G1 X110.591 Y103.303 E.15938
G1 X110.614 Y104.364 E.03828
G1 X110.612 Y115.247 E.39298
G1 X110.693 Y115.392 E.00597
G1 X110.839 Y115.445 E.0056
G1 X115.647 Y115.483 E.1736
G2 X116.322 Y116.325 I5.247 J-3.515 E.03902
;WIDTH:0.497226
G1 X116.61 Y116.703 E.01706
;WIDTH:0.474732
G1 X119.37 Y121.136 E.17813
G1 X119.498 Y121.549 E.01474
;WIDTH:0.474733
G1 X119.523 Y121.876 E.01117
G1 X119.416 Y121.936 E.0042
G1 X119.252 Y121.765 E.00809
G1 X116.247 Y116.937 E.19396
;WIDTH:0.497226
G1 X116.105 Y116.811 E.00682
G1 E-1.2 F2400
;WIPE_START
G1 F9000
G1 X115.873 Y116.842
G1 X115.445 Y117.126
G1 X115.048 Y117.46
G1 X114.687 Y117.808
G1 X114.522 Y117.971
;WIPE_END
G1 X115.036 Y114.19 Z.4
G1 X117.679 Y94.715 Z.4
G1 Z.2
G1 E1.2 F1800
;WIDTH:0.38292
G1 X117.616 Y94.752 E.00198
G1 X117.679 Y94.789 E.00198
G1 X117.701 Y94.752 E.00114
G1 X117.54 Y94.093 F9000
G1 F1800
G1 X117.476 Y94.13 E.00198
G1 X117.54 Y94.167 E.00198
G1 X117.561 Y94.13 E.00114
G1 X116.786 Y94.736 F9000
;WIDTH:0.388246
G1 F1800
G1 X116.498 Y94.8 E.00807
G1 X116.076 Y95.185 E.01559
;WIDTH:0.364899
G1 X115.999 Y95.173 E.00198
;WIDTH:0.409524
G1 X115.075 Y95 E.02721
;WIDTH:0.405522
G1 X116.458 Y94.805 E.04
G1 E-1.2 F2400
;WIPE_START
G1 F9000
G1 X116.076 Y95.185
G1 X115.999 Y95.173
G1 X115.075 Y95
G1 X115.514 Y94.938
;WIPE_END
G1 X115.04 Y95.007 Z.4
G1 Z.2
G1 E1.2 F1800
;WIDTH:0.409524
G1 X114.679 Y95.038 E.0105
G1 E-1.2 F2400
;WIPE_START
G1 F9000
G1 X115.04 Y95.007
;WIPE_END
G1 X111.928 Y92.799 Z.4
G1 X110.962 Y92.113 Z.4
G1 Z.2
G1 E1.2 F1800
;TYPE:Bottom surface
;WIDTH:0.502825
G1 F4800
G1 X113.259 Y94.411 E.11804
G2 X113.391 Y94.649 I1.105 J-.457 E.00992
G1 X113.311 Y94.825 E.00704
G1 X113.127 Y94.929 E.00767
G1 X110.361 Y92.163 E.14212
G3 X109.701 Y92.154 I-.295 J-2.453 E.02404
G1 X112.727 Y95.18 E.15547
G2 X112.349 Y95.452 I3.719 J5.557 E.01693
G1 X108.993 Y92.096 E.17243
G1 X108.348 Y92.101 E.02345
G1 X111.978 Y95.731 E.1865
G1 X111.606 Y96.01 E.01688
G1 X107.702 Y92.106 E.20056
G1 X107.057 Y92.111 E.02345
G1 X111.235 Y96.289 E.21463
G1 X110.863 Y96.568 E.01688
G1 X106.412 Y92.116 E.2287
G1 X105.766 Y92.121 E.02345
G1 X110.492 Y96.846 E.24276
G2 X110.133 Y97.138 I1.195 J1.839 E.01683
G1 X105.121 Y92.126 E.25748
G1 X104.966 Y92.128 E.00565
G1 X104.814 Y92.47 E.0136
G1 X109.899 Y97.554 E.26122
G1 X109.869 Y97.631 E.00298
G1 X109.838 Y98.144 E.01867
G1 X104.566 Y92.872 E.27084
G1 X104.317 Y93.273 E.01715
G1 X109.8 Y98.756 E.28172
G2 X109.792 Y99.399 I5.211 J.389 E.02334
G1 X104.067 Y93.674 E.29411
G1 X103.818 Y94.075 E.01715
G1 X109.792 Y100.049 E.30693
G1 X109.792 Y100.699 E.02363
G1 X103.568 Y94.476 E.31975
G1 X103.318 Y94.877 E.01715
G1 X109.792 Y101.35 E.33257
G1 X109.792 Y102 E.02363
G1 X103.069 Y95.277 E.34539
G1 X102.819 Y95.678 E.01715
G1 X109.792 Y102.651 E.35821
G1 X109.792 Y103.301 E.02363
G1 X102.57 Y96.079 E.37104
G1 X102.32 Y96.48 E.01715
M73 P2 R31
G1 X109.806 Y103.966 E.38461
G3 X109.814 Y104.625 I-15.371 J.517 E.02392
G1 X102.071 Y96.881 E.39785
G1 X101.821 Y97.282 E.01715
G1 X109.815 Y105.275 E.4107
G1 X109.815 Y105.926 E.02365
G1 X101.572 Y97.683 E.42355
G1 X101.322 Y98.083 E.01715
G1 X109.816 Y106.577 E.43639
G1 X109.817 Y107.228 E.02365
G1 X101.29 Y98.702 E.43808
G1 X101.29 Y99.352 E.02363
G1 X109.817 Y107.879 E.43811
G1 X109.818 Y108.53 E.02365
G1 X101.29 Y100.002 E.43814
G1 X101.29 Y100.653 E.02363
G1 X109.818 Y109.181 E.43817
G1 X109.819 Y109.832 E.02365
G1 X101.29 Y101.303 E.43819
G1 X101.29 Y101.954 E.02363
G1 X109.819 Y110.483 E.43822
G1 X109.82 Y111.134 E.02365
G1 X101.29 Y102.604 E.43825
G1 X101.29 Y103.254 E.02363
M73 P2 R30
G1 X109.82 Y111.785 E.43828
G1 X109.821 Y112.436 E.02365
G1 X101.29 Y103.905 E.43831
G1 X101.29 Y104.555 E.02363
G1 X109.821 Y113.087 E.43833
G1 X109.822 Y113.738 E.02365
G1 X101.29 Y105.206 E.43836
G1 X101.29 Y105.856 E.02363
G1 X110.028 Y114.595 E.44897
G1 E-1.2 F2400
;WIPE_START
G1 F9000
G1 X108.614 Y113.18
;WIPE_END
G1 X112.067 Y114.805 Z.4
G1 X114.756 Y116.07 Z.4
G1 Z.2
G1 E1.2 F1800
G1 F4800
G1 X115.091 Y116.405 E.0172
G2 X114.723 Y116.688 I1.194 J1.928 E.01688
G1 X114.308 Y116.272 E.02136
G1 X113.652 Y116.267 E.02381
G1 X114.38 Y116.995 E.0374
G2 X114.049 Y117.314 I8.3 J8.937 E.01671
G1 X112.997 Y116.262 E.05406
G1 X112.341 Y116.257 E.02381
G1 X113.722 Y117.638 E.07097
G1 X113.396 Y117.962 E.01671
G1 X111.478 Y116.045 E.09852
G1 E-1.2 F2400
;WIPE_START
G1 F9000
G1 X112.893 Y117.459
;WIPE_END
G1 X113.215 Y118.431 Z.4
G1 Z.2
G1 E1.2 F1800
G1 F4800
G1 X111.03 Y116.247 E.11224
G3 X110.344 Y116.118 I-.081 J-1.463 E.02559
G3 X109.823 Y115.04 I.541 J-.927 E.04618
G1 X101.29 Y106.506 E.43842
G1 X101.29 Y107.157 E.02363
G1 X112.743 Y118.61 E.58843
G1 X112.416 Y118.934 E.01671
G1 X101.29 Y107.807 E.57165
G1 X101.29 Y108.458 E.02363
G1 X112.09 Y119.258 E.55488
G1 X111.763 Y119.582 E.01671
G1 X101.29 Y109.108 E.5381
G1 X101.29 Y109.758 E.02363
G1 X111.437 Y119.905 E.52133
G1 X111.11 Y120.229 E.01671
G1 X101.29 Y110.409 E.50455
G1 X101.29 Y111.059 E.02363
G1 X110.784 Y120.553 E.48777
G1 X110.457 Y120.877 E.01671
G1 X101.29 Y111.71 E.471
G1 X101.29 Y112.36 E.02363
G1 X110.131 Y121.201 E.45422
G1 X109.805 Y121.526 E.01671
G1 X101.29 Y113.01 E.43748
G1 X101.29 Y113.661 E.02363
G1 X109.565 Y121.936 E.42516
G2 X109.51 Y122.531 I1.47 J.437 E.02185
G1 X101.29 Y114.311 E.42232
G1 X101.29 Y114.962 E.02363
G1 X109.51 Y123.182 E.42232
G1 X109.51 Y123.832 E.02363
G1 X101.29 Y115.612 E.42232
G1 X101.29 Y116.262 E.02363
G1 X109.51 Y124.483 E.42232
G1 X109.51 Y125.133 E.02363
G1 X101.29 Y116.913 E.42232
G1 X101.29 Y117.563 E.02363
G1 X109.51 Y125.783 E.42232
G1 X109.51 Y126.434 E.02363
G1 X101.29 Y118.214 E.42232
G1 X101.29 Y118.864 E.02363
G1 X109.716 Y127.29 E.43289
G1 E-1.2 F2400
;WIPE_START
