;TIME:1168.74
;Filament used:0.95560m
;Layer height:0.200
; HEADER_BLOCK_START
; generated by Creality_Print V7.0.0.4127 on 2026-02-04 at 02:14:25
; total layer number: 145
; filament_density: 1.24,1.24,1.24,1.24
; filament_diameter: 1.75,1.75,1.75,1.75
; max_z_height: 28.20
; creality_uuid: 5918ce47-bd5d-4bbf-abe9-0a1b9d609937
; HEADER_BLOCK_END

; MINX = 98.04
; MINY = 97.26
; MINZ = 0.00
; MAXX = 121.96
; MAXY = 122.74
; MAXZ = 28.21

; multicolor_method = 0 
; THUMBNAIL_BLOCK_START

;
; THUMBNAIL_BLOCK_END

; THUMBNAIL_BLOCK_START

;
; THUMBNAIL_BLOCK_END

; external perimeters extrusion width = 0.42mm
; perimeters extrusion width = 0.45mm
; infill extrusion width = 0.45mm
; solid infill extrusion width = 0.42mm
; top infill extrusion width = 0.42mm
; support material extrusion width = 0.40mm
; first layer extrusion width = 0.50mm

; EXECUTABLE_BLOCK_START
M73 P0 R19
M201 X5000 Y5000 Z500 E5000
M203 X500 Y500 Z30 E100
M204 P5000 R2500 T5000 ; sets acceleration (P, T) and retract acceleration (R), mm/sec^2
M205 X10.00 Y10.00 Z0.40 E5.00 ; sets the jerk limits, mm/sec
; max_print_temp = 50,190
;TYPE:Custom
M220 S100 ;Reset Feedrate 
M221 S100 ;Reset Flowrate 
 
M140 S50 ;Set final bed temp 
G28 ;Home 
 
G92 E0 ;Reset Extruder 
G1 Z2.0 F3000 ;Move Z Axis up 
M104 S190 ;Set final nozzle temp 
G1 X-2.1 Y20 Z0.28 F5000.0 ;Move to start position 
M190 S50 ;Wait for bed temp to stabilize 
M109 S190 ;Wait for nozzle temp to stabilize 
G1 X-2.1 Y145.0 Z0.28 F1500.0 E15 ;Draw the first line 
G1 X-2.4 Y145.0 Z0.28 F5000.0 ;Move to side a little 
G1 X-2.4 Y20 Z0.28 F1500.0 E30 ;Draw the second line 
G92 E0  ;Reset Extruder 
G1 E-1.0000 F1800 ;Retract a bit 
G1 Z2.0 F3000 ;Move Z Axis up 
G1 E0.0000 F1800
G90
G21
M83 ; use relative distances for extrusion
;filament start gcode
; MANUAL_TOOL_CHANGE T0
G1 E-1.2 F2400
M106 S0
;LAYER_CHANGE
;:0.2
;HEIGHT:0.2
;BEFORE_LAYER_CHANGE
;0.2
G92 E0

;_SET_FAN_SPEED_CHANGING_LAYER
M204 P500
M205 X10 Y10
; OBJECT_ID: 421
; printing object vrouw.stl id:0 copy 0
M204 T500
G1 X104.564 Y100.81 Z.2 F9000
G1 E1.2 F1800
;TYPE:Support
;WIDTH:0.5
G2 X102.244 Y102.998 I-.942 J1.325 E.1613
G2 X103.596 Y102.696 I.175 J-2.396 E.05074
M73 P1 R19
G3 X102.432 Y105.086 I-4.809 J-.864 E.09723
G1 X102.404 Y104.709 E.01366
G2 X101.67 Y103.679 I-.894 J-.139 E.05053
G2 X101.247 Y104.155 I.086 J.503 E.02483
G2 X100.801 Y109.761 I17.502 J4.213 E.20389
G2 X100.956 Y113.892 I11.735 J1.63 E.15
G2 X102.213 Y114.064 I.7 J-.431 E.05236
G1 X102.363 Y113.667 E.01533
G1 X103.362 Y114.786 E.05416
G1 X96.643 Y114.786 E.2426
G1 X96.643 Y102.357 E.44873
G1 X99.5 Y102.357 E.10316
G1 X99.5 Y99.5 E.10316
G1 X105.402 Y99.5 E.2131
G1 X104.601 Y100.753 E.05367
G1 X104.564 Y100.048 F9000
G1 F1800
G1 X104.651 Y99.912 E.00585
G1 X104.413 Y99.912 E.00858
G1 X104.413 Y100.177 E.00959
G2 X103.906 Y100.104 I-.636 J2.607 E.01856
G1 X103.906 Y99.912 E.00694
G1 X103.398 Y99.912 E.01834
G1 X103.398 Y100.105 E.00699
G2 X102.89 Y100.185 I.031 J1.863 E.01862
G1 X102.89 Y99.912 E.00985
G1 X102.382 Y99.912 E.01834
G1 X102.382 Y100.489 E.02083
G2 X101.874 Y101.101 I3.598 J3.501 E.02875
G1 X101.874 Y99.912 E.04294
G1 X101.366 Y99.912 E.01834
G1 X101.366 Y103.34 E.12377
G3 X101.874 Y103.259 I.438 J1.115 E.01871
G3 X101.664 Y102.775 I2.019 J-1.162 E.0191
G1 X102.672 Y103.492 F9000
G1 F1800
G3 X102.394 Y103.484 I-.127 J-.377 E.01027
G3 X102.691 Y104.055 I-1.278 J1.026 E.02338
G2 X102.89 Y103.433 I-4.944 J-1.927 E.02357
G3 X102.672 Y103.492 I-.188 J-.262 E.00831
G1 X101.178 Y103.456 F9000
G1 F1800
G2 X100.858 Y104.018 I.345 J.568 E.02437
G1 X100.858 Y99.912 E.14827
G1 X100.351 Y99.912 E.01834
G2 X100.351 Y114.374 I383.698 J7.231 E.52221
G1 X99.843 Y114.374 E.01834
G1 X99.843 Y102.769 E.41902
G1 X99.335 Y102.769 E.01834
G1 X99.335 Y114.374 E.41902
G1 X98.827 Y114.374 E.01834
G1 X98.827 Y102.769 E.41902
G1 X98.319 Y102.769 E.01834
G1 X98.319 Y114.374 E.41902
G1 X97.811 Y114.374 E.01834
G1 X97.811 Y102.769 E.41902
G1 X97.303 Y102.769 E.01834
G1 X97.303 Y114.374 E.41902
G1 X97.055 Y114.374 E.00898
G1 X97.055 Y113.865 E.01838
G1 E-1.2 F2400
;WIPE_START
G1 F1800
G1 X97.055 Y114.374
G1 X97.303 Y114.374
G1 X97.303 Y113.132
;WIPE_END
G1 X101.032 Y112.319 Z.4 F9000
G1 X120.5 Y108.072 Z.4
G1 Z.2
G1 E1.2 F1800
G1 X123.357 Y108.072 E.10316
G1 X123.357 Y120.5 E.44873
G1 X116.643 Y120.5 E.24241
G1 X116.643 Y117.643 E.10316
G1 X114.99 Y117.643 E.05968
G2 X115.291 Y116.53 I-1.577 J-1.024 E.0423
G1 X115.416 Y116.564 E.00466
G3 X115.773 Y116.107 I.587 J.09 E.0219
G1 X115.635 Y115.921 E.00834
G3 X115.836 Y115.626 I.295 J-.016 E.01386
G2 X116.132 Y114.856 I-2.353 J-1.346 E.02988
G1 X116.532 Y114.588 E.01741
G3 X116.383 Y113.334 I2.974 J-.991 E.04589
G2 X115.39 Y113.752 I-.464 J.286 E.05576
G3 X114.559 Y114.287 I-.566 J.034 E.04334
G1 X115.079 Y113.068 E.04785
G2 X115.307 Y111.247 I-5.553 J-1.621 E.06654
G1 X115.322 Y111.255 E.00058
G2 X115.793 Y108.056 I-11.39 J-3.311 E.1171
G1 X116.255 Y108.015 E.01677
G3 X116.282 Y105.214 I173.611 J.27 E.10111
G1 X120.5 Y105.214 E.15228
G1 X120.5 Y108.003 E.10068
G1 X115.834 Y111.242 F9000
G1 F1800
G3 X116.795 Y111.776 I.433 J.353 E.05618
G1 X116.793 Y112.216 E.0159
G3 X116.415 Y112.964 I-.533 J.2 E.03401
G1 X116.227 Y113.081 E.00799
G1 X115.772 Y112.843 E.01852
G1 X115.657 Y112.556 E.01116
G2 X115.825 Y111.31 I-23.198 J-3.764 E.04541
G1 X115.905 Y110.697 F9000
G1 F1800
G1 X115.898 Y110.702 E.00032
G2 X116.094 Y109.182 I-21.175 J-3.515 E.05536
G1 X116.094 Y110.57 E.05012
G2 X116.602 Y110.654 I.416 J-.943 E.01878
G1 X116.685 Y108.39 E.0818
G3 X116.687 Y105.626 I56.011 J-1.329 E.0998
G1 X117.11 Y105.626 E.01527
G1 X117.185 Y111.138 E.19903
G3 X117.11 Y120.088 I-1178.806 J-5.415 E.32318
G1 X117.618 Y120.088 E.01834
G1 X117.618 Y105.626 E.52218
G1 X118.126 Y105.626 E.01834
G1 X118.126 Y120.088 E.52218
G1 X118.634 Y120.088 E.01834
G1 X118.634 Y105.626 E.52218
G1 X119.142 Y105.626 E.01834
M73 P2 R19
G1 X119.142 Y120.088 E.52218
G1 X119.649 Y120.088 E.01834
G1 X119.649 Y105.626 E.52218
G1 X120.088 Y105.626 E.01585
G1 X120.157 Y120.088 E.52219
G1 X120.665 Y120.088 E.01834
G1 X120.665 Y108.483 E.41902
G1 X121.173 Y108.483 E.01834
G1 X121.173 Y120.088 E.41902
G1 X121.681 Y120.088 E.01834
G1 X121.681 Y108.483 E.41902
G1 X122.189 Y108.483 E.01834
G1 X122.189 Y120.088 E.41902
G1 X122.697 Y120.088 E.01834
G1 X122.697 Y108.483 E.41902
G1 X122.945 Y108.483 E.00898
G1 X122.945 Y108.992 E.01838
G1 X116.318 Y115.686 F9000
G1 F1800
G2 X116.452 Y115.186 I-1.238 J-.6 E.01878
G1 X116.602 Y115.138 E.0057
G1 X116.602 Y117.231 E.07556
G1 X116.094 Y117.231 E.01834
G1 X116.094 Y116.377 E.03085
G2 X115.624 Y117.231 I.723 J.955 E.03628
G1 X115.866 Y117.231 E.00874
G1 E-1.2 F2400
;WIPE_START
G1 F9000
G1 X115.624 Y117.231
G1 X115.862 Y116.561
G1 X116.094 Y116.377
G1 X116.094 Y117.127
;WIPE_END
G1 X113.178 Y114.665 Z.4
G1 X101.759 Y105.025 Z.4
G1 Z.2
G1 E1.2 F1800
;TYPE:Outer wall
;WIDTH:0.476666
G2 X101.786 Y105.072 I-.024 J.045 E.00899
G1 X101.828 Y105.739 F9000
;WIDTH:0.380228
G1 F1800
G1 X101.837 Y105.901 E.00432
;WIDTH:0.411722
G1 X101.855 Y106.647 E.02175
;WIDTH:0.419465
G1 X101.867 Y107.204 E.01658
;WIDTH:0.44044
G1 X101.899 Y107.818 E.01929
;WIDTH:0.442985
G1 X101.892 Y108.243 E.01345
;WIDTH:0.466018
G1 X101.93 Y108.498 E.0086
;WIDTH:0.494058
G1 X101.963 Y109.114 E.02199
;WIDTH:0.53151
G1 X102.002 Y109.765 E.02516
;WIDTH:0.555369
G1 X102.017 Y110.518 E.03049
;WIDTH:0.561987
G3 X101.986 Y111.84 I-28.928 J-.01 E.05421
;WIDTH:0.559908
G1 X101.951 Y112.523 E.02796
;WIDTH:0.52243
G1 X101.898 Y112.851 E.01257
;WIDTH:0.49488
G1 X101.884 Y112.952 E.00365
;WIDTH:0.46058
G1 X101.871 Y113.054 E.00338
;WIDTH:0.426279
G1 X101.707 Y113.529 E.01522
G1 X101.554 Y113.55 E.00467
;WIDTH:0.427706
G1 X101.485 Y113.047 E.01542
;WIDTH:0.475068
G1 X101.48 Y112.79 E.0088
;WIDTH:0.52243
G1 X101.474 Y112.532 E.00977
;WIDTH:0.559908
G1 X101.47 Y111.812 E.0294
;WIDTH:0.561987
G2 X101.504 Y110.51 I-86.311 J-2.931 E.05342
;WIDTH:0.555369
G1 X101.513 Y109.767 E.03008
;WIDTH:0.53151
G1 X101.513 Y109.005 E.0294
;WIDTH:0.487462
G1 X101.496 Y108.358 E.02273
;WIDTH:0.44044
G2 X101.491 Y107.202 I-19.808 J-.493 E.03631
;WIDTH:0.419094
G1 X101.494 Y106.345 E.02547
;WIDTH:0.401619
G1 X101.532 Y105.671 E.01912
;WIDTH:0.380228
G1 X101.789 Y105.73 E.00704
G1 E-1.2 F2400
;WIPE_START
G1 F9000
G1 X101.837 Y105.901
G1 X101.855 Y106.647
G1 X101.867 Y107.204
G1 X101.894 Y107.722
;WIPE_END
G1 X102.502 Y103.955 Z.4
G1 X102.779 Y102.231 Z.4
G1 Z.2
G1 E1.2 F1800
;WIDTH:0.583146
G1 X102.8 Y101.851 E.01623
G3 X103.037 Y101.476 I1.898 J.933 E.01898
G1 X103.263 Y101.395 E.01025
M73 P2 R18
G1 X103.4 Y101.26 E.00822
G1 X103.812 Y101.265 E.01758
G1 X103.6 Y101.703 E.02078
G1 X103.257 Y102.034 E.02033
G1 X102.816 Y102.216 E.02035
G1 E-1.2 F2400
;WIPE_START
G1 F9000
G1 X102.8 Y101.851
G1 X103.037 Y101.476
G1 X103.263 Y101.395
G1 X103.4 Y101.26
G1 X103.812 Y101.265
G1 X103.661 Y101.577
;WIPE_END
G1 X107.408 Y100.852 Z.4
G1 X111.666 Y100.029 Z.4
G1 Z.2
G1 E1.2 F1800
;WIDTH:0.556446
G1 X112.117 Y100.039 E.01829
;WIDTH:0.600758
G3 X113.33 Y100.072 I-1.277 J68.524 E.05348
;WIDTH:0.553324
G1 X113.422 Y100.079 E.00374
G1 E-1.2 F2400
;WIPE_START
G1 F9000
G1 X113.33 Y100.072
G1 X112.117 Y100.039
G1 X111.666 Y100.029
;WIPE_END
G1 X108.876 Y100.002 Z.4
G1 Z.2
G1 E1.2 F1800
;WIDTH:0.547442
G1 X109.485 Y100.01 E.02428
;WIDTH:0.517794
G1 X110.207 Y100.022 E.02707
;WIDTH:0.500186
G1 X110.737 Y100.024 E.01914
G1 E-1.2 F2400
;WIPE_START
G1 F9000
G1 X110.207 Y100.022
G1 X109.485 Y100.01
G1 X108.876 Y100.002
;WIPE_END
G1 X108.137 Y99.899 Z.4
G1 Z.2
G1 E1.2 F1800
;WIDTH:0.38292
G1 X108.073 Y99.936 E.00198
G1 X108.137 Y99.973 E.00198
G1 X108.158 Y99.936 E.00114
G1 E-1.2 F2400
;WIPE_START
G1 F9000
G1 X108.137 Y99.973
G1 X108.073 Y99.936
G1 X108.137 Y99.899
;WIPE_END
G1 X109.873 Y103.298 Z.4
G1 X115.631 Y114.568 Z.4
G1 Z.2
G1 E1.2 F1800
G1 X115.681 Y114.482 E.00267
G1 X115.411 Y115.127 F9000
G1 F1800
G1 X115.347 Y115.164 E.00198
G1 X115.411 Y115.201 E.00198
G1 X115.432 Y115.164 E.00114
G1 E-1.2 F2400
;WIPE_START
G1 F9000
G1 X115.411 Y115.201
G1 X115.347 Y115.164
G1 X115.411 Y115.127
;WIPE_END
G1 X114.721 Y116.382 Z.4
G1 Z.2
G1 E1.2 F1800
G1 X114.657 Y116.419 E.00198
G1 X114.721 Y116.456 E.00198
G1 X114.742 Y116.419 E.00114
G1 E-1.2 F2400
;WIPE_START
G1 F9000
G1 X114.721 Y116.456
G1 X114.657 Y116.419
G1 X114.721 Y116.382
;WIPE_END
G1 X111.384 Y118.234 Z.4
G1 X110.677 Y118.626 Z.4
G1 Z.2
G1 E1.2 F1800
;WIDTH:0.63317
G1 X110.986 Y118.564 E.01468
G1 E-1.2 F2400
;WIPE_START
G1 F9000
G1 X110.677 Y118.626
;WIPE_END
G1 X109.897 Y118.742 Z.4
G1 Z.2
G1 E1.2 F1800
;WIDTH:0.626212
G1 X109.929 Y118.779 E.00227
;WIDTH:0.577554
G1 X109.962 Y118.816 E.00208
;WIDTH:0.528896
G1 X109.995 Y118.852 E.00189
;WIDTH:0.480237
G1 X110.027 Y118.889 E.0017
;WIDTH:0.431579
G1 X110.06 Y118.926 E.00151
;WIDTH:0.38292
G1 X110.191 Y118.998 E.00403
G1 X109.28 Y118.667 F9000
G1 F1800
G1 X109.216 Y118.704 E.00198
G1 X109.28 Y118.74 E.00198
G1 X109.301 Y118.704 E.00114
G1 E-1.2 F2400
;WIPE_START
G1 F9000
G1 X109.28 Y118.74
G1 X109.216 Y118.704
G1 X109.28 Y118.667
;WIPE_END
G1 X111.078 Y118.506 Z.4
G1 Z.2
G1 E1.2 F1800
;WIDTH:0.561953
G1 X111.167 Y118.462 E.00405
;WIDTH:0.514759
G1 X111.255 Y118.418 E.00369
;WIDTH:0.467565
G1 X111.344 Y118.373 E.00332
;WIDTH:0.420371
G1 X111.432 Y118.329 E.00295
;WIDTH:0.422499
G1 X112.159 Y118.195 E.02216
G1 X112.401 Y118.091 E.00791
;WIDTH:0.462147
G1 X112.857 Y117.838 E.01726
;WIDTH:0.487169
G2 X113.627 Y117.458 I-2.206 J-5.435 E.03015
;WIDTH:0.455352
G1 X113.866 Y117.324 E.00894
;WIDTH:0.425944
G1 X114.297 Y117.024 E.01589
G1 X114.504 Y117.134 E.00708
G1 X114.442 Y117.183 E.0024
G1 X114.309 Y117.468 E.0095
G1 X114.108 Y117.616 E.00755
;WIDTH:0.459594
G1 X114.036 Y117.733 E.00454
;WIDTH:0.473274
G1 X113.687 Y117.92 E.01346
;WIDTH:0.519162
G1 X113.448 Y118.115 E.01159
G1 X113.204 Y118.179 E.00952
;WIDTH:0.484324
G1 X112.959 Y118.243 E.00882
;WIDTH:0.449485
G1 X112.439 Y118.498 E.01859
;WIDTH:0.432324
G1 X112.218 Y118.57 E.00714
;WIDTH:0.422499
G1 X111.476 Y118.655 E.02239
;WIDTH:0.41651
G1 X111.395 Y118.64 E.00246
;WIDTH:0.459842
G1 X111.313 Y118.625 E.00274
;WIDTH:0.503174
G1 X111.231 Y118.609 E.00303
;WIDTH:0.546506
G1 X111.149 Y118.594 E.00331
;WIDTH:0.589838
G1 X111.067 Y118.579 E.00359
;WIDTH:0.63317
G1 X110.986 Y118.564 E.00388
G1 X111.032 Y118.535 E.00255
;WIDTH:0.597562
G1 X111.044 Y118.527 E.00064
; stop printing object vrouw.stl id:0 copy 0
;TIME_ELAPSED:31.657930

M106 S255
;LAYER_CHANGE
;:0.4
;HEIGHT:0.2
;BEFORE_LAYER_CHANGE
;0.4
G92 E0

G1 E-1.2 F2400
;WIPE_START
G1 F9000
G1 X111.167 Y118.462
G1 X111.255 Y118.418
G1 X111.344 Y118.373
G1 X111.432 Y118.329
G1 X112.159 Y118.195
G1 X112.401 Y118.091
G1 X112.857 Y117.838
G1 X112.894 Y117.821
;WIPE_END
;_SET_FAN_SPEED_CHANGING_LAYER
M204 P2500
; OBJECT_ID: 421
; printing object vrouw.stl id:0 copy 0
M204 T2500
G1 X111.014 Y114.5 Z.4
G1 X103.59 Y101.377 Z.4
G1 E1.2 F1800
M204 P2000
;TYPE:Inner wall
;WIDTH:0.449999
G1 F4740
G1 X103.979 Y101.288 E.01283
G1 F2880
G1 X104.111 Y101.287 E.00424
G1 X104.316 Y101.287 E.00659
M204 P500
;TYPE:Overhang wall
G1 F3000
G1 X104.475 Y101.286 E.00511
G1 X105.021 Y101.351 E.01768
G1 X105.988 Y101.267 E.03121
G1 X106.515 Y101.153 E.01734
G1 X107.066 Y100.885 E.0197
G1 X107.562 Y100.481 E.02057
G1 X107.85 Y100.138 E.0144
M204 P2000
;TYPE:Inner wall
G1 F2880
G1 X108 Y100.003 E.00649
G1 X108.137 Y99.881 E.0059
G1 X108.241 Y99.846 E.00353
G1 F2040
G1 X108.425 Y99.784 E.00624
G1 X108.624 Y99.813 E.00647
M106 S255
G1 F2880
G1 X109.363 Y99.923 E.02403
G1 F5340
G1 X110.033 Y99.977 E.02161
G1 F2880
G1 X110.997 Y100.025 E.03104
G1 F960
G1 X111.156 Y100.033 E.00512
G1 X111.391 Y100.036 E.00756
M106 S255
G1 F2880
G1 X111.87 Y100.042 E.0154
G1 F5400
G1 X112.572 Y100.051 E.02258
G1 X113.103 Y100.091 E.01712
G1 F4800
G1 X113.662 Y100.214 E.01841
G1 F2880
G1 X113.872 Y100.344 E.00794
G1 X114.152 Y100.517 E.01058
M204 P500
;TYPE:Overhang wall
G1 F3000
G1 X114.754 Y100.808 E.0215
M204 P2000
;TYPE:Inner wall
G1 X115.3 Y100.924 E.01795
M204 P500
;TYPE:Overhang wall
G1 X116.566 Y101.295 E.04242
G1 X116.707 Y101.428 E.00623
G1 X116.974 Y101.592 E.01008
G1 X117.142 Y101.837 E.00955
G1 X117.193 Y102.427 E.01904
G1 X117.2 Y103.036 E.01958
G1 X117.197 Y103.679 E.02068
G1 X117.145 Y104.386 E.0228
G1 X117.193 Y105.567 E.03801
G1 X117.206 Y106.774 E.03881
G1 X117.185 Y108.295 E.04891
G1 X116.935 Y108.387 E.00857
G1 X116.745 Y108.598 E.00913
G1 X116.682 Y108.803 E.0069
G1 X116.61 Y109.43 E.02029
G1 X116.487 Y110.564 E.03668
G1 X116.308 Y111.308 E.02461
M204 P2000
;TYPE:Inner wall
G1 X116.305 Y111.321 E.00043
G1 F2580
G1 X116.187 Y112.537 E.03929
G1 X116.109 Y112.86 E.01069
M204 P500
;TYPE:Overhang wall
G1 F3000
G1 X115.988 Y113.337 E.01582
M204 P2000
;TYPE:Inner wall
G1 F2880
G1 X115.933 Y113.537 E.00667
M106 S255
G1 X115.879 Y113.731 E.00648
G1 F3300
G1 X115.807 Y114.232 E.01628
G1 F2880
G1 X115.716 Y114.578 E.0115
G1 F2760
G1 X115.646 Y114.842 E.00878
G1 F2640
G1 X114.934 Y116.159 E.04814
G1 X114.628 Y116.76 E.02169
G1 F2880
G1 X114.564 Y116.932 E.0059
M106 S255
G1 X114.399 Y117.369 E.01502
G1 F4920
G1 X114.152 Y117.673 E.0126
G1 X113.533 Y117.994 E.02242
G1 F5400
G1 X112.982 Y118.21 E.01903
G1 X112.393 Y118.476 E.02078
G1 X111.177 Y118.616 E.03936
G1 F2880
G1 X110.327 Y118.838 E.02825
G1 F2700
G1 X110.311 Y118.842 E.00053
G1 X110.21 Y118.864 E.00332
G1 F2880
G1 X109.722 Y118.968 E.01604
G1 X109.427 Y118.901 E.00973
G1 X109.422 Y118.9 E.00016
G1 X109.073 Y118.82 E.01151
G1 X108.951 Y118.792 E.00403
G1 X108.75 Y118.746 E.00663
G1 F1200
G1 X108.62 Y118.717 E.00428
G1 X108.533 Y118.719 E.0028
M204 P500
;TYPE:Overhang wall
G1 F3000
G1 X107.921 Y118.737 E.01969
G1 X107.528 Y118.635 E.01306
M204 P2000
;TYPE:Inner wall
G1 X107.001 Y118.492 E.01756
M204 P500
;TYPE:Overhang wall
G1 X106.857 Y118.451 E.00481
G1 X106.336 Y118.162 E.01916
G1 X105.772 Y117.899 E.02001
G1 X105.29 Y117.725 E.01648
G1 X104.882 Y117.64 E.0134
G1 X104.601 Y117.615 E.00907
G1 X104.323 Y117.741 E.00981
G1 X103.87 Y118.118 E.01895
G1 X103.587 Y117.835 E.01287
G1 X103.463 Y117.6 E.00854
